; GCode generated by CraftWare
G28 X0 Y0
G28 Z0

M190 S60 ;set and wait bed temperature
M109 S220 ;set and wait head temperature
; ------------------------------------
; Layer #0
; ------------------------------------
G21 ; mm
G90 ; abs
G92 E0 ; reset extr
M106 S0
;segType:Skirt
G0 F4800 E-1.000
G0 F2400 Z0.200
G0 F4800 X37.894 Y181.188
G0 F4800 E0.000
G1 F600 X38.092 Y181.388 E0.0093
G1 X63.887 Y181.388 E0.8668
G1 X64.349 Y181.322 E0.8824
G1 X67.259 Y178.393 E1.0196
G1 X67.259 Y169.875 E1.3028
G1 X68.318 Y168.811 E1.3527
G1 X68.913 Y167.812 E1.3914
G1 X69.178 Y167.013 E1.4193
G1 X69.244 Y166.548 E1.4350
G1 X69.244 Y163.886 E1.5234
G1 X69.111 Y163.487 E1.5374
G1 X69.111 Y163.221 E1.5463
G1 X68.715 Y162.555 E1.5720
G1 X68.582 Y162.156 E1.5860
G1 X67.259 Y160.825 E1.6484
G1 X67.259 Y152.307 E1.9316
G1 X64.349 Y149.379 E2.0688
G1 X64.019 Y149.179 E2.0816
G1 X38.092 Y149.179 E2.9435
G1 X35.182 Y152.107 E3.0808
G1 X35.116 Y152.573 E3.0964
G1 X35.116 Y160.559 E3.3619
G1 X34.917 Y160.892 E3.3748
G1 X33.859 Y161.956 E3.4247
G1 X33.264 Y162.954 E3.4633
G1 X33.264 Y163.221 E3.4722
G1 X33.132 Y163.354 E3.4784
G1 X33.132 Y163.886 E3.4961
G1 X32.999 Y164.285 E3.5101
G1 X32.999 Y166.415 E3.5809
G1 X33.132 Y166.548 E3.5871
G1 X33.132 Y167.346 E3.6137
G1 X33.529 Y168.012 E3.6394
G1 X33.661 Y168.411 E3.6534
G1 X35.116 Y169.875 E3.7220
G1 X35.116 Y178.393 E4.0052
G1 X37.894 Y181.188 E4.1362
G0 F4800 E3.136
G0 F4800 X84.060 Y168.411
G0 F4800 E4.136
G1 F600 X84.655 Y169.409 E4.1748
G1 X85.713 Y170.474 E4.2247
G1 X85.911 Y170.807 E4.2376
G1 X85.911 Y180.922 E4.5739
G1 X88.689 Y183.717 E4.7049
G1 X88.888 Y183.917 E4.7142
G1 X114.682 Y183.917 E5.5717
G1 X115.145 Y183.850 E5.5873
G1 X118.055 Y180.922 E5.7245
G1 X118.055 Y170.541 E6.0696
G1 X119.378 Y169.210 E6.1320
G1 X119.775 Y168.544 E6.1578
G1 X119.775 Y168.278 E6.1666
G1 X119.907 Y168.145 E6.1728
G1 X120.039 Y167.213 E6.2041
G1 X120.039 Y164.551 E6.2926
G1 X119.907 Y164.152 E6.3066
G1 X119.907 Y163.886 E6.3155
G1 X119.312 Y162.888 E6.3541
G1 X119.047 Y162.622 E6.3666
G1 X118.849 Y162.289 E6.3794
G1 X118.055 Y161.490 E6.4169
G1 X118.055 Y151.109 E6.7620
G1 X115.145 Y148.181 E6.8992
G1 X114.682 Y148.114 E6.9148
G1 X89.284 Y148.114 E7.7591
G1 X88.822 Y148.181 E7.7746
G1 X85.911 Y151.109 E7.9119
G1 X85.911 Y161.490 E8.2570
G1 X84.589 Y162.821 E8.3194
G1 X84.457 Y163.041 E8.3279
;segType:Loop
G0 F4800 E7.328
G0 F4800 X90.516 Y178.622
G0 F4800 E8.328
G1 F600 X90.516 Y168.899 E8.6511
G1 X89.837 Y168.504 E8.6772
G1 X89.513 Y168.251 E8.6909
G1 X89.221 Y167.950 E8.7048
G1 X88.972 Y167.608 E8.7189
G1 X88.774 Y167.235 E8.7329
G1 X88.631 Y166.839 E8.7469
G1 X88.545 Y166.432 E8.7607
G1 X88.517 Y166.021 E8.7744
G1 X88.544 Y165.625 E8.7876
G1 X88.626 Y165.224 E8.8012
G1 X88.766 Y164.829 E8.8152
G1 X88.961 Y164.454 E8.8292
G1 X89.208 Y164.111 E8.8433
G1 X89.500 Y163.806 E8.8573
G1 X89.827 Y163.548 E8.8712
G1 X90.516 Y163.145 E8.8977
G1 X90.516 Y152.726 E9.2440
G1 X113.516 Y152.726 E10.0087
G1 X113.516 Y163.145 E10.3550
G1 X114.092 Y163.481 E10.3772
G1 X114.478 Y163.763 E10.3931
G1 X114.771 Y164.054 E10.4068
G1 X115.026 Y164.391 E10.4208
G1 X115.230 Y164.760 E10.4349
G1 X115.381 Y165.154 E10.4489
G1 X115.474 Y165.559 E10.4627
G1 X115.510 Y165.968 E10.4764
G1 X115.487 Y166.424 E10.4915
G1 X115.406 Y166.821 E10.5050
G1 X115.266 Y167.215 E10.5189
G1 X115.070 Y167.590 E10.5330
G1 X114.824 Y167.934 E10.5470
G1 X114.532 Y168.239 E10.5611
G1 X114.205 Y168.497 E10.5749
G1 X113.516 Y168.900 E10.6015
G1 X113.516 Y179.319 E10.9478
G1 X90.516 Y179.319 E11.7124
G1 X90.516 Y178.822 E11.7289
;segType:Perimeter
G0 X90.776 Y179.386 F4800
G1 F360 X90.116 Y179.661 E11.7527
G1 X90.116 Y169.131 E12.1028
G1 X89.613 Y168.839 E12.1221
G1 X89.246 Y168.552 E12.1376
G1 X88.915 Y168.211 E12.1534
G1 X88.633 Y167.823 E12.1693
G1 X88.408 Y167.399 E12.1853
G1 X88.245 Y166.950 E12.2012
G1 X88.148 Y166.487 E12.2169
G1 X88.116 Y166.022 E12.2324
G1 X88.146 Y165.571 E12.2474
G1 X88.240 Y165.115 E12.2629
G1 X88.398 Y164.667 E12.2787
G1 X88.620 Y164.242 E12.2946
G1 X88.900 Y163.852 E12.3106
G1 X89.231 Y163.506 E12.3265
G1 X89.602 Y163.214 E12.3422
G1 X90.116 Y162.913 E12.3620
G1 X90.116 Y152.324 E12.7140
G1 X113.916 Y152.324 E13.5052
G1 X113.916 Y162.913 E13.8573
G1 X114.310 Y163.143 E13.8724
G1 X114.737 Y163.455 E13.8900
G1 X115.072 Y163.788 E13.9057
G1 X115.361 Y164.170 E13.9216
G1 X115.593 Y164.589 E13.9376
G1 X115.764 Y165.035 E13.9535
G1 X115.870 Y165.496 E13.9692
G1 X115.911 Y165.960 E13.9847
G1 X115.885 Y166.475 E14.0018
G1 X115.792 Y166.930 E14.0172
G1 X115.633 Y167.377 E14.0330
G1 X115.411 Y167.803 E14.0490
G1 X115.131 Y168.193 E14.0649
G1 X114.801 Y168.538 E14.0808
G1 X114.430 Y168.831 E14.0965
G1 X113.916 Y169.132 E14.1163
G1 X113.916 Y179.721 E14.4684
G1 X90.175 Y179.721 E15.2576
G1 X90.449 Y179.056
;segType:HShell
G0 X90.914 Y177.523 F4800
G1 F600 X90.914 Y168.668 E15.5519
G1 X90.060 Y168.170 E15.5848
G1 X89.779 Y167.951 E15.5966
G1 X89.526 Y167.690 E15.6087
G1 X89.310 Y167.394 E15.6209
G1 X89.139 Y167.071 E15.6331
G1 X89.015 Y166.728 E15.6452
G1 X88.941 Y166.376 E15.6571
G1 X88.917 Y166.021 E15.6690
G1 X88.940 Y165.679 E15.6804
G1 X89.010 Y165.332 E15.6921
G1 X89.132 Y164.990 E15.7042
G1 X89.301 Y164.666 E15.7163
G1 X89.514 Y164.368 E15.7285
G1 X89.767 Y164.104 E15.7407
G1 X90.051 Y163.881 E15.7527
G1 X90.914 Y163.375 E15.7860
G1 X90.914 Y153.127 E16.1266
G1 X113.117 Y153.127 E16.8647
G1 X113.117 Y163.376 E17.2055
G1 X113.874 Y163.818 E17.2346
G1 X114.219 Y164.070 E17.2488
G1 X114.471 Y164.320 E17.2606
G1 X114.691 Y164.611 E17.2727
G1 X114.868 Y164.931 E17.2849
G1 X114.999 Y165.272 E17.2970
G1 X115.080 Y165.622 E17.3090
G1 X115.110 Y165.975 E17.3207
G1 X115.090 Y166.373 E17.3340
G1 X115.021 Y166.712 E17.3455
G1 X114.900 Y167.054 E17.3575
G1 X114.730 Y167.379 E17.3697
G1 X114.517 Y167.677 E17.3819
G1 X114.264 Y167.940 E17.3940
G1 X113.981 Y168.164 E17.4060
G1 X113.117 Y168.669 E17.4393
G1 X113.117 Y178.917 E17.7800
G1 X90.914 Y178.917 E18.5181
G1 X90.914 Y177.723 E18.5578
G0 X91.709 Y175.324 F4800
G1 F600 X91.709 Y168.208 E18.7944
G1 X90.505 Y167.505 E18.8408
G1 X90.309 Y167.353 E18.8490
G1 X90.134 Y167.173 E18.8574
G1 X89.985 Y166.968 E18.8658
G1 X89.866 Y166.744 E18.8742
G1 X89.781 Y166.508 E18.8826
G1 X89.730 Y166.266 E18.8908
G1 X89.729 Y165.787 E18.9067
G1 X89.777 Y165.548 E18.9148
G1 X89.861 Y165.312 E18.9231
G1 X89.978 Y165.088 E18.9315
G1 X90.126 Y164.882 E18.9399
G1 X90.301 Y164.699 E18.9484
G1 X90.498 Y164.544 E18.9567
G1 X91.709 Y163.835 E19.0034
G1 X91.709 Y153.927 E19.3327
G1 X112.323 Y153.927 E20.0180
G1 X112.323 Y163.837 E20.3475
G1 X113.440 Y164.489 E20.3905
G1 X113.703 Y164.681 E20.4013
G1 X113.873 Y164.849 E20.4092
G1 X114.025 Y165.050 E20.4176
G1 X114.147 Y165.271 E20.4260
G1 X114.238 Y165.507 E20.4344
G1 X114.293 Y165.748 E20.4426
G1 X114.314 Y165.990 E20.4507
G1 X114.300 Y166.272 E20.4601
G1 X114.254 Y166.497 E20.4677
G1 X114.171 Y166.732 E20.4760
G1 X114.053 Y166.957 E20.4845
G1 X113.906 Y167.163 E20.4929
G1 X113.731 Y167.346 E20.5013
G1 X113.534 Y167.501 E20.5096
G1 X112.323 Y168.209 E20.5563
G1 X112.323 Y178.118 E20.8857
G1 X91.709 Y178.118 E21.5709
G1 X91.709 Y175.524 E21.6572
G0 X92.901 Y172.027 F4800
G1 F600 X92.901 Y167.517 E21.8071
G1 X91.195 Y166.522 E21.8728
G1 X91.050 Y166.393 E21.8792
G1 X90.922 Y166.109 E21.8896
G1 X90.960 Y165.799 E21.8999
G1 X91.047 Y165.657 E21.9055
G1 X91.192 Y165.524 E21.9120
G1 X92.901 Y164.525 E21.9778
G1 X92.901 Y155.126 E22.2903
G1 X111.130 Y155.126 E22.8963
G1 X111.130 Y164.528 E23.2088
G1 X112.769 Y165.483 E23.2719
G1 X112.975 Y165.653 E23.2808
G1 X113.107 Y165.935 E23.2911
G1 X113.072 Y166.245 E23.3015
G1 X112.984 Y166.389 E23.3071
G1 X112.840 Y166.520 E23.3136
G1 X111.130 Y167.519 E23.3794
G1 X111.130 Y176.918 E23.6919
G1 X92.901 Y176.918 E24.2979
G1 X92.901 Y172.227 E24.4538
G0 X93.696 Y169.829 F4800
G1 F600 X93.696 Y167.056 E24.5460
G1 X91.922 Y166.022 E24.6143
G1 X93.696 Y164.986 E24.6826
G1 X93.696 Y155.926 E24.9838
G1 X110.336 Y155.926 E25.5369
G1 X110.336 Y164.988 E25.8382
G1 X112.109 Y166.022 E25.9064
G1 X110.336 Y167.059 E25.9747
G1 X110.336 Y176.119 E26.2759
G1 X93.696 Y176.119 E26.8291
G1 X93.696 Y170.029 E27.0315
G0 X94.093 Y168.730 F4800
G1 F600 X94.093 Y166.826 E27.0948
G1 X92.714 Y166.022 E27.1479
G1 X94.093 Y165.216 E27.2010
G1 X94.093 Y156.326 E27.4966
G1 X109.938 Y156.326 E28.0233
G1 X109.938 Y165.219 E28.3189
G1 X111.318 Y166.023 E28.3720
G1 X109.938 Y166.829 E28.4251
G1 X109.938 Y175.719 E28.7207
G1 X94.093 Y175.719 E29.2474
G1 X94.093 Y168.929 E29.4731
G0 X95.683 Y164.935 F4800
G1 F600 X95.683 Y157.925 E29.7062
G1 X108.349 Y157.925 E30.1272
G1 X108.349 Y174.120 E30.6656
G1 X95.683 Y174.120 E31.0867
G1 X95.683 Y165.135 E31.3854
G0 X102.389 Y166.819 F4800
G1 F600 X102.389 Y168.123 E31.4287
G1 X101.643 Y168.123 E31.4535
G1 X101.643 Y163.922 E31.5932
G1 X102.389 Y163.922 E31.6180
G1 X102.389 Y166.619 E31.7076
G0 X102.786 Y165.720 F4800
G1 F600 X102.786 Y168.522 E31.8008
G1 X101.246 Y168.522 E31.8520
G1 X101.246 Y163.522 E32.0182
G1 X102.786 Y163.522 E32.0694
G1 X102.786 Y165.520 E32.1359
G0 X103.183 Y164.621 F4800
G1 F600 X103.183 Y168.922 E32.2788
G1 X100.848 Y168.922 E32.3565
G1 X100.848 Y163.122 E32.5493
G1 X103.183 Y163.122 E32.6269
G1 X103.183 Y164.421 E32.6701
G0 X103.581 Y163.522 F4800
G1 F600 X103.581 Y169.322 E32.8629
G1 X100.451 Y169.322 E32.9670
G1 X100.451 Y162.722 E33.1864
G1 X103.581 Y162.722 E33.2904
G1 X103.581 Y163.322 E33.3103
G0 X103.978 Y162.423 F4800
G1 F600 X103.978 Y169.722 E33.5530
G1 X100.054 Y169.722 E33.6835
G1 X100.054 Y162.323 E33.9294
G1 X103.879 Y162.323 E34.0566
G0 X103.231 Y161.923 F4800
G1 F600 X104.375 Y161.923 E34.0946
G1 X104.375 Y170.122 E34.3672
G1 X99.656 Y170.122 E34.5241
G1 X99.656 Y161.923 E34.7966
G1 X103.032 Y161.923 E34.9089
G0 X102.138 Y161.523 F4800
G1 F600 X104.773 Y161.523 E34.9965
G1 X104.773 Y170.522 E35.2956
G1 X99.259 Y170.522 E35.4789
G1 X99.259 Y161.523 E35.7780
G1 X101.940 Y161.523 E35.8672
G0 X101.046 Y161.123 F4800
G1 F600 X105.170 Y161.123 E36.0043
G1 X105.170 Y170.921 E36.3300
G1 X98.861 Y170.921 E36.5397
G1 X98.861 Y161.123 E36.8654
G1 X100.847 Y161.123 E36.9314
G0 X99.954 Y160.723 F4800
G1 F600 X105.567 Y160.723 E37.1181
G1 X105.567 Y171.321 E37.4704
G1 X98.464 Y171.321 E37.7065
G1 X98.464 Y160.723 E38.0588
G1 X99.755 Y160.723 E38.1017
G0 X98.861 Y160.324 F4800
G1 F600 X105.965 Y160.324 E38.3379
G1 X105.965 Y171.721 E38.7168
G1 X98.067 Y171.721 E38.9793
G1 X98.067 Y160.324 E39.3582
G1 X98.663 Y160.324 E39.3780
G0 X97.769 Y159.924 F4800
G1 F600 X106.362 Y159.924 E39.6637
G1 X106.362 Y172.121 E40.0692
G1 X97.669 Y172.121 E40.3582
G1 X97.669 Y160.024 E40.7603
G0 X97.272 Y160.539 F4800
G1 F600 X97.272 Y159.524 E40.7940
G1 X106.760 Y159.524 E41.1094
G1 X106.760 Y172.521 E41.5415
G1 X97.272 Y172.521 E41.8569
G1 X97.272 Y160.738 E42.2486
G0 X96.875 Y161.638 F4800
G1 F600 X96.875 Y159.124 E42.3321
G1 X107.157 Y159.124 E42.6739
G1 X107.157 Y172.920 E43.1326
G1 X96.875 Y172.920 E43.4744
G1 X96.875 Y161.838 E43.8428
G0 X96.477 Y162.737 F4800
G1 F600 X96.477 Y158.724 E43.9762
G1 X107.554 Y158.724 E44.3444
G1 X107.554 Y173.320 E44.8297
G1 X96.477 Y173.320 E45.1979
G1 X96.477 Y162.937 E45.5431
G0 X96.080 Y163.836 F4800
G1 F600 X96.080 Y158.325 E45.7263
G1 X107.952 Y158.325 E46.1210
G1 X107.952 Y173.720 E46.6328
G1 X96.080 Y173.720 E47.0274
G1 X96.080 Y164.036 E47.3493
G0 X95.175 Y165.970 F4800
G1 F600 X95.285 Y165.906 E47.3536
G1 X95.285 Y157.525 E47.6322
G1 X108.746 Y157.525 E48.0797
G1 X108.746 Y165.910 E48.3584
G1 X108.943 Y166.024 E48.3660
G1 X108.746 Y166.139 E48.3735
G1 X108.746 Y174.520 E48.6522
G1 X95.285 Y174.520 E49.0996
G1 X95.285 Y166.135 E49.3784
G1 X95.175 Y166.071 E49.3826
G0 X94.888 Y166.531 F4800
G1 F600 X94.888 Y166.365 E49.3882
G1 X94.297 Y166.021 E49.4109
G1 X94.888 Y165.676 E49.4336
G1 X94.888 Y157.125 E49.7179
G1 X109.144 Y157.125 E50.1918
G1 X109.144 Y165.679 E50.4762
G1 X109.734 Y166.024 E50.4989
G1 X109.144 Y166.369 E50.5216
G1 X109.144 Y174.919 E50.8059
G1 X94.888 Y174.919 E51.2798
G1 X94.888 Y166.731 E51.5520
G0 X94.491 Y167.630 F4800
G1 F600 X94.491 Y166.595 E51.5864
G1 X93.505 Y166.021 E51.6243
G1 X94.491 Y165.446 E51.6622
G1 X94.491 Y156.725 E51.9521
G1 X109.541 Y156.725 E52.4525
G1 X109.541 Y165.449 E52.7425
G1 X110.526 Y166.023 E52.7804
G1 X109.541 Y166.599 E52.8183
G1 X109.541 Y175.319 E53.1082
G1 X94.491 Y175.319 E53.6085
G1 X94.491 Y167.830 E53.8575
G0 X93.298 Y170.928 F4800
G1 F600 X93.298 Y167.286 E53.9785
G1 X91.428 Y166.196 E54.0505
G1 X91.330 Y166.046 E54.0565
G1 X91.428 Y165.849 E54.0638
G1 X93.298 Y164.756 E54.1358
G1 X93.298 Y155.526 E54.4427
G1 X110.733 Y155.526 E55.0222
G1 X110.733 Y164.758 E55.3292
G1 X112.542 Y165.813 E55.3988
G1 X112.700 Y166.003 E55.4070
G1 X112.604 Y166.195 E55.4141
G1 X110.733 Y167.289 E55.4862
G1 X110.733 Y176.519 E55.7930
G1 X93.298 Y176.519 E56.3726
G1 X93.298 Y171.128 E56.5518
G0 X92.504 Y173.126 F4800
G1 F600 X92.504 Y167.747 E56.7306
G1 X90.961 Y166.847 E56.7900
G1 X90.744 Y166.653 E56.7997
G1 X90.596 Y166.416 E56.8089
G1 X90.524 Y166.167 E56.8176
G1 X90.523 Y165.881 E56.8271
G1 X90.593 Y165.636 E56.8355
G1 X90.739 Y165.398 E56.8448
G1 X90.957 Y165.200 E56.8546
G1 X92.504 Y164.295 E56.9142
G1 X92.504 Y154.726 E57.2323
G1 X111.528 Y154.726 E57.8647
G1 X111.528 Y164.297 E58.1829
G1 X112.996 Y165.154 E58.2394
G1 X113.275 Y165.384 E58.2514
G1 X113.423 Y165.613 E58.2605
G1 X113.504 Y165.873 E58.2695
G1 X113.507 Y166.168 E58.2794
G1 X113.439 Y166.408 E58.2876
G1 X113.292 Y166.647 E58.2970
G1 X113.075 Y166.844 E58.3067
G1 X111.528 Y167.749 E58.3663
G1 X111.528 Y177.318 E58.6844
G1 X92.504 Y177.318 E59.3169
G1 X92.504 Y173.326 E59.4496
G0 X92.106 Y174.225 F4800
G1 F600 X92.106 Y167.977 E59.6573
G1 X90.727 Y167.173 E59.7104
G1 X90.437 Y166.914 E59.7233
G1 X90.230 Y166.581 E59.7363
G1 X90.127 Y166.224 E59.7487
G1 X90.126 Y165.827 E59.7619
G1 X90.226 Y165.473 E59.7741
G1 X90.431 Y165.139 E59.7871
G1 X90.721 Y164.876 E59.8001
G1 X92.106 Y164.065 E59.8535
G1 X92.106 Y154.326 E60.1772
G1 X111.925 Y154.326 E60.8361
G1 X111.925 Y164.067 E61.1599
G1 X113.223 Y164.824 E61.2098
G1 X113.574 Y165.114 E61.2250
G1 X113.786 Y165.441 E61.2379
G1 X113.900 Y165.810 E61.2508
G1 X113.904 Y166.222 E61.2645
G1 X113.806 Y166.571 E61.2765
G1 X113.600 Y166.906 E61.2896
G1 X113.311 Y167.169 E61.3026
G1 X111.925 Y167.979 E61.3560
G1 X111.925 Y177.718 E61.6797
G1 X92.106 Y177.718 E62.3386
G1 X92.106 Y174.425 E62.4480
G0 X91.312 Y176.424 F4800
G1 F600 X91.312 Y168.438 E62.7135
G1 X90.282 Y167.838 E62.7531
G1 X90.044 Y167.652 E62.7631
G1 X89.830 Y167.431 E62.7734
G1 X89.648 Y167.181 E62.7837
G1 X89.503 Y166.908 E62.7939
G1 X89.398 Y166.618 E62.8042
G1 X89.336 Y166.321 E62.8143
G1 X89.315 Y166.021 E62.8243
G1 X89.334 Y165.733 E62.8339
G1 X89.394 Y165.440 E62.8438
G1 X89.496 Y165.151 E62.8540
G1 X89.639 Y164.877 E62.8643
G1 X89.820 Y164.625 E62.8746
G1 X90.034 Y164.401 E62.8849
G1 X90.274 Y164.212 E62.8950
G1 X91.312 Y163.605 E62.9350
G1 X91.312 Y153.527 E63.2700
G1 X112.720 Y153.527 E63.9817
G1 X112.720 Y163.607 E64.3168
G1 X113.657 Y164.153 E64.3529
G1 X113.961 Y164.375 E64.3654
G1 X114.172 Y164.584 E64.3753
G1 X114.358 Y164.831 E64.3855
G1 X114.508 Y165.101 E64.3958
G1 X114.618 Y165.390 E64.4061
G1 X114.687 Y165.685 E64.4161
G1 X114.712 Y165.982 E64.4261
G1 X114.695 Y166.323 E64.4374
G1 X114.638 Y166.605 E64.4470
G1 X114.535 Y166.893 E64.4571
G1 X114.392 Y167.168 E64.4674
G1 X114.211 Y167.420 E64.4777
G1 X113.997 Y167.643 E64.4880
G1 X113.757 Y167.832 E64.4982
G1 X112.720 Y168.439 E64.5382
G1 X112.720 Y178.518 E64.8732
G1 X91.312 Y178.518 E65.5849
G1 X91.312 Y176.623 E65.6478
G0 F4800 E64.648
G0 F4800 X65.510 Y176.343
G0 X62.929 Y176.315
G0 X39.708 Y176.063
G0 F4800 E65.648
;segType:Loop
G1 F600 X39.708 Y168.141 E65.9112
G1 X39.029 Y167.745 E65.9374
G1 X38.704 Y167.492 E65.9510
G1 X38.413 Y167.191 E65.9650
G1 X38.163 Y166.849 E65.9790
G1 X37.965 Y166.475 E65.9931
G1 X37.822 Y166.078 E66.0071
G1 X37.737 Y165.672 E66.0209
G1 X37.709 Y165.263 E66.0345
G1 X37.736 Y164.867 E66.0477
G1 X37.818 Y164.464 E66.0614
G1 X37.958 Y164.070 E66.0753
G1 X38.154 Y163.694 E66.0894
G1 X38.401 Y163.350 E66.1035
G1 X38.693 Y163.046 E66.1175
G1 X39.020 Y162.789 E66.1313
G1 X39.708 Y162.386 E66.1578
G1 X39.708 Y153.767 E66.4443
G1 X62.708 Y153.767 E67.2089
G1 X62.708 Y162.387 E67.4955
G1 X63.387 Y162.782 E67.5216
G1 X63.711 Y163.035 E67.5353
G1 X64.003 Y163.337 E67.5492
G1 X64.252 Y163.679 E67.5633
G1 X64.450 Y164.053 E67.5774
G1 X64.593 Y164.449 E67.5914
G1 X64.677 Y164.851 E67.6050
G1 X64.702 Y165.317 E67.6205
G1 X64.668 Y165.713 E67.6337
G1 X64.578 Y166.115 E67.6474
G1 X64.431 Y166.507 E67.6613
G1 X64.228 Y166.878 E67.6754
G1 X63.976 Y167.216 E67.6894
G1 X63.682 Y167.512 E67.7033
G1 X63.293 Y167.799 E67.7194
G1 X62.708 Y168.142 E67.7419
G1 X62.708 Y176.760 E68.0284
G1 X39.708 Y176.760 E68.7930
G1 X39.708 Y176.263 E68.8095
;segType:Perimeter
G0 X39.968 Y176.827 F4800
G1 F360 X39.308 Y177.103 E68.8333
G1 X39.308 Y168.373 E69.1235
G1 X38.805 Y168.080 E69.1429
G1 X38.437 Y167.793 E69.1584
G1 X38.106 Y167.452 E69.1742
G1 X37.824 Y167.063 E69.1902
G1 X37.599 Y166.639 E69.2061
G1 X37.437 Y166.189 E69.2220
G1 X37.340 Y165.727 E69.2377
G1 X37.308 Y165.263 E69.2532
G1 X37.338 Y164.812 E69.2682
G1 X37.432 Y164.356 E69.2837
G1 X37.591 Y163.908 E69.2995
G1 X37.813 Y163.482 E69.3155
G1 X38.093 Y163.092 E69.3314
G1 X38.424 Y162.746 E69.3473
G1 X38.795 Y162.455 E69.3630
G1 X39.308 Y162.154 E69.3828
G1 X39.308 Y153.365 E69.6750
G1 X63.108 Y153.365 E70.4662
G1 X63.108 Y162.155 E70.7584
G1 X63.610 Y162.448 E70.7777
G1 X63.978 Y162.734 E70.7932
G1 X64.309 Y163.076 E70.8090
G1 X64.592 Y163.464 E70.8250
G1 X64.816 Y163.889 E70.8410
G1 X64.979 Y164.339 E70.8569
G1 X65.075 Y164.799 E70.8725
G1 X65.103 Y165.324 E70.8899
G1 X65.064 Y165.775 E70.9050
G1 X64.962 Y166.231 E70.9205
G1 X64.795 Y166.676 E70.9363
G1 X64.565 Y167.097 E70.9523
G1 X64.279 Y167.481 E70.9682
G1 X63.944 Y167.818 E70.9840
G1 X63.513 Y168.136 E71.0018
G1 X63.108 Y168.373 E71.0174
G1 X63.108 Y177.163 E71.3096
G1 X39.367 Y177.163 E72.0988
G1 X39.641 Y176.498
;segType:HShell
G0 X40.106 Y174.964 F4800
G1 F600 X40.106 Y167.910 E72.3333
G1 X39.252 Y167.411 E72.3662
G1 X38.970 Y167.192 E72.3781
G1 X38.717 Y166.931 E72.3902
G1 X38.502 Y166.635 E72.4024
G1 X38.330 Y166.311 E72.4145
G1 X38.206 Y165.968 E72.4267
G1 X38.133 Y165.616 E72.4386
G1 X38.109 Y165.262 E72.4504
G1 X38.132 Y164.921 E72.4618
G1 X38.203 Y164.573 E72.4736
G1 X38.324 Y164.232 E72.4856
G1 X38.494 Y163.906 E72.4978
G1 X38.707 Y163.608 E72.5100
G1 X38.960 Y163.345 E72.5222
G1 X39.244 Y163.121 E72.5341
G1 X40.106 Y162.616 E72.5674
G1 X40.106 Y154.168 E72.8482
G1 X62.309 Y154.168 E73.5863
G1 X62.309 Y162.618 E73.8672
G1 X63.164 Y163.116 E73.9001
G1 X63.445 Y163.335 E73.9119
G1 X63.698 Y163.596 E73.9240
G1 X63.914 Y163.893 E73.9362
G1 X64.085 Y164.217 E73.9484
G1 X64.209 Y164.560 E73.9605
G1 X64.281 Y164.903 E73.9722
G1 X64.302 Y165.311 E73.9858
G1 X64.273 Y165.652 E73.9971
G1 X64.196 Y165.999 E74.0090
G1 X64.068 Y166.338 E74.0210
G1 X63.892 Y166.660 E74.0332
G1 X63.674 Y166.953 E74.0453
G1 X63.422 Y167.206 E74.0572
G1 X63.074 Y167.463 E74.0716
G1 X62.309 Y167.911 E74.1011
G1 X62.309 Y176.359 E74.3819
G1 X40.106 Y176.359 E75.1200
G1 X40.106 Y175.164 E75.1597
G0 X40.901 Y172.766 F4800
G1 F600 X40.901 Y167.449 E75.3365
G1 X39.696 Y166.747 E75.3829
G1 X39.500 Y166.594 E75.3911
G1 X39.326 Y166.414 E75.3995
G1 X39.177 Y166.209 E75.4079
G1 X39.058 Y165.984 E75.4163
G1 X38.972 Y165.748 E75.4247
G1 X38.922 Y165.507 E75.4329
G1 X38.921 Y165.028 E75.4488
G1 X38.970 Y164.789 E75.4569
G1 X39.053 Y164.554 E75.4652
G1 X39.171 Y164.328 E75.4737
G1 X39.319 Y164.123 E75.4821
G1 X39.494 Y163.940 E75.4905
G1 X39.690 Y163.785 E75.4988
G1 X40.901 Y163.076 E75.5454
G1 X40.901 Y154.968 E75.8150
G1 X61.515 Y154.968 E76.5002
G1 X61.515 Y163.078 E76.7699
G1 X62.719 Y163.780 E76.8162
G1 X62.914 Y163.933 E76.8244
G1 X63.090 Y164.114 E76.8328
G1 X63.239 Y164.319 E76.8413
G1 X63.357 Y164.543 E76.8497
G1 X63.443 Y164.779 E76.8580
G1 X63.491 Y165.007 E76.8658
G1 X63.506 Y165.298 E76.8754
G1 X63.433 Y165.769 E76.8913
G1 X63.345 Y166.003 E76.8996
G1 X63.223 Y166.226 E76.9080
G1 X63.072 Y166.428 E76.9164
G1 X62.903 Y166.598 E76.9244
G1 X62.638 Y166.793 E76.9353
G1 X61.515 Y167.452 E76.9786
G1 X61.515 Y175.559 E77.2482
G1 X40.901 Y175.559 E77.9334
G1 X40.901 Y172.966 E78.0197
G0 X44.477 Y163.994 F4800
G1 F600 X44.477 Y158.566 E78.2001
G1 X57.938 Y158.566 E78.6476
G1 X57.938 Y165.151 E78.8665
G1 X58.137 Y165.267 E78.8741
G1 X57.938 Y165.383 E78.8818
G1 X57.938 Y171.961 E79.1005
G1 X44.477 Y171.961 E79.5480
G1 X44.477 Y165.376 E79.7669
G1 X44.279 Y165.260 E79.7745
G1 X44.477 Y165.144 E79.7822
G1 X44.477 Y164.194 E79.8137
G0 X44.875 Y162.895 F4800
G1 F600 X44.875 Y158.966 E79.9444
G1 X57.541 Y158.966 E80.3654
G1 X57.541 Y171.561 E80.7841
G1 X44.875 Y171.561 E81.2052
G1 X44.875 Y163.095 E81.4867
G0 X45.272 Y161.796 F4800
G1 F600 X45.272 Y159.366 E81.5675
G1 X57.144 Y159.366 E81.9621
G1 X57.144 Y171.162 E82.3542
G1 X45.272 Y171.162 E82.7489
G1 X45.272 Y161.996 E83.0536
G0 X45.669 Y160.697 F4800
G1 F600 X45.669 Y159.766 E83.0845
G1 X56.746 Y159.766 E83.4528
G1 X56.746 Y170.762 E83.8183
G1 X45.669 Y170.762 E84.1866
G1 X45.669 Y160.897 E84.5145
G0 X46.166 Y160.166 F4800
G1 F600 X56.349 Y160.166 E84.8530
G1 X56.349 Y170.362 E85.1920
G1 X46.067 Y170.362 E85.5338
G1 X46.067 Y160.265 E85.8694
G0 X47.258 Y160.565 F4800
G1 F600 X55.952 Y160.565 E86.1584
G1 X55.952 Y169.962 E86.4708
G1 X46.464 Y169.962 E86.7862
G1 X46.464 Y160.565 E87.0986
G1 X47.060 Y160.565 E87.1184
G0 X48.351 Y160.965 F4800
G1 F600 X55.554 Y160.965 E87.3579
G1 X55.554 Y169.562 E87.6437
G1 X46.861 Y169.562 E87.9326
G1 X46.861 Y160.965 E88.2184
G1 X48.152 Y160.965 E88.2613
G0 X49.443 Y161.365 F4800
G1 F600 X55.157 Y161.365 E88.4513
G1 X55.157 Y169.163 E88.7105
G1 X47.259 Y169.163 E88.9731
G1 X47.259 Y161.365 E89.2323
G1 X49.245 Y161.365 E89.2983
G0 X50.536 Y161.765 F4800
G1 F600 X54.759 Y161.765 E89.4387
G1 X54.759 Y168.763 E89.6714
G1 X47.656 Y168.763 E89.9075
G1 X47.656 Y161.765 E90.1401
G1 X50.337 Y161.765 E90.2292
G0 X51.628 Y162.165 F4800
G1 F600 X54.362 Y162.165 E90.3201
G1 X54.362 Y168.363 E90.5262
G1 X48.053 Y168.363 E90.7359
G1 X48.053 Y162.165 E90.9420
G1 X51.429 Y162.165 E91.0542
G0 X52.720 Y162.564 F4800
G1 F600 X53.965 Y162.564 E91.0956
G1 X53.965 Y167.963 E91.2750
G1 X48.451 Y167.963 E91.4583
G1 X48.451 Y162.564 E91.6378
G1 X52.522 Y162.564 E91.7731
G0 X53.567 Y163.064 F4800
G1 F600 X53.567 Y167.563 E91.9227
G1 X48.848 Y167.563 E92.0796
G1 X48.848 Y162.964 E92.2325
G1 X53.468 Y162.964 E92.3861
G0 X53.170 Y164.163 F4800
G1 F600 X53.170 Y167.163 E92.4858
G1 X49.246 Y167.163 E92.6163
G1 X49.246 Y163.364 E92.7426
G1 X53.170 Y163.364 E92.8730
G1 X53.170 Y163.963 E92.8930
G0 X52.773 Y165.262 F4800
G1 F600 X52.773 Y166.764 E92.9429
G1 X49.643 Y166.764 E93.0469
G1 X49.643 Y163.764 E93.1466
G1 X52.773 Y163.764 E93.2507
G1 X52.773 Y165.063 E93.2938
G0 X52.375 Y166.362 F4800
G1 F600 X52.375 Y166.364 E93.2939
G1 X50.040 Y166.364 E93.3716
G1 X50.040 Y164.164 E93.4447
G1 X52.375 Y164.164 E93.5223
G1 X52.375 Y166.162 E93.5887
G0 X51.285 Y165.964 F4800
G1 F600 X50.438 Y165.964 E93.6169
G1 X50.438 Y164.563 E93.6635
G1 X51.978 Y164.563 E93.7147
G1 X51.978 Y165.964 E93.7613
G1 X51.484 Y165.964 E93.7777
G0 X50.835 Y165.464 F4800
G1 F600 X50.835 Y164.963 E93.7943
G1 X51.581 Y164.963 E93.8191
G1 X51.581 Y165.564 E93.8391
G1 X50.934 Y165.564 E93.8606
G0 X43.926 Y165.004 F4800
G1 F600 X44.080 Y164.914 E93.8665
G1 X44.080 Y158.167 E94.0908
G1 X58.336 Y158.167 E94.5647
G1 X58.336 Y164.921 E94.7893
G1 X58.928 Y165.266 E94.8121
G1 X58.336 Y165.613 E94.8349
G1 X58.336 Y172.361 E95.0592
G1 X44.080 Y172.361 E95.5332
G1 X44.080 Y165.607 E95.7577
G1 X43.487 Y165.261 E95.7805
G1 X43.754 Y165.105 E95.7908
G0 X42.782 Y165.212 F4800
G1 F600 X43.683 Y164.685 E95.8255
G1 X43.683 Y157.767 E96.0554
G1 X58.733 Y157.767 E96.5558
G1 X58.733 Y164.691 E96.7859
G1 X59.720 Y165.265 E96.8239
G1 X58.733 Y165.843 E96.8619
G1 X58.733 Y172.761 E97.0919
G1 X43.683 Y172.761 E97.5922
G1 X43.683 Y165.837 E97.8224
G1 X42.782 Y165.312 E97.8570
G0 X42.978 Y165.888 F4800
G1 F600 X41.905 Y165.263 E97.8983
G1 X43.285 Y164.455 E97.9514
G1 X43.285 Y157.367 E98.1871
G1 X59.130 Y157.367 E98.7138
G1 X59.130 Y164.460 E98.9496
G1 X60.511 Y165.264 E99.0027
G1 X59.130 Y166.073 E99.0559
G1 X59.130 Y173.161 E99.2915
G1 X43.285 Y173.161 E99.8183
G1 X43.285 Y166.067 E100.0541
G1 X43.150 Y165.989 E100.0593
G0 X42.888 Y167.270 F4800
G1 F600 X42.888 Y166.298 E100.0916
G1 X41.114 Y165.263 E100.1599
G1 X42.888 Y164.225 E100.2282
G1 X42.888 Y156.967 E100.4695
G1 X59.528 Y156.967 E101.0227
G1 X59.528 Y164.230 E101.2641
G1 X61.302 Y165.264 E101.3324
G1 X59.528 Y166.303 E101.4007
G1 X59.528 Y173.560 E101.6420
G1 X42.888 Y173.560 E102.1952
G1 X42.888 Y167.470 E102.3976
G0 X42.490 Y168.369 F4800
G1 F600 X42.490 Y166.528 E102.4589
G1 X40.621 Y165.438 E102.5308
G1 X40.522 Y165.287 E102.5368
G1 X40.620 Y165.090 E102.5441
G1 X42.490 Y163.995 E102.6162
G1 X42.490 Y156.567 E102.8631
G1 X59.925 Y156.567 E103.4427
G1 X59.925 Y164.000 E103.6898
G1 X61.793 Y165.088 E103.7616
G1 X61.879 Y165.175 E103.7657
G1 X61.865 Y165.354 E103.7717
G1 X61.746 Y165.466 E103.7771
G1 X59.925 Y166.532 E103.8472
G1 X59.925 Y173.960 E104.0942
G1 X42.490 Y173.960 E104.6738
G1 X42.490 Y168.569 E104.8530
G0 X42.093 Y169.469 F4800
G1 F600 X42.093 Y166.758 E104.9431
G1 X40.387 Y165.763 E105.0087
G1 X40.243 Y165.634 E105.0152
G1 X40.113 Y165.351 E105.0255
G1 X40.152 Y165.040 E105.0359
G1 X40.240 Y164.897 E105.0415
G1 X40.385 Y164.766 E105.0480
G1 X42.093 Y163.765 E105.1138
G1 X42.093 Y156.167 E105.3664
G1 X60.322 Y156.167 E105.9724
G1 X60.322 Y163.769 E106.2251
G1 X62.028 Y164.763 E106.2907
G1 X62.173 Y164.894 E106.2972
G1 X62.253 Y165.023 E106.3023
G1 X62.304 Y165.267 E106.3106
G1 X62.215 Y165.570 E106.3211
G1 X61.985 Y165.789 E106.3317
G1 X60.322 Y166.762 E106.3957
G1 X60.322 Y174.360 E106.6483
G1 X42.093 Y174.360 E107.2543
G1 X42.093 Y169.668 E107.4102
G0 X41.696 Y170.568 F4800
G1 F600 X41.696 Y166.989 E107.5292
G1 X40.153 Y166.089 E107.5886
G1 X39.936 Y165.894 E107.5983
G1 X39.788 Y165.656 E107.6076
G1 X39.716 Y165.408 E107.6162
G1 X39.715 Y165.124 E107.6257
G1 X39.785 Y164.878 E107.6342
G1 X39.932 Y164.638 E107.6435
G1 X40.149 Y164.441 E107.6533
G1 X41.696 Y163.536 E107.7128
G1 X41.696 Y155.768 E107.9711
G1 X60.720 Y155.768 E108.6035
G1 X60.720 Y163.539 E108.8618
G1 X62.262 Y164.438 E108.9212
G1 X62.480 Y164.633 E108.9309
G1 X62.628 Y164.871 E108.9402
G1 X62.708 Y165.256 E108.9533
G1 X62.663 Y165.548 E108.9631
G1 X62.552 Y165.789 E108.9719
G1 X62.373 Y165.998 E108.9811
G1 X62.203 Y166.124 E108.9881
G1 X60.720 Y166.992 E109.0452
G1 X60.720 Y174.760 E109.3035
G1 X41.696 Y174.760 E109.9359
G1 X41.696 Y170.768 E110.0686
G0 X41.298 Y171.667 F4800
G1 F600 X41.298 Y167.219 E110.2165
G1 X39.918 Y166.414 E110.2696
G1 X39.630 Y166.155 E110.2825
G1 X39.421 Y165.821 E110.2955
G1 X39.319 Y165.465 E110.3079
G1 X39.318 Y165.069 E110.3210
G1 X39.418 Y164.715 E110.3333
G1 X39.624 Y164.379 E110.3464
G1 X39.914 Y164.117 E110.3594
G1 X41.298 Y163.306 E110.4127
G1 X41.298 Y155.368 E110.6766
G1 X61.117 Y155.368 E111.3354
G1 X61.117 Y163.309 E111.5994
G1 X62.496 Y164.112 E111.6525
G1 X62.786 Y164.373 E111.6654
G1 X62.994 Y164.706 E111.6785
G1 X63.096 Y165.059 E111.6907
G1 X63.107 Y165.277 E111.6979
G1 X63.047 Y165.666 E111.7110
G1 X62.889 Y166.008 E111.7236
G1 X62.644 Y166.294 E111.7361
G1 X62.421 Y166.458 E111.7453
G1 X61.117 Y167.222 E111.7955
G1 X61.117 Y175.160 E112.0594
G1 X41.298 Y175.160 E112.7182
G1 X41.298 Y171.867 E112.8277
G0 X40.504 Y173.865 F4800
G1 F600 X40.504 Y167.679 E113.0333
G1 X39.474 Y167.079 E113.0730
G1 X39.235 Y166.893 E113.0830
G1 X39.021 Y166.672 E113.0932
G1 X38.839 Y166.422 E113.1035
G1 X38.694 Y166.148 E113.1138
G1 X38.589 Y165.858 E113.1241
G1 X38.528 Y165.562 E113.1341
G1 X38.507 Y165.262 E113.1441
G1 X38.526 Y164.975 E113.1537
G1 X38.586 Y164.681 E113.1637
G1 X38.689 Y164.393 E113.1738
G1 X38.832 Y164.117 E113.1842
G1 X39.013 Y163.865 E113.1945
G1 X39.227 Y163.642 E113.2047
G1 X39.467 Y163.453 E113.2149
G1 X40.504 Y162.846 E113.2548
G1 X40.504 Y154.568 E113.5300
G1 X61.912 Y154.568 E114.2417
G1 X61.912 Y162.848 E114.5169
G1 X62.941 Y163.448 E114.5565
G1 X63.180 Y163.634 E114.5666
G1 X63.394 Y163.855 E114.5768
G1 X63.576 Y164.106 E114.5871
G1 X63.721 Y164.380 E114.5974
G1 X63.826 Y164.669 E114.6077
G1 X63.886 Y164.955 E114.6174
G1 X63.904 Y165.304 E114.6290
G1 X63.880 Y165.590 E114.6386
G1 X63.814 Y165.884 E114.6486
G1 X63.706 Y166.170 E114.6587
G1 X63.558 Y166.443 E114.6691
G1 X63.373 Y166.690 E114.6793
G1 X63.163 Y166.902 E114.6893
G1 X62.856 Y167.128 E114.7019
G1 X61.912 Y167.681 E114.7383
G1 X61.912 Y175.959 E115.0135
G1 X40.504 Y175.959 E115.7252
G1 X40.504 Y174.065 E115.7881
G0 F4800 E114.788
G0 F4800 X39.746 Y122.025
G0 X39.708 Y119.423
G0 F4800 E115.788
;segType:Loop
G1 F600 X39.708 Y111.500 E116.0515
G1 X39.029 Y111.105 E116.0777
G1 X38.704 Y110.851 E116.0913
G1 X38.413 Y110.550 E116.1053
G1 X38.163 Y110.208 E116.1193
G1 X37.965 Y109.834 E116.1334
G1 X37.822 Y109.438 E116.1474
G1 X37.737 Y109.031 E116.1612
G1 X37.709 Y108.622 E116.1749
G1 X37.736 Y108.226 E116.1881
G1 X37.818 Y107.824 E116.2017
G1 X37.958 Y107.429 E116.2156
G1 X38.154 Y107.054 E116.2297
G1 X38.401 Y106.710 E116.2438
G1 X38.693 Y106.405 E116.2578
G1 X39.020 Y106.148 E116.2716
G1 X39.708 Y105.746 E116.2981
G1 X39.708 Y97.127 E116.5847
G1 X62.708 Y97.127 E117.3493
G1 X62.708 Y105.747 E117.6358
G1 X63.387 Y106.142 E117.6619
G1 X63.711 Y106.395 E117.6756
G1 X64.003 Y106.696 E117.6895
G1 X64.252 Y107.039 E117.7036
G1 X64.450 Y107.413 E117.7177
G1 X64.593 Y107.809 E117.7317
G1 X64.677 Y108.211 E117.7453
G1 X64.702 Y108.676 E117.7609
G1 X64.668 Y109.073 E117.7741
G1 X64.578 Y109.474 E117.7877
G1 X64.431 Y109.866 E117.8017
G1 X64.228 Y110.237 E117.8157
G1 X63.976 Y110.576 E117.8298
G1 X63.682 Y110.871 E117.8436
G1 X63.293 Y111.158 E117.8597
G1 X62.708 Y111.501 E117.8822
G1 X62.708 Y120.120 E118.1688
G1 X39.708 Y120.120 E118.9334
G1 X39.708 Y119.623 E118.9499
;segType:Perimeter
G0 X39.968 Y120.187 F4800
G1 F360 X39.308 Y120.462 E118.9737
G1 X39.308 Y111.732 E119.2639
G1 X38.805 Y111.439 E119.2832
G1 X38.437 Y111.153 E119.2987
G1 X38.106 Y110.811 E119.3145
G1 X37.824 Y110.423 E119.3305
G1 X37.599 Y109.998 E119.3465
G1 X37.437 Y109.549 E119.3624
G1 X37.340 Y109.087 E119.3781
G1 X37.308 Y108.623 E119.3935
G1 X37.338 Y108.172 E119.4086
G1 X37.432 Y107.715 E119.4240
G1 X37.591 Y107.267 E119.4398
G1 X37.813 Y106.841 E119.4558
G1 X38.093 Y106.451 E119.4718
G1 X38.424 Y106.106 E119.4877
G1 X38.795 Y105.814 E119.5034
G1 X39.308 Y105.514 E119.5231
G1 X39.308 Y96.724 E119.8153
G1 X63.108 Y96.724 E120.6065
G1 X63.108 Y105.514 E120.8987
G1 X63.610 Y105.807 E120.9181
G1 X63.978 Y106.094 E120.9336
G1 X64.309 Y106.435 E120.9494
G1 X64.592 Y106.824 E120.9654
G1 X64.816 Y107.248 E120.9813
G1 X64.979 Y107.698 E120.9972
G1 X65.075 Y108.158 E121.0128
G1 X65.103 Y108.683 E121.0303
G1 X65.064 Y109.134 E121.0454
G1 X64.962 Y109.590 E121.0609
G1 X64.795 Y110.035 E121.0767
G1 X64.565 Y110.456 E121.0927
G1 X64.279 Y110.840 E121.1086
G1 X63.944 Y111.177 E121.1244
G1 X63.513 Y111.496 E121.1422
G1 X63.108 Y111.732 E121.1578
G1 X63.108 Y120.522 E121.4500
G1 X39.367 Y120.522 E122.2392
G1 X39.641 Y119.857
;segType:HShell
G0 X40.106 Y118.324 F4800
G1 F600 X40.106 Y111.268 E122.4738
G1 X39.252 Y110.771 E122.5066
G1 X38.971 Y110.551 E122.5185
G1 X38.717 Y110.290 E122.5306
G1 X38.502 Y109.994 E122.5427
G1 X38.330 Y109.670 E122.5549
G1 X38.206 Y109.328 E122.5670
G1 X38.133 Y108.976 E122.5790
G1 X38.109 Y108.622 E122.5908
G1 X38.132 Y108.280 E122.6022
G1 X38.202 Y107.932 E122.6140
G1 X38.324 Y107.591 E122.6260
G1 X38.494 Y107.266 E122.6382
G1 X38.707 Y106.968 E122.6504
G1 X38.960 Y106.704 E122.6625
G1 X39.244 Y106.481 E122.6745
G1 X40.106 Y105.977 E122.7077
G1 X40.106 Y97.528 E122.9886
G1 X62.309 Y97.528 E123.7267
G1 X62.309 Y105.978 E124.0076
G1 X63.164 Y106.475 E124.0405
G1 X63.445 Y106.695 E124.0524
G1 X63.698 Y106.956 E124.0644
G1 X63.914 Y107.253 E124.0767
G1 X64.085 Y107.576 E124.0888
G1 X64.209 Y107.919 E124.1009
G1 X64.281 Y108.263 E124.1126
G1 X64.302 Y108.670 E124.1262
G1 X64.273 Y109.011 E124.1375
G1 X64.196 Y109.358 E124.1494
G1 X64.068 Y109.698 E124.1614
G1 X63.892 Y110.019 E124.1736
G1 X63.674 Y110.312 E124.1858
G1 X63.422 Y110.566 E124.1976
G1 X63.074 Y110.823 E124.2120
G1 X62.309 Y111.270 E124.2415
G1 X62.309 Y119.718 E124.5223
G1 X40.106 Y119.718 E125.2604
G1 X40.106 Y118.524 E125.3002
G0 X40.901 Y116.125 F4800
G1 F600 X40.901 Y110.807 E125.4770
G1 X39.696 Y110.106 E125.5233
G1 X39.501 Y109.954 E125.5315
G1 X39.325 Y109.773 E125.5399
G1 X39.177 Y109.568 E125.5483
G1 X39.058 Y109.344 E125.5568
G1 X38.972 Y109.108 E125.5651
G1 X38.922 Y108.866 E125.5733
G1 X38.921 Y108.387 E125.5893
G1 X38.969 Y108.148 E125.5974
G1 X39.053 Y107.913 E125.6057
G1 X39.171 Y107.688 E125.6141
G1 X39.319 Y107.482 E125.6225
G1 X39.494 Y107.299 E125.6309
G1 X39.690 Y107.145 E125.6392
G1 X40.901 Y106.437 E125.6859
G1 X40.901 Y98.327 E125.9555
G1 X61.515 Y98.327 E126.6407
G1 X61.515 Y106.438 E126.9104
G1 X62.719 Y107.140 E126.9567
G1 X62.915 Y107.293 E126.9649
G1 X63.090 Y107.473 E126.9733
G1 X63.239 Y107.679 E126.9817
G1 X63.357 Y107.903 E126.9902
G1 X63.443 Y108.139 E126.9985
G1 X63.491 Y108.367 E127.0063
G1 X63.506 Y108.657 E127.0159
G1 X63.433 Y109.128 E127.0318
G1 X63.345 Y109.362 E127.0401
G1 X63.223 Y109.585 E127.0485
G1 X63.072 Y109.787 E127.0569
G1 X62.903 Y109.957 E127.0649
G1 X62.638 Y110.153 E127.0758
G1 X61.515 Y110.811 E127.1191
G1 X61.515 Y118.919 E127.3887
G1 X40.901 Y118.919 E128.0739
G1 X40.901 Y116.325 E128.1601
G0 X44.477 Y107.353 F4800
G1 F600 X44.477 Y101.926 E128.3406
G1 X57.938 Y101.926 E128.7880
G1 X57.938 Y108.511 E129.0070
G1 X58.136 Y108.627 E129.0146
G1 X57.938 Y108.742 E129.0222
G1 X57.938 Y115.321 E129.2409
G1 X44.477 Y115.321 E129.6884
G1 X44.477 Y108.732 E129.9074
G1 X44.285 Y108.620 E129.9148
G1 X44.477 Y108.507 E129.9222
G1 X44.477 Y107.553 E129.9540
G0 X44.875 Y106.254 F4800
G1 F600 X44.875 Y102.326 E130.0846
G1 X57.541 Y102.326 E130.5056
G1 X57.541 Y114.921 E130.9244
G1 X44.875 Y114.921 E131.3454
G1 X44.875 Y106.454 E131.6269
G0 X45.272 Y105.155 F4800
G1 F600 X45.272 Y102.725 E131.7076
G1 X57.144 Y102.725 E132.1023
G1 X57.144 Y114.521 E132.4944
G1 X45.272 Y114.521 E132.8891
G1 X45.272 Y105.354 E133.1938
G0 X45.669 Y104.055 F4800
G1 F600 X45.669 Y103.125 E133.2247
G1 X56.746 Y103.125 E133.5930
G1 X56.746 Y114.121 E133.9585
G1 X45.669 Y114.121 E134.3268
G1 X45.669 Y104.255 E134.6547
G0 X46.166 Y103.525 F4800
G1 F600 X56.349 Y103.525 E134.9932
G1 X56.349 Y113.721 E135.3322
G1 X46.067 Y113.721 E135.6740
G1 X46.067 Y103.625 E136.0097
G0 X47.258 Y103.925 F4800
G1 F600 X55.952 Y103.925 E136.2987
G1 X55.952 Y113.322 E136.6110
G1 X46.464 Y113.322 E136.9264
G1 X46.464 Y103.925 E137.2388
G1 X47.060 Y103.925 E137.2586
G0 X48.351 Y104.325 F4800
G1 F600 X55.554 Y104.325 E137.4981
G1 X55.554 Y112.922 E137.7839
G1 X46.861 Y112.922 E138.0729
G1 X46.861 Y104.325 E138.3586
G1 X48.152 Y104.325 E138.4016
G0 X49.443 Y104.724 F4800
G1 F600 X55.157 Y104.724 E138.5915
G1 X55.157 Y112.522 E138.8507
G1 X47.259 Y112.522 E139.1133
G1 X47.259 Y104.724 E139.3725
G1 X49.245 Y104.724 E139.4385
G0 X50.536 Y105.124 F4800
G1 F600 X54.759 Y105.124 E139.5789
G1 X54.759 Y112.122 E139.8115
G1 X47.656 Y112.122 E140.0477
G1 X47.656 Y105.124 E140.2803
G1 X50.337 Y105.124 E140.3695
G0 X51.628 Y105.524 F4800
G1 F600 X54.362 Y105.524 E140.4603
G1 X54.362 Y111.722 E140.6664
G1 X48.053 Y111.722 E140.8761
G1 X48.053 Y105.524 E141.0822
G1 X51.429 Y105.524 E141.1944
G0 X52.720 Y105.924 F4800
G1 F600 X53.965 Y105.924 E141.2358
G1 X53.965 Y111.323 E141.4152
G1 X48.451 Y111.323 E141.5985
G1 X48.451 Y105.924 E141.7780
G1 X52.522 Y105.924 E141.9134
G0 X53.567 Y106.424 F4800
G1 F600 X53.567 Y110.923 E142.0629
G1 X48.848 Y110.923 E142.2198
G1 X48.848 Y106.324 E142.3727
G1 X53.468 Y106.324 E142.5263
G0 X53.170 Y107.523 F4800
G1 F600 X53.170 Y110.523 E142.6260
G1 X49.246 Y110.523 E142.7565
G1 X49.246 Y106.723 E142.8828
G1 X53.170 Y106.723 E143.0132
G1 X53.170 Y107.323 E143.0332
G0 X52.773 Y108.622 F4800
G1 F600 X52.773 Y110.123 E143.0831
G1 X49.643 Y110.123 E143.1871
G1 X49.643 Y107.123 E143.2869
G1 X52.773 Y107.123 E143.3909
G1 X52.773 Y108.422 E143.4341
G0 X52.375 Y109.721 F4800
G1 F600 X52.375 Y109.723 E143.4341
G1 X50.040 Y109.723 E143.5118
G1 X50.040 Y107.523 E143.5849
G1 X52.375 Y107.523 E143.6625
G1 X52.375 Y109.521 E143.7290
G0 X51.285 Y109.323 F4800
G1 F600 X50.438 Y109.323 E143.7571
G1 X50.438 Y107.923 E143.8037
G1 X51.978 Y107.923 E143.8549
G1 X51.978 Y109.323 E143.9015
G1 X51.484 Y109.323 E143.9179
G0 X50.835 Y108.824 F4800
G1 F600 X50.835 Y108.323 E143.9345
G1 X51.581 Y108.323 E143.9593
G1 X51.581 Y108.924 E143.9793
G1 X50.934 Y108.924 E144.0008
G0 X43.930 Y108.365 F4800
G1 F600 X44.080 Y108.277 E144.0066
G1 X44.080 Y101.526 E144.2310
G1 X58.336 Y101.526 E144.7049
G1 X58.336 Y108.281 E144.9295
G1 X58.928 Y108.626 E144.9522
G1 X58.336 Y108.972 E144.9751
G1 X58.336 Y115.720 E145.1994
G1 X44.080 Y115.720 E145.6733
G1 X44.080 Y108.962 E145.8980
G1 X43.492 Y108.621 E145.9206
G1 X43.758 Y108.465 E145.9308
G0 X42.786 Y108.571 F4800
G1 F600 X43.683 Y108.047 E145.9653
G1 X43.683 Y101.126 E146.1954
G1 X58.733 Y101.126 E146.6957
G1 X58.733 Y108.050 E146.9259
G1 X59.719 Y108.625 E146.9639
G1 X58.733 Y109.202 E147.0019
G1 X58.733 Y116.120 E147.2318
G1 X43.683 Y116.120 E147.7322
G1 X43.683 Y109.193 E147.9625
G1 X42.786 Y108.672 E147.9969
G0 X42.980 Y109.246 F4800
G1 F600 X41.907 Y108.622 E148.0382
G1 X43.285 Y107.817 E148.0913
G1 X43.285 Y100.726 E148.3270
G1 X59.130 Y100.726 E148.8537
G1 X59.130 Y107.820 E149.0896
G1 X60.510 Y108.624 E149.1426
G1 X59.130 Y109.432 E149.1958
G1 X59.130 Y116.520 E149.4314
G1 X43.285 Y116.520 E149.9582
G1 X43.285 Y109.424 E150.1941
G1 X43.152 Y109.346 E150.1992
G0 X42.888 Y110.630 F4800
G1 F600 X42.888 Y109.654 E150.2316
G1 X41.115 Y108.623 E150.2998
G1 X42.888 Y107.587 E150.3681
G1 X42.888 Y100.327 E150.6095
G1 X59.528 Y100.327 E151.1626
G1 X59.528 Y107.590 E151.4041
G1 X61.302 Y108.623 E151.4723
G1 X59.528 Y109.662 E151.5407
G1 X59.528 Y116.920 E151.7819
G1 X42.888 Y116.920 E152.3351
G1 X42.888 Y110.830 E152.5376
G0 X42.490 Y111.729 F4800
G1 F600 X42.490 Y109.885 E152.5989
G1 X40.621 Y108.798 E152.6708
G1 X40.521 Y108.647 E152.6768
G1 X40.619 Y108.451 E152.6841
G1 X42.490 Y107.357 E152.7561
G1 X42.490 Y99.927 E153.0031
G1 X59.925 Y99.927 E153.5827
G1 X59.925 Y107.360 E153.8298
G1 X61.794 Y108.448 E153.9017
G1 X61.880 Y108.535 E153.9058
G1 X61.865 Y108.713 E153.9117
G1 X61.745 Y108.826 E153.9172
G1 X59.925 Y109.891 E153.9873
G1 X59.925 Y117.320 E154.2342
G1 X42.490 Y117.320 E154.8138
G1 X42.490 Y111.929 E154.9930
G0 X42.093 Y112.828 F4800
G1 F600 X42.093 Y110.115 E155.0832
G1 X40.387 Y109.123 E155.1488
G1 X40.242 Y108.993 E155.1553
G1 X40.113 Y108.710 E155.1656
G1 X40.151 Y108.400 E155.1760
G1 X40.240 Y108.257 E155.1816
G1 X40.384 Y108.126 E155.1881
G1 X42.093 Y107.127 E155.2539
G1 X42.093 Y99.527 E155.5065
G1 X60.322 Y99.527 E156.1125
G1 X60.322 Y107.129 E156.3653
G1 X62.028 Y108.123 E156.4309
G1 X62.173 Y108.253 E156.4374
G1 X62.254 Y108.383 E156.4425
G1 X62.305 Y108.627 E156.4507
G1 X62.215 Y108.930 E156.4612
G1 X61.985 Y109.149 E156.4718
G1 X60.322 Y110.121 E156.5358
G1 X60.322 Y117.719 E156.7884
G1 X42.093 Y117.719 E157.3944
G1 X42.093 Y113.028 E157.5504
G0 X41.696 Y113.927 F4800
G1 F600 X41.696 Y110.346 E157.6694
G1 X40.153 Y109.449 E157.7287
G1 X39.936 Y109.254 E157.7384
G1 X39.788 Y109.016 E157.7477
G1 X39.716 Y108.767 E157.7563
G1 X39.715 Y108.482 E157.7658
G1 X39.784 Y108.237 E157.7743
G1 X39.932 Y107.998 E157.7836
G1 X40.148 Y107.802 E157.7933
G1 X41.696 Y106.897 E157.8529
G1 X41.696 Y99.127 E158.1112
G1 X60.720 Y99.127 E158.7436
G1 X60.720 Y106.899 E159.0020
G1 X62.263 Y107.798 E159.0614
G1 X62.479 Y107.993 E159.0711
G1 X62.628 Y108.231 E159.0804
G1 X62.708 Y108.616 E159.0935
G1 X62.663 Y108.908 E159.1033
G1 X62.552 Y109.149 E159.1121
G1 X62.373 Y109.358 E159.1213
G1 X62.203 Y109.483 E159.1283
G1 X60.720 Y110.351 E159.1854
G1 X60.720 Y118.119 E159.4436
G1 X41.696 Y118.119 E160.0761
G1 X41.696 Y114.127 E160.2088
G0 X41.298 Y115.026 F4800
G1 F600 X41.298 Y110.576 E160.3567
G1 X39.919 Y109.774 E160.4098
G1 X39.629 Y109.514 E160.4227
G1 X39.421 Y109.181 E160.4358
G1 X39.319 Y108.824 E160.4481
G1 X39.318 Y108.427 E160.4613
G1 X39.418 Y108.074 E160.4735
G1 X39.624 Y107.739 E160.4866
G1 X39.913 Y107.477 E160.4995
G1 X41.298 Y106.667 E160.5529
G1 X41.298 Y98.727 E160.8168
G1 X61.117 Y98.727 E161.4757
G1 X61.117 Y106.669 E161.7397
G1 X62.497 Y107.473 E161.7928
G1 X62.786 Y107.732 E161.8057
G1 X62.994 Y108.066 E161.8187
G1 X63.096 Y108.419 E161.8310
G1 X63.107 Y108.636 E161.8382
G1 X63.047 Y109.025 E161.8513
G1 X62.889 Y109.368 E161.8638
G1 X62.644 Y109.653 E161.8763
G1 X62.420 Y109.818 E161.8856
G1 X61.117 Y110.581 E161.9358
G1 X61.117 Y118.519 E162.1996
G1 X41.298 Y118.519 E162.8585
G1 X41.298 Y115.226 E162.9679
G0 X40.504 Y117.225 F4800
G1 F600 X40.504 Y111.038 E163.1736
G1 X39.474 Y110.439 E163.2132
G1 X39.236 Y110.253 E163.2233
G1 X39.021 Y110.032 E163.2335
G1 X38.839 Y109.781 E163.2438
G1 X38.694 Y109.507 E163.2541
G1 X38.589 Y109.218 E163.2643
G1 X38.528 Y108.921 E163.2744
G1 X38.507 Y108.622 E163.2844
G1 X38.526 Y108.334 E163.2940
G1 X38.586 Y108.040 E163.3039
G1 X38.688 Y107.752 E163.3141
G1 X38.832 Y107.477 E163.3244
G1 X39.013 Y107.225 E163.3347
G1 X39.227 Y107.002 E163.3450
G1 X39.467 Y106.813 E163.3551
G1 X40.504 Y106.207 E163.3951
G1 X40.504 Y97.928 E163.6703
G1 X61.912 Y97.928 E164.3820
G1 X61.912 Y106.208 E164.6573
G1 X62.941 Y106.808 E164.6969
G1 X63.180 Y106.994 E164.7069
G1 X63.394 Y107.214 E164.7171
G1 X63.576 Y107.466 E164.7275
G1 X63.721 Y107.739 E164.7378
G1 X63.826 Y108.029 E164.7480
G1 X63.886 Y108.315 E164.7577
G1 X63.904 Y108.663 E164.7693
G1 X63.880 Y108.950 E164.7789
G1 X63.814 Y109.243 E164.7889
G1 X63.706 Y109.530 E164.7991
G1 X63.558 Y109.802 E164.8094
G1 X63.373 Y110.050 E164.8196
G1 X63.163 Y110.262 E164.8296
G1 X62.856 Y110.488 E164.8422
G1 X61.912 Y111.040 E164.8786
G1 X61.912 Y119.319 E165.1538
G1 X40.504 Y119.319 E165.8655
G1 X40.504 Y117.424 E165.9285
G0 F4800 E164.928
G0 F4800 X39.737 Y47.468
G0 X39.708 Y44.777
G0 F4800 E165.928
;segType:Loop
G1 F600 X39.708 Y36.855 E166.1918
G1 X39.029 Y36.459 E166.2180
G1 X38.704 Y36.206 E166.2316
G1 X38.413 Y35.905 E166.2456
G1 X38.163 Y35.563 E166.2596
G1 X37.965 Y35.189 E166.2737
G1 X37.822 Y34.792 E166.2877
G1 X37.737 Y34.386 E166.3015
G1 X37.709 Y33.977 E166.3151
G1 X37.736 Y33.581 E166.3284
G1 X37.818 Y33.178 E166.3420
G1 X37.958 Y32.784 E166.3559
G1 X38.154 Y32.408 E166.3700
G1 X38.401 Y32.064 E166.3841
G1 X38.693 Y31.760 E166.3981
G1 X39.020 Y31.503 E166.4119
G1 X39.708 Y31.100 E166.4384
G1 X39.708 Y22.481 E166.7250
G1 X62.708 Y22.481 E167.4896
G1 X62.708 Y31.101 E167.7761
G1 X63.387 Y31.496 E167.8022
G1 X63.711 Y31.749 E167.8159
G1 X64.003 Y32.051 E167.8298
G1 X64.252 Y32.393 E167.8439
G1 X64.450 Y32.767 E167.8580
G1 X64.593 Y33.163 E167.8720
G1 X64.677 Y33.565 E167.8856
G1 X64.702 Y34.031 E167.9011
G1 X64.668 Y34.427 E167.9143
G1 X64.578 Y34.829 E167.9280
G1 X64.431 Y35.221 E167.9419
G1 X64.228 Y35.592 E167.9560
G1 X63.976 Y35.930 E167.9700
G1 X63.682 Y36.226 E167.9838
G1 X63.293 Y36.513 E167.9999
G1 X62.708 Y36.856 E168.0225
G1 X62.708 Y45.474 E168.3090
G1 X39.708 Y45.474 E169.0736
G1 X39.708 Y44.977 E169.0901
;segType:Perimeter
G0 X39.968 Y45.541 F4800
G1 F360 X39.308 Y45.817 E169.1139
G1 X39.308 Y37.087 E169.4041
G1 X38.805 Y36.794 E169.4235
G1 X38.437 Y36.507 E169.4390
G1 X38.106 Y36.166 E169.4548
G1 X37.824 Y35.777 E169.4708
G1 X37.599 Y35.353 E169.4867
G1 X37.437 Y34.903 E169.5026
G1 X37.340 Y34.441 E169.5183
G1 X37.308 Y33.977 E169.5338
G1 X37.338 Y33.526 E169.5488
G1 X37.432 Y33.070 E169.5643
G1 X37.591 Y32.622 E169.5801
G1 X37.813 Y32.196 E169.5960
G1 X38.093 Y31.806 E169.6120
G1 X38.424 Y31.460 E169.6279
G1 X38.795 Y31.169 E169.6436
G1 X39.308 Y30.868 E169.6634
G1 X39.308 Y22.079 E169.9555
G1 X63.108 Y22.079 E170.7467
G1 X63.108 Y30.869 E171.0389
G1 X63.610 Y31.162 E171.0583
G1 X63.978 Y31.448 E171.0738
G1 X64.309 Y31.790 E171.0896
G1 X64.592 Y32.178 E171.1056
G1 X64.816 Y32.603 E171.1215
G1 X64.979 Y33.053 E171.1374
G1 X65.075 Y33.513 E171.1530
G1 X65.103 Y34.038 E171.1705
G1 X65.064 Y34.489 E171.1856
G1 X64.962 Y34.945 E171.2011
G1 X64.795 Y35.390 E171.2169
G1 X64.565 Y35.811 E171.2328
G1 X64.279 Y36.194 E171.2488
G1 X63.944 Y36.532 E171.2646
G1 X63.513 Y36.850 E171.2824
G1 X63.108 Y37.087 E171.2980
G1 X63.108 Y45.877 E171.5902
G1 X39.367 Y45.877 E172.3794
G1 X39.641 Y45.212
;segType:HShell
G0 X40.106 Y43.678 F4800
G1 F600 X40.106 Y36.624 E172.6139
G1 X39.252 Y36.126 E172.6468
G1 X38.970 Y35.906 E172.6587
G1 X38.718 Y35.645 E172.6707
G1 X38.502 Y35.349 E172.6829
G1 X38.330 Y35.025 E172.6951
G1 X38.207 Y34.682 E172.7072
G1 X38.133 Y34.330 E172.7192
G1 X38.109 Y33.976 E172.7310
G1 X38.132 Y33.635 E172.7423
G1 X38.203 Y33.287 E172.7541
G1 X38.324 Y32.945 E172.7662
G1 X38.494 Y32.620 E172.7784
G1 X38.707 Y32.322 E172.7906
G1 X38.960 Y32.059 E172.8027
G1 X39.244 Y31.835 E172.8147
G1 X40.106 Y31.330 E172.8479
G1 X40.106 Y22.882 E173.1288
G1 X62.309 Y22.882 E173.8669
G1 X62.309 Y31.332 E174.1478
G1 X63.163 Y31.830 E174.1806
G1 X63.445 Y32.049 E174.1925
G1 X63.698 Y32.311 E174.2046
G1 X63.914 Y32.607 E174.2168
G1 X64.085 Y32.930 E174.2289
G1 X64.209 Y33.274 E174.2411
G1 X64.281 Y33.617 E174.2527
G1 X64.302 Y34.025 E174.2663
G1 X64.273 Y34.366 E174.2777
G1 X64.196 Y34.713 E174.2895
G1 X64.068 Y35.052 E174.3016
G1 X63.892 Y35.374 E174.3137
G1 X63.674 Y35.667 E174.3259
G1 X63.422 Y35.920 E174.3378
G1 X63.075 Y36.177 E174.3521
G1 X62.309 Y36.625 E174.3816
G1 X62.309 Y45.073 E174.6624
G1 X40.106 Y45.073 E175.4005
G1 X40.106 Y43.878 E175.4403
G0 X40.901 Y41.480 F4800
G1 F600 X40.901 Y36.162 E175.6170
G1 X39.696 Y35.461 E175.6634
G1 X39.501 Y35.308 E175.6716
G1 X39.326 Y35.128 E175.6800
G1 X39.176 Y34.922 E175.6884
G1 X39.058 Y34.699 E175.6968
G1 X38.972 Y34.462 E175.7052
G1 X38.922 Y34.220 E175.7134
G1 X38.921 Y33.742 E175.7293
G1 X38.970 Y33.503 E175.7374
G1 X39.053 Y33.268 E175.7457
G1 X39.171 Y33.042 E175.7542
G1 X39.319 Y32.836 E175.7626
G1 X39.494 Y32.654 E175.7710
G1 X39.690 Y32.499 E175.7793
G1 X40.901 Y31.790 E175.8260
G1 X40.901 Y23.682 E176.0955
G1 X61.515 Y23.682 E176.7808
G1 X61.515 Y31.792 E177.0504
G1 X62.719 Y32.494 E177.0967
G1 X62.914 Y32.647 E177.1050
G1 X63.090 Y32.828 E177.1134
G1 X63.239 Y33.033 E177.1218
G1 X63.357 Y33.256 E177.1302
G1 X63.443 Y33.493 E177.1386
G1 X63.491 Y33.721 E177.1463
G1 X63.506 Y34.012 E177.1560
G1 X63.433 Y34.482 E177.1718
G1 X63.345 Y34.717 E177.1801
G1 X63.223 Y34.939 E177.1885
G1 X63.072 Y35.142 E177.1969
G1 X62.903 Y35.312 E177.2049
G1 X62.638 Y35.507 E177.2159
G1 X61.515 Y36.165 E177.2592
G1 X61.515 Y44.273 E177.5287
G1 X40.901 Y44.273 E178.2139
G1 X40.901 Y41.680 E178.3002
G0 X44.477 Y32.707 F4800
G1 F600 X44.477 Y27.280 E178.4806
G1 X57.938 Y27.280 E178.9280
G1 X57.938 Y33.865 E179.1469
G1 X58.137 Y33.981 E179.1546
G1 X57.938 Y34.097 E179.1623
G1 X57.938 Y40.675 E179.3809
G1 X44.477 Y40.675 E179.8284
G1 X44.477 Y34.087 E180.0474
G1 X44.281 Y33.973 E180.0550
G1 X44.477 Y33.858 E180.0625
G1 X44.477 Y32.907 E180.0942
G0 X44.875 Y31.608 F4800
G1 F600 X44.875 Y27.680 E180.2247
G1 X57.541 Y27.680 E180.6458
G1 X57.541 Y40.275 E181.0645
G1 X44.875 Y40.275 E181.4856
G1 X44.875 Y31.807 E181.7671
G0 X45.272 Y30.508 F4800
G1 F600 X45.272 Y28.080 E181.8478
G1 X57.144 Y28.080 E182.2425
G1 X57.144 Y39.876 E182.6346
G1 X45.272 Y39.876 E183.0293
G1 X45.272 Y30.708 E183.3340
G0 X45.669 Y29.409 F4800
G1 F600 X45.669 Y28.480 E183.3649
G1 X56.746 Y28.480 E183.7331
G1 X56.746 Y39.476 E184.0987
G1 X45.669 Y39.476 E184.4669
G1 X45.669 Y29.609 E184.7949
G0 X46.166 Y28.880 F4800
G1 F600 X56.349 Y28.880 E185.1334
G1 X56.349 Y39.076 E185.4724
G1 X46.067 Y39.076 E185.8142
G1 X46.067 Y28.979 E186.1499
G0 X47.258 Y29.279 F4800
G1 F600 X55.952 Y29.279 E186.4388
G1 X55.952 Y38.676 E186.7512
G1 X46.464 Y38.676 E187.0666
G1 X46.464 Y29.279 E187.3790
G1 X47.060 Y29.279 E187.3988
G0 X48.351 Y29.679 F4800
G1 F600 X55.554 Y29.679 E187.6383
G1 X55.554 Y38.276 E187.9241
G1 X46.861 Y38.276 E188.2130
G1 X46.861 Y29.679 E188.4988
G1 X48.152 Y29.679 E188.5418
G0 X49.443 Y30.079 F4800
G1 F600 X55.157 Y30.079 E188.7317
G1 X55.157 Y37.877 E188.9909
G1 X47.259 Y37.877 E189.2535
G1 X47.259 Y30.079 E189.5127
G1 X49.245 Y30.079 E189.5787
G0 X50.536 Y30.479 F4800
G1 F600 X54.759 Y30.479 E189.7191
G1 X54.759 Y37.477 E189.9517
G1 X47.656 Y37.477 E190.1879
G1 X47.656 Y30.479 E190.4205
G1 X50.337 Y30.479 E190.5096
G0 X51.628 Y30.879 F4800
G1 F600 X54.362 Y30.879 E190.6005
G1 X54.362 Y37.077 E190.8066
G1 X48.053 Y37.077 E191.0163
G1 X48.053 Y30.879 E191.2224
G1 X51.429 Y30.879 E191.3346
G0 X52.720 Y31.278 F4800
G1 F600 X53.965 Y31.278 E191.3760
G1 X53.965 Y36.677 E191.5554
G1 X48.451 Y36.677 E191.7387
G1 X48.451 Y31.278 E191.9182
G1 X52.522 Y31.278 E192.0535
G0 X53.567 Y31.778 F4800
G1 F600 X53.567 Y36.277 E192.2031
G1 X48.848 Y36.277 E192.3600
G1 X48.848 Y31.678 E192.5129
G1 X53.468 Y31.678 E192.6665
G0 X53.170 Y32.877 F4800
G1 F600 X53.170 Y35.877 E192.7662
G1 X49.246 Y35.877 E192.8967
G1 X49.246 Y32.078 E193.0230
G1 X53.170 Y32.078 E193.1534
G1 X53.170 Y32.677 E193.1734
G0 X52.773 Y33.976 F4800
G1 F600 X52.773 Y35.478 E193.2233
G1 X49.643 Y35.478 E193.3273
G1 X49.643 Y32.478 E193.4271
G1 X52.773 Y32.478 E193.5311
G1 X52.773 Y33.777 E193.5743
G0 X52.375 Y35.076 F4800
G1 F600 X52.375 Y35.078 E193.5744
G1 X50.040 Y35.078 E193.6520
G1 X50.040 Y32.878 E193.7251
G1 X52.375 Y32.878 E193.8028
G1 X52.375 Y34.876 E193.8692
G0 X51.285 Y34.678 F4800
G1 F600 X50.438 Y34.678 E193.8974
G1 X50.438 Y33.277 E193.9439
G1 X51.978 Y33.277 E193.9951
G1 X51.978 Y34.678 E194.0417
G1 X51.484 Y34.678 E194.0581
G0 X50.835 Y34.178 F4800
G1 F600 X50.835 Y33.677 E194.0748
G1 X51.581 Y33.677 E194.0996
G1 X51.581 Y34.278 E194.1195
G1 X50.934 Y34.278 E194.1410
G0 X43.927 Y33.718 F4800
G1 F600 X44.080 Y33.628 E194.1469
G1 X44.080 Y26.881 E194.3712
G1 X58.336 Y26.881 E194.8451
G1 X58.336 Y33.635 E195.0696
G1 X58.928 Y33.980 E195.0924
G1 X58.336 Y34.327 E195.1153
G1 X58.336 Y41.075 E195.3396
G1 X44.080 Y41.075 E195.8135
G1 X44.080 Y34.318 E196.0381
G1 X43.489 Y33.974 E196.0609
G1 X43.756 Y33.818 E196.0711
G0 X42.783 Y33.925 F4800
G1 F600 X43.683 Y33.399 E196.1058
G1 X43.683 Y26.481 E196.3357
G1 X58.733 Y26.481 E196.8361
G1 X58.733 Y33.405 E197.0663
G1 X59.719 Y33.979 E197.1042
G1 X58.733 Y34.557 E197.1422
G1 X58.733 Y41.475 E197.3722
G1 X43.683 Y41.475 E197.8725
G1 X43.683 Y34.548 E198.1028
G1 X42.784 Y34.025 E198.1374
G0 X42.980 Y34.601 F4800
G1 F600 X41.906 Y33.976 E198.1787
G1 X43.285 Y33.169 E198.2318
G1 X43.285 Y26.081 E198.4674
G1 X59.130 Y26.081 E198.9942
G1 X59.130 Y33.174 E199.2300
G1 X60.511 Y33.979 E199.2831
G1 X59.130 Y34.787 E199.3362
G1 X59.130 Y41.875 E199.5719
G1 X43.285 Y41.875 E200.0986
G1 X43.285 Y34.779 E200.3345
G1 X43.152 Y34.701 E200.3396
G0 X42.888 Y35.984 F4800
G1 F600 X42.888 Y35.009 E200.3720
G1 X41.114 Y33.977 E200.4403
G1 X42.888 Y32.939 E200.5086
G1 X42.888 Y25.681 E200.7498
G1 X59.528 Y25.681 E201.3030
G1 X59.528 Y32.944 E201.5444
G1 X61.302 Y33.978 E201.6127
G1 X59.528 Y35.017 E201.6810
G1 X59.528 Y42.274 E201.9223
G1 X42.888 Y42.274 E202.4755
G1 X42.888 Y36.184 E202.6779
G0 X42.490 Y37.083 F4800
G1 F600 X42.490 Y35.240 E202.7392
G1 X40.622 Y34.152 E202.8111
G1 X40.521 Y34.001 E202.8171
G1 X40.620 Y33.804 E202.8244
G1 X42.490 Y32.709 E202.8965
G1 X42.490 Y25.281 E203.1434
G1 X59.925 Y25.281 E203.7230
G1 X59.925 Y32.714 E203.9701
G1 X61.793 Y33.802 E204.0420
G1 X61.879 Y33.889 E204.0460
G1 X61.864 Y34.067 E204.0520
G1 X61.745 Y34.180 E204.0575
G1 X59.925 Y35.246 E204.1276
G1 X59.925 Y42.674 E204.3745
G1 X42.490 Y42.674 E204.9541
G1 X42.490 Y37.283 E205.1333
G0 X42.093 Y38.183 F4800
G1 F600 X42.093 Y35.471 E205.2235
G1 X40.387 Y34.478 E205.2891
G1 X40.243 Y34.348 E205.2956
G1 X40.113 Y34.064 E205.3059
G1 X40.152 Y33.755 E205.3163
G1 X40.240 Y33.611 E205.3219
G1 X40.385 Y33.480 E205.3284
G1 X42.093 Y32.479 E205.3942
G1 X42.093 Y24.881 E205.6468
G1 X60.322 Y24.881 E206.2528
G1 X60.322 Y32.483 E206.5055
G1 X62.027 Y33.477 E206.5711
G1 X62.173 Y33.608 E206.5776
G1 X62.253 Y33.736 E206.5826
G1 X62.304 Y33.981 E206.5909
G1 X62.215 Y34.284 E206.6014
G1 X61.985 Y34.503 E206.6120
G1 X60.322 Y35.476 E206.6760
G1 X60.322 Y43.074 E206.9286
G1 X42.093 Y43.074 E207.5346
G1 X42.093 Y38.382 E207.6906
G0 X41.696 Y39.282 F4800
G1 F600 X41.696 Y35.701 E207.8096
G1 X40.153 Y34.803 E207.8689
G1 X39.936 Y34.608 E207.8786
G1 X39.788 Y34.371 E207.8879
G1 X39.716 Y34.121 E207.8966
G1 X39.715 Y33.837 E207.9060
G1 X39.785 Y33.592 E207.9145
G1 X39.932 Y33.352 E207.9238
G1 X40.149 Y33.155 E207.9336
G1 X41.696 Y32.250 E207.9932
G1 X41.696 Y24.482 E208.2514
G1 X60.720 Y24.482 E208.8838
G1 X60.720 Y32.253 E209.1422
G1 X62.262 Y33.152 E209.2015
G1 X62.480 Y33.348 E209.2113
G1 X62.628 Y33.584 E209.2205
G1 X62.708 Y33.970 E209.2336
G1 X62.663 Y34.262 E209.2434
G1 X62.552 Y34.503 E209.2523
G1 X62.372 Y34.712 E209.2614
G1 X62.202 Y34.838 E209.2685
G1 X60.720 Y35.706 E209.3256
G1 X60.720 Y43.474 E209.5838
G1 X41.696 Y43.474 E210.2162
G1 X41.696 Y39.482 E210.3490
G0 X41.298 Y40.381 F4800
G1 F600 X41.298 Y35.932 E210.4969
G1 X39.919 Y35.129 E210.5499
G1 X39.630 Y34.869 E210.5629
G1 X39.422 Y34.536 E210.5759
G1 X39.319 Y34.178 E210.5883
G1 X39.318 Y33.782 E210.6014
G1 X39.418 Y33.429 E210.6136
G1 X39.624 Y33.093 E210.6267
G1 X39.914 Y32.831 E210.6397
G1 X41.298 Y32.020 E210.6931
G1 X41.298 Y24.082 E210.9570
G1 X61.117 Y24.082 E211.6158
G1 X61.117 Y32.023 E211.8798
G1 X62.496 Y32.826 E211.9328
G1 X62.786 Y33.088 E211.9458
G1 X62.994 Y33.419 E211.9588
G1 X63.096 Y33.773 E211.9711
G1 X63.107 Y33.991 E211.9783
G1 X63.047 Y34.379 E211.9914
G1 X62.889 Y34.722 E212.0039
G1 X62.644 Y35.008 E212.0165
G1 X62.420 Y35.172 E212.0257
G1 X61.117 Y35.936 E212.0759
G1 X61.117 Y43.874 E212.3398
G1 X41.298 Y43.874 E212.9986
G1 X41.298 Y40.581 E213.1081
G0 X40.504 Y42.579 F4800
G1 F600 X40.504 Y36.393 E213.3137
G1 X39.474 Y35.794 E213.3533
G1 X39.235 Y35.607 E213.3634
G1 X39.022 Y35.386 E213.3736
G1 X38.839 Y35.136 E213.3839
G1 X38.694 Y34.862 E213.3942
G1 X38.590 Y34.572 E213.4045
G1 X38.528 Y34.275 E213.4145
G1 X38.507 Y33.976 E213.4245
G1 X38.526 Y33.688 E213.4341
G1 X38.586 Y33.395 E213.4441
G1 X38.689 Y33.106 E213.4542
G1 X38.832 Y32.831 E213.4646
G1 X39.013 Y32.579 E213.4749
G1 X39.227 Y32.356 E213.4851
G1 X39.467 Y32.167 E213.4953
G1 X40.504 Y31.560 E213.5352
G1 X40.504 Y23.282 E213.8104
G1 X61.912 Y23.282 E214.5221
G1 X61.912 Y31.562 E214.7973
G1 X62.941 Y32.162 E214.8369
G1 X63.180 Y32.348 E214.8470
G1 X63.394 Y32.570 E214.8573
G1 X63.577 Y32.820 E214.8676
G1 X63.721 Y33.093 E214.8778
G1 X63.826 Y33.383 E214.8881
G1 X63.886 Y33.669 E214.8978
G1 X63.904 Y34.018 E214.9094
G1 X63.880 Y34.304 E214.9189
G1 X63.814 Y34.598 E214.9289
G1 X63.706 Y34.884 E214.9391
G1 X63.558 Y35.157 E214.9494
G1 X63.373 Y35.404 E214.9597
G1 X63.163 Y35.616 E214.9696
G1 X62.856 Y35.842 E214.9823
G1 X61.912 Y36.395 E215.0187
G1 X61.912 Y44.673 E215.2939
G1 X40.504 Y44.673 E216.0056
G1 X40.504 Y42.779 E216.0685
;segType:Loop
G0 F4800 E215.069
G0 F4800 X90.516 Y47.336
G0 F4800 E216.069
G1 F600 X90.516 Y37.613 E216.3917
G1 X89.837 Y37.218 E216.4178
G1 X89.513 Y36.965 E216.4315
G1 X89.221 Y36.664 E216.4454
G1 X88.972 Y36.322 E216.4595
G1 X88.774 Y35.949 E216.4736
G1 X88.631 Y35.553 E216.4876
G1 X88.545 Y35.146 E216.5014
G1 X88.517 Y34.736 E216.5151
G1 X88.544 Y34.339 E216.5283
G1 X88.626 Y33.938 E216.5419
G1 X88.766 Y33.543 E216.5558
G1 X88.961 Y33.168 E216.5699
G1 X89.208 Y32.825 E216.5840
G1 X89.499 Y32.520 E216.5980
G1 X89.827 Y32.262 E216.6118
G1 X90.516 Y31.859 E216.6384
G1 X90.516 Y21.440 E216.9847
G1 X113.516 Y21.440 E217.7493
G1 X113.516 Y31.859 E218.0957
G1 X114.092 Y32.195 E218.1179
G1 X114.478 Y32.477 E218.1338
G1 X114.771 Y32.768 E218.1475
G1 X115.025 Y33.105 E218.1615
G1 X115.230 Y33.474 E218.1756
G1 X115.381 Y33.868 E218.1896
G1 X115.474 Y34.273 E218.2034
G1 X115.510 Y34.682 E218.2170
G1 X115.487 Y35.138 E218.2322
G1 X115.406 Y35.535 E218.2457
G1 X115.266 Y35.929 E218.2596
G1 X115.070 Y36.304 E218.2737
G1 X114.824 Y36.648 E218.2877
G1 X114.532 Y36.953 E218.3017
G1 X114.205 Y37.211 E218.3156
G1 X113.516 Y37.614 E218.3421
G1 X113.516 Y48.033 E218.6885
G1 X90.516 Y48.033 E219.4531
G1 X90.516 Y47.536 E219.4696
;segType:Perimeter
G0 X90.776 Y48.100 F4800
G1 F360 X90.116 Y48.375 E219.4934
G1 X90.116 Y37.845 E219.8434
G1 X89.613 Y37.553 E219.8628
G1 X89.246 Y37.266 E219.8783
G1 X88.915 Y36.925 E219.8941
G1 X88.633 Y36.537 E219.9100
G1 X88.408 Y36.113 E219.9260
G1 X88.245 Y35.664 E219.9419
G1 X88.148 Y35.201 E219.9576
G1 X88.116 Y34.736 E219.9731
G1 X88.146 Y34.285 E219.9881
G1 X88.240 Y33.829 E220.0036
G1 X88.398 Y33.381 E220.0194
G1 X88.620 Y32.956 E220.0353
G1 X88.900 Y32.566 E220.0513
G1 X89.231 Y32.220 E220.0672
G1 X89.602 Y31.928 E220.0829
G1 X90.116 Y31.627 E220.1027
G1 X90.116 Y21.038 E220.4547
G1 X113.916 Y21.038 E221.2459
G1 X113.916 Y31.627 E221.5979
G1 X114.310 Y31.857 E221.6131
G1 X114.737 Y32.169 E221.6307
G1 X115.072 Y32.502 E221.6464
G1 X115.361 Y32.884 E221.6623
G1 X115.593 Y33.303 E221.6783
G1 X115.764 Y33.749 E221.6941
G1 X115.870 Y34.210 E221.7098
G1 X115.911 Y34.674 E221.7253
G1 X115.885 Y35.189 E221.7425
G1 X115.792 Y35.644 E221.7579
G1 X115.633 Y36.091 E221.7737
G1 X115.411 Y36.517 E221.7896
G1 X115.131 Y36.907 E221.8056
G1 X114.801 Y37.252 E221.8215
G1 X114.430 Y37.545 E221.8372
G1 X113.916 Y37.846 E221.8570
G1 X113.916 Y48.435 E222.2090
G1 X90.175 Y48.435 E222.9983
G1 X90.449 Y47.770
;segType:HShell
G0 X90.914 Y46.237 F4800
G1 F600 X90.914 Y37.382 E223.2926
G1 X90.060 Y36.884 E223.3255
G1 X89.779 Y36.665 E223.3373
G1 X89.526 Y36.404 E223.3494
G1 X89.311 Y36.108 E223.3616
G1 X89.139 Y35.785 E223.3737
G1 X89.015 Y35.442 E223.3859
G1 X88.941 Y35.090 E223.3978
G1 X88.917 Y34.735 E223.4096
G1 X88.940 Y34.393 E223.4210
G1 X89.010 Y34.046 E223.4328
G1 X89.132 Y33.704 E223.4449
G1 X89.301 Y33.380 E223.4570
G1 X89.515 Y33.082 E223.4692
G1 X89.767 Y32.818 E223.4814
G1 X90.051 Y32.595 E223.4934
G1 X90.914 Y32.089 E223.5266
G1 X90.914 Y21.841 E223.8673
G1 X113.117 Y21.841 E224.6054
G1 X113.117 Y32.090 E224.9461
G1 X113.874 Y32.532 E224.9753
G1 X114.219 Y32.784 E224.9895
G1 X114.471 Y33.034 E225.0013
G1 X114.691 Y33.325 E225.0134
G1 X114.868 Y33.645 E225.0256
G1 X114.999 Y33.986 E225.0377
G1 X115.080 Y34.336 E225.0496
G1 X115.110 Y34.689 E225.0614
G1 X115.090 Y35.087 E225.0747
G1 X115.021 Y35.426 E225.0862
G1 X114.900 Y35.768 E225.0982
G1 X114.730 Y36.093 E225.1104
G1 X114.517 Y36.390 E225.1226
G1 X114.264 Y36.654 E225.1348
G1 X113.981 Y36.878 E225.1468
G1 X113.117 Y37.383 E225.1800
G1 X113.117 Y47.631 E225.5207
G1 X90.914 Y47.631 E226.2588
G1 X90.914 Y46.437 E226.2985
G0 X91.709 Y44.038 F4800
G1 F600 X91.709 Y36.922 E226.5351
G1 X90.505 Y36.219 E226.5815
G1 X90.309 Y36.067 E226.5897
G1 X90.134 Y35.887 E226.5981
G1 X89.985 Y35.682 E226.6065
G1 X89.866 Y35.458 E226.6149
G1 X89.781 Y35.222 E226.6233
G1 X89.730 Y34.980 E226.6315
G1 X89.729 Y34.501 E226.6474
G1 X89.777 Y34.262 E226.6555
G1 X89.861 Y34.026 E226.6638
G1 X89.978 Y33.802 E226.6722
G1 X90.126 Y33.596 E226.6807
G1 X90.301 Y33.413 E226.6891
G1 X90.497 Y33.258 E226.6974
G1 X91.709 Y32.549 E226.7441
G1 X91.709 Y22.641 E227.0735
G1 X112.323 Y22.641 E227.7587
G1 X112.323 Y32.551 E228.0882
G1 X113.440 Y33.203 E228.1312
G1 X113.703 Y33.395 E228.1420
G1 X113.872 Y33.563 E228.1499
G1 X114.025 Y33.764 E228.1583
G1 X114.147 Y33.985 E228.1667
G1 X114.238 Y34.221 E228.1751
G1 X114.293 Y34.462 E228.1833
G1 X114.314 Y34.704 E228.1914
G1 X114.300 Y34.986 E228.2008
G1 X114.254 Y35.210 E228.2084
G1 X114.170 Y35.446 E228.2167
G1 X114.053 Y35.671 E228.2252
G1 X113.906 Y35.877 E228.2336
G1 X113.730 Y36.060 E228.2420
G1 X113.534 Y36.215 E228.2503
G1 X112.323 Y36.924 E228.2970
G1 X112.323 Y46.832 E228.6264
G1 X91.709 Y46.832 E229.3116
G1 X91.709 Y44.238 E229.3978
G0 X92.901 Y40.741 F4800
G1 F600 X92.901 Y36.231 E229.5478
G1 X91.195 Y35.236 E229.6134
G1 X91.050 Y35.106 E229.6199
G1 X90.922 Y34.824 E229.6302
G1 X90.960 Y34.513 E229.6406
G1 X91.048 Y34.370 E229.6462
G1 X91.192 Y34.238 E229.6527
G1 X92.901 Y33.238 E229.7185
G1 X92.901 Y23.840 E230.0310
G1 X111.130 Y23.840 E230.6370
G1 X111.130 Y33.242 E230.9495
G1 X112.769 Y34.197 E231.0126
G1 X112.975 Y34.367 E231.0215
G1 X113.107 Y34.649 E231.0318
G1 X113.072 Y34.959 E231.0421
G1 X112.983 Y35.103 E231.0478
G1 X112.839 Y35.234 E231.0543
G1 X111.130 Y36.234 E231.1201
G1 X111.130 Y45.632 E231.4325
G1 X92.901 Y45.632 E232.0385
G1 X92.901 Y40.941 E232.1945
G0 X93.696 Y38.543 F4800
G1 F600 X93.696 Y35.770 E232.2866
G1 X91.922 Y34.736 E232.3549
G1 X93.696 Y33.698 E232.4232
G1 X93.696 Y24.640 E232.7243
G1 X110.336 Y24.640 E233.2775
G1 X110.336 Y33.702 E233.5788
G1 X112.109 Y34.737 E233.6470
G1 X110.336 Y35.775 E233.7153
G1 X110.336 Y44.833 E234.0164
G1 X93.696 Y44.833 E234.5696
G1 X93.696 Y38.743 E234.7721
G0 X94.093 Y37.444 F4800
G1 F600 X94.093 Y35.540 E234.8354
G1 X92.713 Y34.735 E234.8885
G1 X94.093 Y33.928 E234.9416
G1 X94.093 Y25.040 E235.2371
G1 X109.938 Y25.040 E235.7638
G1 X109.938 Y33.933 E236.0595
G1 X111.318 Y34.737 E236.1126
G1 X109.938 Y35.545 E236.1657
G1 X109.938 Y44.433 E236.4612
G1 X94.093 Y44.433 E236.9879
G1 X94.093 Y37.643 E237.2136
G0 X95.683 Y33.649 F4800
G1 F600 X95.683 Y26.639 E237.4467
G1 X108.349 Y26.639 E237.8677
G1 X108.349 Y42.834 E238.4061
G1 X95.683 Y42.834 E238.8272
G1 X95.683 Y33.849 E239.1259
G0 X102.389 Y35.533 F4800
G1 F600 X102.389 Y36.837 E239.1692
G1 X101.643 Y36.837 E239.1940
G1 X101.643 Y32.636 E239.3336
G1 X102.389 Y32.636 E239.3584
G1 X102.389 Y35.333 E239.4481
G0 X102.786 Y34.434 F4800
G1 F600 X102.786 Y37.236 E239.5413
G1 X101.246 Y37.236 E239.5925
G1 X101.246 Y32.236 E239.7587
G1 X102.786 Y32.236 E239.8099
G1 X102.786 Y34.234 E239.8763
G0 X103.183 Y33.335 F4800
G1 F600 X103.183 Y37.636 E240.0193
G1 X100.848 Y37.636 E240.0970
G1 X100.848 Y31.836 E240.2898
G1 X103.183 Y31.836 E240.3674
G1 X103.183 Y33.135 E240.4106
G0 X103.581 Y32.236 F4800
G1 F600 X103.581 Y38.036 E240.6034
G1 X100.451 Y38.036 E240.7074
G1 X100.451 Y31.436 E240.9268
G1 X103.581 Y31.436 E241.0309
G1 X103.581 Y32.036 E241.0508
G0 X103.978 Y31.137 F4800
G1 F600 X103.978 Y38.436 E241.2935
G1 X100.054 Y38.436 E241.4239
G1 X100.054 Y31.037 E241.6699
G1 X103.879 Y31.037 E241.7971
G0 X103.231 Y30.637 F4800
G1 F600 X104.375 Y30.637 E241.8351
G1 X104.375 Y38.836 E242.1077
G1 X99.656 Y38.836 E242.2645
G1 X99.656 Y30.637 E242.5371
G1 X103.032 Y30.637 E242.6493
G0 X102.138 Y30.237 F4800
G1 F600 X104.773 Y30.237 E242.7369
G1 X104.773 Y39.236 E243.0360
G1 X99.259 Y39.236 E243.2193
G1 X99.259 Y30.237 E243.5185
G1 X101.940 Y30.237 E243.6076
G0 X101.046 Y29.837 F4800
G1 F600 X105.170 Y29.837 E243.7447
G1 X105.170 Y39.635 E244.0704
G1 X98.861 Y39.635 E244.2802
G1 X98.861 Y29.837 E244.6059
G1 X100.847 Y29.837 E244.6719
G0 X99.954 Y29.437 F4800
G1 F600 X105.567 Y29.437 E244.8585
G1 X105.567 Y40.035 E245.2108
G1 X98.464 Y40.035 E245.4470
G1 X98.464 Y29.437 E245.7993
G1 X99.755 Y29.437 E245.8422
G0 X98.861 Y29.038 F4800
G1 F600 X105.965 Y29.038 E246.0784
G1 X105.965 Y40.435 E246.4572
G1 X98.067 Y40.435 E246.7198
G1 X98.067 Y29.038 E247.0987
G1 X98.663 Y29.038 E247.1185
G0 X97.769 Y28.638 F4800
G1 F600 X106.362 Y28.638 E247.4042
G1 X106.362 Y40.835 E247.8096
G1 X97.669 Y40.835 E248.0986
G1 X97.669 Y28.738 E248.5008
G0 X97.272 Y29.252 F4800
G1 F600 X97.272 Y28.238 E248.5345
G1 X106.760 Y28.238 E248.8499
G1 X106.760 Y41.235 E249.2819
G1 X97.272 Y41.235 E249.5973
G1 X97.272 Y29.452 E249.9890
G0 X96.875 Y30.352 F4800
G1 F600 X96.875 Y27.838 E250.0726
G1 X107.157 Y27.838 E250.4144
G1 X107.157 Y41.634 E250.8730
G1 X96.875 Y41.634 E251.2148
G1 X96.875 Y30.551 E251.5833
G0 X96.477 Y31.451 F4800
G1 F600 X96.477 Y27.438 E251.7167
G1 X107.554 Y27.438 E252.0849
G1 X107.554 Y42.034 E252.5701
G1 X96.477 Y42.034 E252.9384
G1 X96.477 Y31.651 E253.2835
G0 X96.080 Y32.550 F4800
G1 F600 X96.080 Y27.039 E253.4667
G1 X107.952 Y27.039 E253.8614
G1 X107.952 Y42.434 E254.3732
G1 X96.080 Y42.434 E254.7679
G1 X96.080 Y32.750 E255.0898
G0 X95.173 Y34.683 F4800
G1 F600 X95.285 Y34.617 E255.0941
G1 X95.285 Y26.239 E255.3726
G1 X108.746 Y26.239 E255.8201
G1 X108.746 Y34.624 E256.0989
G1 X108.945 Y34.739 E256.1065
G1 X108.746 Y34.856 E256.1142
G1 X108.746 Y43.234 E256.3927
G1 X95.285 Y43.234 E256.8402
G1 X95.285 Y34.849 E257.1189
G1 X95.173 Y34.783 E257.1232
G0 X94.888 Y35.245 F4800
G1 F600 X94.888 Y35.079 E257.1288
G1 X94.296 Y34.734 E257.1516
G1 X94.888 Y34.387 E257.1744
G1 X94.888 Y25.839 E257.4586
G1 X109.144 Y25.839 E257.9325
G1 X109.144 Y34.393 E258.2168
G1 X109.736 Y34.739 E258.2396
G1 X109.144 Y35.085 E258.2625
G1 X109.144 Y43.633 E258.5466
G1 X94.888 Y43.633 E259.0206
G1 X94.888 Y35.445 E259.2928
G0 X94.491 Y36.344 F4800
G1 F600 X94.491 Y35.309 E259.3272
G1 X93.504 Y34.735 E259.3651
G1 X94.491 Y34.157 E259.4031
G1 X94.491 Y25.439 E259.6929
G1 X109.541 Y25.439 E260.1932
G1 X109.541 Y34.163 E260.4833
G1 X110.527 Y34.738 E260.5212
G1 X109.541 Y35.315 E260.5592
G1 X109.541 Y44.033 E260.8490
G1 X94.491 Y44.033 E261.3493
G1 X94.491 Y36.544 E261.5983
G0 X93.298 Y39.642 F4800
G1 F600 X93.298 Y36.000 E261.7194
G1 X91.429 Y34.910 E261.7913
G1 X91.330 Y34.760 E261.7973
G1 X91.428 Y34.563 E261.8046
G1 X93.298 Y33.468 E261.8767
G1 X93.298 Y24.240 E262.1834
G1 X110.733 Y24.240 E262.7630
G1 X110.733 Y33.472 E263.0699
G1 X112.542 Y34.527 E263.1395
G1 X112.699 Y34.716 E263.1477
G1 X112.603 Y34.910 E263.1549
G1 X110.733 Y36.005 E263.2269
G1 X110.733 Y45.233 E263.5337
G1 X93.298 Y45.233 E264.1133
G1 X93.298 Y39.842 E264.2925
G0 X92.504 Y41.840 F4800
G1 F600 X92.504 Y36.461 E264.4713
G1 X90.961 Y35.561 E264.5307
G1 X90.744 Y35.367 E264.5404
G1 X90.596 Y35.130 E264.5497
G1 X90.524 Y34.881 E264.5583
G1 X90.523 Y34.595 E264.5678
G1 X90.593 Y34.350 E264.5763
G1 X90.740 Y34.111 E264.5856
G1 X90.956 Y33.914 E264.5953
G1 X92.504 Y33.008 E264.6549
G1 X92.504 Y23.440 E264.9730
G1 X111.528 Y23.440 E265.6054
G1 X111.528 Y33.011 E265.9236
G1 X112.996 Y33.868 E265.9801
G1 X113.274 Y34.097 E265.9921
G1 X113.424 Y34.327 E266.0012
G1 X113.504 Y34.587 E266.0102
G1 X113.507 Y34.882 E266.0201
G1 X113.439 Y35.122 E266.0283
G1 X113.292 Y35.361 E266.0377
G1 X113.075 Y35.559 E266.0474
G1 X111.528 Y36.464 E266.1070
G1 X111.528 Y46.032 E266.4251
G1 X92.504 Y46.032 E267.0575
G1 X92.504 Y42.040 E267.1902
G0 X92.106 Y42.939 F4800
G1 F600 X92.106 Y36.691 E267.3979
G1 X90.727 Y35.887 E267.4510
G1 X90.438 Y35.628 E267.4639
G1 X90.230 Y35.295 E267.4770
G1 X90.127 Y34.938 E267.4893
G1 X90.126 Y34.541 E267.5025
G1 X90.226 Y34.187 E267.5148
G1 X90.431 Y33.853 E267.5278
G1 X90.721 Y33.590 E267.5408
G1 X92.106 Y32.779 E267.5942
G1 X92.106 Y23.040 E267.9179
G1 X111.925 Y23.040 E268.5768
G1 X111.925 Y32.781 E268.9006
G1 X113.223 Y33.538 E268.9505
G1 X113.573 Y33.827 E268.9656
G1 X113.787 Y34.156 E268.9787
G1 X113.900 Y34.524 E268.9915
G1 X113.904 Y34.936 E269.0052
G1 X113.806 Y35.285 E269.0172
G1 X113.600 Y35.620 E269.0303
G1 X113.310 Y35.883 E269.0433
G1 X111.925 Y36.694 E269.0966
G1 X111.925 Y46.432 E269.4204
G1 X92.106 Y46.432 E270.0792
G1 X92.106 Y43.139 E270.1887
G0 X91.312 Y45.138 F4800
G1 F600 X91.312 Y37.152 E270.4541
G1 X90.282 Y36.552 E270.4938
G1 X90.044 Y36.366 E270.5038
G1 X89.830 Y36.145 E270.5140
G1 X89.648 Y35.895 E270.5243
G1 X89.502 Y35.621 E270.5346
G1 X89.398 Y35.332 E270.5448
G1 X89.336 Y35.035 E270.5549
G1 X89.315 Y34.734 E270.5649
G1 X89.334 Y34.447 E270.5745
G1 X89.394 Y34.154 E270.5845
G1 X89.496 Y33.865 E270.5946
G1 X89.639 Y33.591 E270.6049
G1 X89.820 Y33.339 E270.6152
G1 X90.034 Y33.115 E270.6255
G1 X90.274 Y32.926 E270.6357
G1 X91.312 Y32.319 E270.6757
G1 X91.312 Y22.241 E271.0107
G1 X112.720 Y22.241 E271.7224
G1 X112.720 Y32.321 E272.0574
G1 X113.657 Y32.867 E272.0935
G1 X113.961 Y33.089 E272.1060
G1 X114.171 Y33.298 E272.1159
G1 X114.358 Y33.545 E272.1262
G1 X114.508 Y33.815 E272.1365
G1 X114.618 Y34.103 E272.1467
G1 X114.687 Y34.399 E272.1568
G1 X114.712 Y34.696 E272.1667
G1 X114.695 Y35.037 E272.1780
G1 X114.638 Y35.318 E272.1876
G1 X114.535 Y35.607 E272.1977
G1 X114.392 Y35.882 E272.2081
G1 X114.211 Y36.134 E272.2183
G1 X113.997 Y36.357 E272.2286
G1 X113.757 Y36.546 E272.2388
G1 X112.720 Y37.154 E272.2787
G1 X112.720 Y47.232 E272.6138
G1 X91.312 Y47.232 E273.3254
G1 X91.312 Y45.337 E273.3884
;segType:Loop
G0 F4800 E272.388
G0 F4800 X134.234 Y47.403
G0 F4800 E273.388
G1 F600 X134.234 Y39.481 E273.6517
G1 X133.555 Y39.085 E273.6779
G1 X133.230 Y38.832 E273.6915
G1 X132.938 Y38.531 E273.7055
G1 X132.689 Y38.188 E273.7196
G1 X132.491 Y37.814 E273.7336
G1 X132.348 Y37.418 E273.7476
G1 X132.263 Y37.011 E273.7615
G1 X132.235 Y36.603 E273.7751
G1 X132.262 Y36.206 E273.7883
G1 X132.344 Y35.804 E273.8019
G1 X132.484 Y35.410 E273.8158
G1 X132.680 Y35.034 E273.8299
G1 X132.927 Y34.690 E273.8440
G1 X133.219 Y34.386 E273.8580
G1 X133.546 Y34.128 E273.8718
G1 X134.234 Y33.726 E273.8983
G1 X134.234 Y25.107 E274.1849
G1 X157.234 Y25.107 E274.9495
G1 X157.234 Y33.726 E275.2360
G1 X157.912 Y34.122 E275.2621
G1 X158.237 Y34.375 E275.2758
G1 X158.529 Y34.676 E275.2897
G1 X158.778 Y35.019 E275.3038
G1 X158.976 Y35.393 E275.3179
G1 X159.119 Y35.789 E275.3319
G1 X159.203 Y36.191 E275.3456
G1 X159.228 Y36.657 E275.3611
G1 X159.194 Y37.053 E275.3743
G1 X159.105 Y37.454 E275.3879
G1 X158.957 Y37.846 E275.4019
G1 X158.754 Y38.217 E275.4159
G1 X158.502 Y38.556 E275.4300
G1 X158.209 Y38.851 E275.4438
G1 X157.819 Y39.138 E275.4599
G1 X157.234 Y39.481 E275.4824
G1 X157.234 Y48.100 E275.7689
G1 X134.234 Y48.100 E276.5336
G1 X134.234 Y47.603 E276.5501
;segType:Perimeter
G0 X134.494 Y48.167 F4800
G1 F360 X133.834 Y48.442 E276.5739
G1 X133.834 Y39.713 E276.8641
G1 X133.331 Y39.420 E276.8834
G1 X132.963 Y39.133 E276.8989
G1 X132.632 Y38.791 E276.9147
G1 X132.350 Y38.403 E276.9307
G1 X132.125 Y37.978 E276.9467
G1 X131.963 Y37.529 E276.9626
G1 X131.866 Y37.067 E276.9783
G1 X131.834 Y36.604 E276.9937
G1 X131.864 Y36.152 E277.0087
G1 X131.958 Y35.695 E277.0242
G1 X132.117 Y35.248 E277.0401
G1 X132.339 Y34.822 E277.0560
G1 X132.619 Y34.432 E277.0720
G1 X132.950 Y34.086 E277.0879
G1 X133.321 Y33.794 E277.1036
G1 X133.834 Y33.494 E277.1233
G1 X133.834 Y24.705 E277.4155
G1 X157.634 Y24.705 E278.2067
G1 X157.634 Y33.494 E278.4989
G1 X158.136 Y33.787 E278.5183
G1 X158.504 Y34.074 E278.5338
G1 X158.835 Y34.415 E278.5496
G1 X159.117 Y34.804 E278.5655
G1 X159.342 Y35.229 E278.5815
G1 X159.505 Y35.678 E278.5974
G1 X159.601 Y36.138 E278.6130
G1 X159.629 Y36.663 E278.6305
G1 X159.590 Y37.115 E278.6456
G1 X159.488 Y37.570 E278.6611
G1 X159.321 Y38.015 E278.6769
G1 X159.091 Y38.436 E278.6928
G1 X158.805 Y38.820 E278.7088
G1 X158.470 Y39.158 E278.7246
G1 X158.039 Y39.475 E278.7424
G1 X157.634 Y39.713 E278.7579
G1 X157.634 Y48.502 E279.0502
G1 X133.893 Y48.502 E279.8394
G1 X134.167 Y47.838
;segType:HShell
G0 X134.632 Y46.304 F4800
G1 F600 X134.632 Y39.250 E280.0739
G1 X133.778 Y38.751 E280.1068
G1 X133.496 Y38.532 E280.1186
G1 X133.243 Y38.271 E280.1307
G1 X133.028 Y37.975 E280.1429
G1 X132.856 Y37.651 E280.1551
G1 X132.732 Y37.308 E280.1672
G1 X132.659 Y36.956 E280.1791
G1 X132.635 Y36.603 E280.1909
G1 X132.658 Y36.260 E280.2023
G1 X132.729 Y35.913 E280.2141
G1 X132.850 Y35.572 E280.2261
G1 X133.019 Y35.246 E280.2383
G1 X133.233 Y34.948 E280.2505
G1 X133.487 Y34.684 E280.2627
G1 X133.770 Y34.461 E280.2747
G1 X134.632 Y33.957 E280.3079
G1 X134.632 Y25.508 E280.5888
G1 X156.835 Y25.508 E281.3269
G1 X156.835 Y33.957 E281.6077
G1 X157.689 Y34.456 E281.6406
G1 X157.971 Y34.675 E281.6525
G1 X158.224 Y34.936 E281.6646
G1 X158.439 Y35.233 E281.6767
G1 X158.611 Y35.557 E281.6889
G1 X158.735 Y35.899 E281.7011
G1 X158.807 Y36.243 E281.7128
G1 X158.828 Y36.650 E281.7263
G1 X158.799 Y36.992 E281.7377
G1 X158.722 Y37.339 E281.7495
G1 X158.594 Y37.678 E281.7615
G1 X158.418 Y37.999 E281.7737
G1 X158.200 Y38.293 E281.7859
G1 X157.948 Y38.546 E281.7978
G1 X157.600 Y38.802 E281.8121
G1 X156.835 Y39.251 E281.8416
G1 X156.835 Y47.699 E282.1225
G1 X134.632 Y47.699 E282.8606
G1 X134.632 Y46.504 E282.9003
G0 X135.427 Y44.106 F4800
G1 F600 X135.427 Y38.789 E283.0771
G1 X134.222 Y38.086 E283.1234
G1 X134.027 Y37.934 E283.1317
G1 X133.851 Y37.753 E283.1401
G1 X133.703 Y37.549 E283.1485
G1 X133.584 Y37.325 E283.1569
G1 X133.498 Y37.088 E283.1652
G1 X133.448 Y36.846 E283.1734
G1 X133.447 Y36.368 E283.1893
G1 X133.495 Y36.128 E283.1975
G1 X133.579 Y35.893 E283.2058
G1 X133.697 Y35.668 E283.2142
G1 X133.845 Y35.462 E283.2226
G1 X134.020 Y35.279 E283.2311
G1 X134.216 Y35.124 E283.2394
G1 X135.427 Y34.418 E283.2860
G1 X135.427 Y26.308 E283.5556
G1 X156.040 Y26.308 E284.2409
G1 X156.040 Y34.418 E284.5105
G1 X157.245 Y35.120 E284.5569
G1 X157.441 Y35.273 E284.5651
G1 X157.616 Y35.453 E284.5735
G1 X157.764 Y35.658 E284.5819
G1 X157.884 Y35.883 E284.5903
G1 X157.969 Y36.119 E284.5987
G1 X158.017 Y36.347 E284.6064
G1 X158.032 Y36.637 E284.6160
G1 X157.959 Y37.108 E284.6319
G1 X157.871 Y37.342 E284.6402
G1 X157.749 Y37.565 E284.6486
G1 X157.598 Y37.768 E284.6571
G1 X157.429 Y37.937 E284.6650
G1 X157.164 Y38.133 E284.6759
G1 X156.040 Y38.791 E284.7193
G1 X156.040 Y46.899 E284.9888
G1 X135.427 Y46.899 E285.6741
G1 X135.427 Y44.306 E285.7603
G0 X139.003 Y35.336 F4800
G1 F600 X139.003 Y29.906 E285.9408
G1 X152.464 Y29.906 E286.3883
G1 X152.464 Y36.491 E286.6072
G1 X152.663 Y36.607 E286.6148
G1 X152.464 Y36.723 E286.6224
G1 X152.464 Y43.301 E286.8411
G1 X139.003 Y43.301 E287.2886
G1 X139.003 Y36.716 E287.5075
G1 X138.810 Y36.603 E287.5149
G1 X139.003 Y36.491 E287.5223
G1 X139.003 Y35.536 E287.5541
G0 X139.400 Y34.237 F4800
G1 F600 X139.400 Y30.306 E287.6847
G1 X152.067 Y30.306 E288.1058
G1 X152.067 Y42.901 E288.5245
G1 X139.400 Y42.901 E288.9456
G1 X139.400 Y34.437 E289.2270
G0 X139.798 Y33.138 F4800
G1 F600 X139.798 Y30.706 E289.3078
G1 X151.669 Y30.706 E289.7025
G1 X151.669 Y42.501 E290.0946
G1 X139.798 Y42.501 E290.4892
G1 X139.798 Y33.338 E290.7939
G0 X140.195 Y32.039 F4800
G1 F600 X140.195 Y31.106 E290.8249
G1 X151.272 Y31.106 E291.1931
G1 X151.272 Y42.102 E291.5586
G1 X140.195 Y42.102 E291.9269
G1 X140.195 Y32.238 E292.2547
G0 X140.692 Y31.505 F4800
G1 F600 X150.875 Y31.505 E292.5932
G1 X150.875 Y41.702 E292.9322
G1 X140.593 Y41.702 E293.2740
G1 X140.593 Y31.605 E293.6097
G0 X141.784 Y31.905 F4800
G1 F600 X150.477 Y31.905 E293.8987
G1 X150.477 Y41.302 E294.2110
G1 X140.990 Y41.302 E294.5264
G1 X140.990 Y31.905 E294.8388
G1 X141.586 Y31.905 E294.8586
G0 X142.877 Y32.305 F4800
G1 F600 X150.080 Y32.305 E295.0981
G1 X150.080 Y40.902 E295.3839
G1 X141.387 Y40.902 E295.6729
G1 X141.387 Y32.305 E295.9587
G1 X142.678 Y32.305 E296.0016
G0 X143.969 Y32.705 F4800
G1 F600 X149.683 Y32.705 E296.1915
G1 X149.683 Y40.502 E296.4507
G1 X141.785 Y40.502 E296.7133
G1 X141.785 Y32.705 E296.9725
G1 X143.770 Y32.705 E297.0385
G0 X145.061 Y33.105 F4800
G1 F600 X149.285 Y33.105 E297.1789
G1 X149.285 Y40.102 E297.4116
G1 X142.182 Y40.102 E297.6477
G1 X142.182 Y33.105 E297.8804
G1 X144.863 Y33.105 E297.9695
G0 X146.154 Y33.504 F4800
G1 F600 X148.888 Y33.504 E298.0603
G1 X148.888 Y39.703 E298.2664
G1 X142.579 Y39.703 E298.4761
G1 X142.579 Y33.504 E298.6822
G1 X145.955 Y33.504 E298.7944
G0 X147.246 Y33.904 F4800
G1 F600 X148.491 Y33.904 E298.8357
G1 X148.491 Y39.303 E299.0152
G1 X142.977 Y39.303 E299.1985
G1 X142.977 Y33.904 E299.3780
G1 X147.048 Y33.904 E299.5133
G0 X148.093 Y34.404 F4800
G1 F600 X148.093 Y38.903 E299.6629
G1 X143.374 Y38.903 E299.8198
G1 X143.374 Y34.304 E299.9727
G1 X147.994 Y34.304 E300.1263
G0 X147.696 Y35.503 F4800
G1 F600 X147.696 Y38.503 E300.2260
G1 X143.771 Y38.503 E300.3565
G1 X143.771 Y34.704 E300.4828
G1 X147.696 Y34.704 E300.6132
G1 X147.696 Y35.303 E300.6332
G0 X147.299 Y36.602 F4800
G1 F600 X147.299 Y38.103 E300.6831
G1 X144.169 Y38.103 E300.7871
G1 X144.169 Y35.104 E300.8868
G1 X147.299 Y35.104 E300.9909
G1 X147.299 Y36.402 E301.0340
G0 X146.901 Y37.701 F4800
G1 F600 X146.901 Y37.704 E301.0341
G1 X144.566 Y37.704 E301.1118
G1 X144.566 Y35.503 E301.1849
G1 X146.901 Y35.503 E301.2626
G1 X146.901 Y37.501 E301.3290
G0 X145.811 Y37.304 F4800
G1 F600 X144.963 Y37.304 E301.3572
G1 X144.963 Y35.903 E301.4037
G1 X146.504 Y35.903 E301.4549
G1 X146.504 Y37.304 E301.5015
G1 X146.010 Y37.304 E301.5179
G0 X145.361 Y36.804 F4800
G1 F600 X145.361 Y36.303 E301.5346
G1 X146.106 Y36.303 E301.5594
G1 X146.106 Y36.904 E301.5794
G1 X145.460 Y36.904 E301.6008
G0 X138.456 Y36.348 F4800
G1 F600 X138.606 Y36.261 E301.6066
G1 X138.606 Y29.506 E301.8312
G1 X152.862 Y29.506 E302.3051
G1 X152.862 Y36.261 E302.5296
G1 X153.454 Y36.606 E302.5524
G1 X152.862 Y36.953 E302.5752
G1 X152.862 Y43.701 E302.7996
G1 X138.606 Y43.701 E303.2735
G1 X138.606 Y36.946 E303.4980
G1 X138.018 Y36.603 E303.5207
G1 X138.284 Y36.448 E303.5309
G0 X137.311 Y36.553 F4800
G1 F600 X138.208 Y36.030 E303.5654
G1 X138.208 Y29.106 E303.7956
G1 X153.259 Y29.106 E304.2959
G1 X153.259 Y36.030 E304.5261
G1 X154.245 Y36.605 E304.5640
G1 X153.259 Y37.183 E304.6020
G1 X153.259 Y44.101 E304.8320
G1 X138.208 Y44.101 E305.3323
G1 X138.208 Y37.177 E305.5625
G1 X137.311 Y36.654 E305.5970
G0 X137.504 Y37.228 F4800
G1 F600 X136.433 Y36.603 E305.6382
G1 X137.811 Y35.800 E305.6913
G1 X137.811 Y28.707 E305.9271
G1 X153.656 Y28.707 E306.4538
G1 X153.656 Y35.800 E306.6896
G1 X155.036 Y36.604 E306.7427
G1 X153.656 Y37.412 E306.7959
G1 X153.656 Y44.500 E307.0315
G1 X137.811 Y44.500 E307.5583
G1 X137.811 Y37.407 E307.7941
G1 X137.676 Y37.328 E307.7993
G0 X137.414 Y38.610 F4800
G1 F600 X137.414 Y37.637 E307.8316
G1 X135.641 Y36.603 E307.8999
G1 X137.414 Y35.570 E307.9681
G1 X137.414 Y28.307 E308.2096
G1 X154.054 Y28.307 E308.7627
G1 X154.054 Y35.570 E309.0042
G1 X155.827 Y36.603 E309.0724
G1 X154.054 Y37.642 E309.1408
G1 X154.054 Y44.900 E309.3820
G1 X137.414 Y44.900 E309.9352
G1 X137.414 Y38.810 E310.1376
G0 X137.016 Y39.709 F4800
G1 F600 X137.016 Y37.868 E310.1989
G1 X135.147 Y36.777 E310.2708
G1 X135.047 Y36.627 E310.2768
G1 X135.146 Y36.430 E310.2841
G1 X137.016 Y35.339 E310.3561
G1 X137.016 Y27.907 E310.6032
G1 X154.451 Y27.907 E311.1828
G1 X154.451 Y35.339 E311.4298
G1 X156.320 Y36.429 E311.5017
G1 X156.406 Y36.516 E311.5058
G1 X156.391 Y36.692 E311.5117
G1 X156.271 Y36.806 E311.5172
G1 X154.451 Y37.872 E311.5873
G1 X154.451 Y45.300 E311.8342
G1 X137.016 Y45.300 E312.4138
G1 X137.016 Y39.909 E312.5930
G0 X136.619 Y40.808 F4800
G1 F600 X136.619 Y38.098 E312.6831
G1 X134.913 Y37.103 E312.7488
G1 X134.768 Y36.973 E312.7553
G1 X134.639 Y36.690 E312.7656
G1 X134.678 Y36.380 E312.7760
G1 X134.766 Y36.236 E312.7816
G1 X134.911 Y36.105 E312.7881
G1 X136.619 Y35.109 E312.8538
G1 X136.619 Y27.507 E313.1065
G1 X154.848 Y27.507 E313.7126
G1 X154.848 Y35.109 E313.9653
G1 X156.554 Y36.103 E314.0309
G1 X156.698 Y36.233 E314.0374
G1 X156.780 Y36.364 E314.0425
G1 X156.831 Y36.607 E314.0508
G1 X156.741 Y36.909 E314.0613
G1 X156.510 Y37.128 E314.0718
G1 X154.848 Y38.102 E314.1358
G1 X154.848 Y45.700 E314.3884
G1 X136.619 Y45.700 E314.9945
G1 X136.619 Y41.008 E315.1504
G0 X136.222 Y41.908 F4800
G1 F600 X136.222 Y38.328 E315.2694
G1 X134.679 Y37.428 E315.3288
G1 X134.462 Y37.234 E315.3385
G1 X134.314 Y36.996 E315.3478
G1 X134.242 Y36.747 E315.3565
G1 X134.242 Y36.463 E315.3659
G1 X134.311 Y36.217 E315.3744
G1 X134.458 Y35.978 E315.3837
G1 X134.675 Y35.781 E315.3935
G1 X136.222 Y34.879 E315.4530
G1 X136.222 Y27.107 E315.7113
G1 X155.246 Y27.107 E316.3437
G1 X155.246 Y34.879 E316.6021
G1 X156.788 Y35.778 E316.6614
G1 X157.005 Y35.972 E316.6711
G1 X157.154 Y36.212 E316.6805
G1 X157.234 Y36.596 E316.6935
G1 X157.189 Y36.888 E316.7034
G1 X157.078 Y37.128 E316.7121
G1 X156.899 Y37.337 E316.7213
G1 X156.728 Y37.463 E316.7283
G1 X155.246 Y38.332 E316.7855
G1 X155.246 Y46.100 E317.0437
G1 X136.222 Y46.100 E317.6761
G1 X136.222 Y42.107 E317.8089
G0 X135.824 Y43.007 F4800
G1 F600 X135.824 Y38.559 E317.9567
G1 X134.444 Y37.754 E318.0098
G1 X134.155 Y37.494 E318.0227
G1 X133.948 Y37.161 E318.0357
G1 X133.845 Y36.804 E318.0481
G1 X133.844 Y36.408 E318.0613
G1 X133.944 Y36.055 E318.0735
G1 X134.150 Y35.719 E318.0866
G1 X134.440 Y35.456 E318.0996
G1 X135.824 Y34.648 E318.1529
G1 X135.824 Y26.708 E318.4169
G1 X155.643 Y26.708 E319.0757
G1 X155.643 Y34.648 E319.3397
G1 X157.022 Y35.452 E319.3928
G1 X157.312 Y35.712 E319.4057
G1 X157.520 Y36.047 E319.4188
G1 X157.622 Y36.399 E319.4310
G1 X157.633 Y36.617 E319.4382
G1 X157.573 Y37.006 E319.4513
G1 X157.415 Y37.347 E319.4638
G1 X157.170 Y37.633 E319.4764
G1 X156.946 Y37.798 E319.4856
G1 X155.643 Y38.561 E319.5358
G1 X155.643 Y46.499 E319.7997
G1 X135.824 Y46.499 E320.4585
G1 X135.824 Y43.206 E320.5680
G0 X135.030 Y45.205 F4800
G1 F600 X135.030 Y39.019 E320.7736
G1 X134.000 Y38.419 E320.8132
G1 X133.761 Y38.233 E320.8233
G1 X133.547 Y38.012 E320.8335
G1 X133.365 Y37.762 E320.8438
G1 X133.220 Y37.488 E320.8541
G1 X133.115 Y37.198 E320.8644
G1 X133.053 Y36.901 E320.8744
G1 X133.033 Y36.603 E320.8844
G1 X133.052 Y36.314 E320.8940
G1 X133.112 Y36.020 E320.9039
G1 X133.215 Y35.732 E320.9141
G1 X133.358 Y35.457 E320.9244
G1 X133.539 Y35.205 E320.9347
G1 X133.753 Y34.981 E320.9451
G1 X133.993 Y34.792 E320.9552
G1 X135.030 Y34.188 E320.9951
G1 X135.030 Y25.908 E321.2703
G1 X156.438 Y25.908 E321.9820
G1 X156.438 Y34.188 E322.2572
G1 X157.467 Y34.788 E322.2968
G1 X157.706 Y34.974 E322.3069
G1 X157.920 Y35.195 E322.3171
G1 X158.102 Y35.445 E322.3274
G1 X158.247 Y35.720 E322.3377
G1 X158.352 Y36.009 E322.3479
G1 X158.412 Y36.295 E322.3576
G1 X158.430 Y36.644 E322.3692
G1 X158.406 Y36.931 E322.3788
G1 X158.341 Y37.224 E322.3888
G1 X158.233 Y37.510 E322.3990
G1 X158.084 Y37.782 E322.4093
G1 X157.899 Y38.030 E322.4196
G1 X157.689 Y38.242 E322.4295
G1 X157.382 Y38.468 E322.4422
G1 X156.438 Y39.021 E322.4786
G1 X156.438 Y47.299 E322.7537
G1 X135.030 Y47.299 E323.4654
G1 X135.030 Y45.405 E323.5284
;segType:Loop
G0 F4800 E322.528
G0 F4800 X185.042 Y49.962
G0 F4800 E323.528
G1 F600 X185.042 Y40.238 E323.8516
G1 X184.363 Y39.844 E323.8777
G1 X184.039 Y39.591 E323.8914
G1 X183.747 Y39.290 E323.9053
G1 X183.498 Y38.948 E323.9194
G1 X183.300 Y38.574 E323.9335
G1 X183.157 Y38.178 E323.9474
G1 X183.071 Y37.771 E323.9613
G1 X183.043 Y37.362 E323.9749
G1 X183.070 Y36.965 E323.9881
G1 X183.152 Y36.563 E324.0017
G1 X183.292 Y36.169 E324.0156
G1 X183.487 Y35.794 E324.0297
G1 X183.734 Y35.450 E324.0438
G1 X184.025 Y35.145 E324.0578
G1 X184.352 Y34.888 E324.0716
G1 X185.042 Y34.484 E324.0982
G1 X185.042 Y24.065 E324.4446
G1 X208.042 Y24.065 E325.2092
G1 X208.042 Y34.485 E325.5556
G1 X208.618 Y34.820 E325.5777
G1 X209.004 Y35.103 E325.5936
G1 X209.297 Y35.394 E325.6074
G1 X209.552 Y35.731 E325.6214
G1 X209.756 Y36.100 E325.6354
G1 X209.907 Y36.493 E325.6495
G1 X210.000 Y36.899 E325.6633
G1 X210.036 Y37.307 E325.6769
G1 X210.013 Y37.764 E325.6921
G1 X209.932 Y38.161 E325.7056
G1 X209.792 Y38.555 E325.7195
G1 X209.597 Y38.930 E325.7335
G1 X209.350 Y39.274 E325.7476
G1 X209.058 Y39.579 E325.7616
G1 X208.731 Y39.837 E325.7755
G1 X208.042 Y40.239 E325.8020
G1 X208.042 Y50.658 E326.1484
G1 X185.042 Y50.658 E326.9130
G1 X185.042 Y50.161 E326.9295
;segType:Perimeter
G0 X185.302 Y50.726 F4800
G1 F360 X184.642 Y51.001 E326.9533
G1 X184.642 Y40.471 E327.3034
G1 X184.139 Y40.178 E327.3227
G1 X183.772 Y39.892 E327.3381
G1 X183.441 Y39.551 E327.3540
G1 X183.159 Y39.163 E327.3699
G1 X182.934 Y38.739 E327.3859
G1 X182.771 Y38.289 E327.4017
G1 X182.674 Y37.827 E327.4174
G1 X182.642 Y37.362 E327.4329
G1 X182.672 Y36.911 E327.4480
G1 X182.765 Y36.455 E327.4635
G1 X182.924 Y36.007 E327.4793
G1 X183.146 Y35.581 E327.4952
G1 X183.426 Y35.191 E327.5112
G1 X183.757 Y34.846 E327.5271
G1 X184.127 Y34.554 E327.5428
G1 X184.642 Y34.253 E327.5626
G1 X184.642 Y23.663 E327.9146
G1 X208.442 Y23.663 E328.7058
G1 X208.442 Y34.253 E329.0579
G1 X208.836 Y34.483 E329.0730
G1 X209.263 Y34.795 E329.0906
G1 X209.598 Y35.128 E329.1063
G1 X209.887 Y35.510 E329.1222
G1 X210.119 Y35.929 E329.1382
G1 X210.290 Y36.375 E329.1541
G1 X210.396 Y36.835 E329.1698
G1 X210.437 Y37.300 E329.1853
G1 X210.411 Y37.815 E329.2024
G1 X210.318 Y38.269 E329.2178
G1 X210.159 Y38.717 E329.2336
G1 X209.937 Y39.142 E329.2496
G1 X209.657 Y39.532 E329.2655
G1 X209.327 Y39.878 E329.2814
G1 X208.956 Y40.171 E329.2972
G1 X208.442 Y40.471 E329.3170
G1 X208.442 Y51.061 E329.6690
G1 X184.701 Y51.061 E330.4582
G1 X184.975 Y50.396
;segType:HShell
G0 X185.440 Y48.863 F4800
G1 F600 X185.440 Y40.007 E330.7526
G1 X184.586 Y39.510 E330.7855
G1 X184.305 Y39.291 E330.7973
G1 X184.052 Y39.030 E330.8094
G1 X183.837 Y38.734 E330.8216
G1 X183.665 Y38.410 E330.8338
G1 X183.541 Y38.068 E330.8459
G1 X183.467 Y37.716 E330.8578
G1 X183.443 Y37.362 E330.8696
G1 X183.466 Y37.019 E330.8811
G1 X183.536 Y36.672 E330.8928
G1 X183.658 Y36.330 E330.9049
G1 X183.827 Y36.005 E330.9171
G1 X184.041 Y35.708 E330.9292
G1 X184.293 Y35.444 E330.9414
G1 X184.577 Y35.220 E330.9534
G1 X185.440 Y34.715 E330.9866
G1 X185.440 Y24.467 E331.3273
G1 X207.643 Y24.467 E332.0654
G1 X207.643 Y34.717 E332.4062
G1 X208.400 Y35.157 E332.4353
G1 X208.745 Y35.410 E332.4495
G1 X208.996 Y35.660 E332.4613
G1 X209.217 Y35.951 E332.4735
G1 X209.395 Y36.271 E332.4856
G1 X209.525 Y36.611 E332.4978
G1 X209.606 Y36.962 E332.5097
G1 X209.636 Y37.315 E332.5215
G1 X209.616 Y37.713 E332.5347
G1 X209.547 Y38.052 E332.5462
G1 X209.426 Y38.394 E332.5583
G1 X209.257 Y38.718 E332.5704
G1 X209.043 Y39.016 E332.5827
G1 X208.790 Y39.280 E332.5948
G1 X208.507 Y39.504 E332.6068
G1 X207.643 Y40.008 E332.6401
G1 X207.643 Y50.257 E332.9808
G1 X185.440 Y50.257 E333.7189
G1 X185.440 Y49.062 E333.7586
G0 X186.235 Y46.664 F4800
G1 F600 X186.235 Y39.546 E333.9953
G1 X185.030 Y38.845 E334.0416
G1 X184.835 Y38.693 E334.0498
G1 X184.660 Y38.512 E334.0582
G1 X184.511 Y38.308 E334.0666
G1 X184.392 Y38.084 E334.0750
G1 X184.306 Y37.847 E334.0834
G1 X184.256 Y37.606 E334.0915
G1 X184.255 Y37.127 E334.1075
G1 X184.304 Y36.887 E334.1156
G1 X184.387 Y36.652 E334.1239
G1 X184.504 Y36.427 E334.1323
G1 X184.652 Y36.221 E334.1407
G1 X184.827 Y36.039 E334.1492
G1 X185.024 Y35.884 E334.1575
G1 X186.235 Y35.175 E334.2041
G1 X186.235 Y25.266 E334.5335
G1 X206.848 Y25.266 E335.2188
G1 X206.848 Y35.178 E335.5483
G1 X207.967 Y35.828 E335.5913
G1 X208.229 Y36.020 E335.6021
G1 X208.398 Y36.189 E335.6101
G1 X208.551 Y36.391 E335.6185
G1 X208.673 Y36.611 E335.6268
G1 X208.764 Y36.846 E335.6352
G1 X208.819 Y37.088 E335.6435
G1 X208.840 Y37.330 E335.6516
G1 X208.826 Y37.612 E335.6610
G1 X208.780 Y37.836 E335.6686
G1 X208.696 Y38.072 E335.6769
G1 X208.579 Y38.296 E335.6853
G1 X208.431 Y38.502 E335.6937
G1 X208.256 Y38.686 E335.7022
G1 X208.060 Y38.840 E335.7104
G1 X206.848 Y39.547 E335.7571
G1 X206.848 Y49.458 E336.0865
G1 X186.235 Y49.458 E336.7718
G1 X186.235 Y46.864 E336.8580
G0 X187.427 Y43.367 F4800
G1 F600 X187.427 Y38.854 E337.0080
G1 X185.720 Y37.861 E337.0737
G1 X185.576 Y37.732 E337.0801
G1 X185.447 Y37.449 E337.0904
G1 X185.486 Y37.139 E337.1008
G1 X185.574 Y36.996 E337.1064
G1 X185.718 Y36.864 E337.1129
G1 X187.427 Y35.864 E337.1787
G1 X187.427 Y26.466 E337.4911
G1 X205.656 Y26.466 E338.0971
G1 X205.656 Y35.870 E338.4098
G1 X207.296 Y36.823 E338.4728
G1 X207.501 Y36.993 E338.4817
G1 X207.633 Y37.275 E338.4920
G1 X207.598 Y37.585 E338.5024
G1 X207.509 Y37.729 E338.5080
G1 X207.366 Y37.859 E338.5144
G1 X205.656 Y38.856 E338.5802
G1 X205.656 Y48.258 E338.8928
G1 X187.427 Y48.258 E339.4988
G1 X187.427 Y43.567 E339.6548
G0 X188.222 Y41.169 F4800
G1 F600 X188.222 Y38.393 E339.7471
G1 X186.448 Y37.362 E339.8153
G1 X188.222 Y36.324 E339.8836
G1 X188.222 Y27.265 E340.1847
G1 X204.862 Y27.265 E340.7379
G1 X204.862 Y36.331 E341.0393
G1 X206.634 Y37.362 E341.1074
G1 X204.862 Y38.396 E341.1756
G1 X204.862 Y47.459 E341.4769
G1 X188.222 Y47.459 E342.0301
G1 X188.222 Y41.368 E342.2326
G0 X188.619 Y40.069 F4800
G1 F600 X188.619 Y38.162 E342.2960
G1 X187.240 Y37.360 E342.3490
G1 X188.619 Y36.553 E342.4021
G1 X188.619 Y27.665 E342.6976
G1 X204.464 Y27.665 E343.2243
G1 X204.464 Y36.562 E343.5201
G1 X205.841 Y37.362 E343.5730
G1 X204.464 Y38.165 E343.6260
G1 X204.464 Y47.059 E343.9217
G1 X188.619 Y47.059 E344.4484
G1 X188.619 Y40.269 E344.6741
G0 X190.208 Y36.271 F4800
G1 F600 X190.208 Y29.264 E344.9071
G1 X202.875 Y29.264 E345.3281
G1 X202.875 Y45.460 E345.8665
G1 X190.208 Y45.460 E346.2876
G1 X190.208 Y36.471 E346.5864
G0 X196.914 Y38.159 F4800
G1 F600 X196.914 Y39.462 E346.6298
G1 X196.169 Y39.462 E346.6546
G1 X196.169 Y35.261 E346.7942
G1 X196.914 Y35.261 E346.8190
G1 X196.914 Y37.959 E346.9086
G0 X197.312 Y37.059 F4800
G1 F600 X197.312 Y39.862 E347.0018
G1 X195.771 Y39.862 E347.0530
G1 X195.771 Y34.862 E347.2193
G1 X197.312 Y34.862 E347.2705
G1 X197.312 Y36.860 E347.3369
G0 X197.709 Y35.960 F4800
G1 F600 X197.709 Y40.262 E347.4799
G1 X195.374 Y40.262 E347.5575
G1 X195.374 Y34.462 E347.7503
G1 X197.709 Y34.462 E347.8280
G1 X197.709 Y35.760 E347.8712
G0 X198.107 Y34.861 F4800
G1 F600 X198.107 Y40.662 E348.0640
G1 X194.977 Y40.662 E348.1680
G1 X194.977 Y34.062 E348.3874
G1 X198.107 Y34.062 E348.4915
G1 X198.107 Y34.661 E348.5114
G0 X198.504 Y33.762 F4800
G1 F600 X198.504 Y41.062 E348.7541
G1 X194.579 Y41.062 E348.8845
G1 X194.579 Y33.662 E349.1305
G1 X198.405 Y33.662 E349.2577
G0 X197.757 Y33.262 F4800
G1 F600 X198.901 Y33.262 E349.2958
G1 X198.901 Y41.462 E349.5683
G1 X194.182 Y41.462 E349.7252
G1 X194.182 Y33.262 E349.9978
G1 X197.558 Y33.262 E350.1100
G0 X196.664 Y32.863 F4800
G1 F600 X199.299 Y32.863 E350.1976
G1 X199.299 Y41.861 E350.4968
G1 X193.785 Y41.861 E350.6801
G1 X193.785 Y32.863 E350.9792
G1 X196.466 Y32.863 E351.0683
G0 X195.572 Y32.463 F4800
G1 F600 X199.696 Y32.463 E351.2055
G1 X199.696 Y42.261 E351.5312
G1 X193.387 Y42.261 E351.7409
G1 X193.387 Y32.463 E352.0667
G1 X195.373 Y32.463 E352.1327
G0 X194.479 Y32.063 F4800
G1 F600 X200.093 Y32.063 E352.3193
G1 X200.093 Y42.661 E352.6716
G1 X192.990 Y42.661 E352.9078
G1 X192.990 Y32.063 E353.2601
G1 X194.281 Y32.063 E353.3030
G0 X193.387 Y31.663 F4800
G1 F600 X200.491 Y31.663 E353.5391
G1 X200.491 Y43.061 E353.9180
G1 X192.593 Y43.061 E354.1806
G1 X192.593 Y31.663 E354.5595
G1 X193.188 Y31.663 E354.5793
G0 X192.295 Y31.263 F4800
G1 F600 X200.888 Y31.263 E354.8650
G1 X200.888 Y43.461 E355.2705
G1 X192.195 Y43.461 E355.5595
G1 X192.195 Y31.363 E355.9616
G0 X191.798 Y31.874 F4800
G1 F600 X191.798 Y30.863 E355.9952
G1 X201.285 Y30.863 E356.3106
G1 X201.285 Y43.860 E356.7427
G1 X191.798 Y43.860 E357.0581
G1 X191.798 Y32.074 E357.4499
G0 X191.401 Y32.973 F4800
G1 F600 X191.401 Y30.464 E357.5333
G1 X201.683 Y30.464 E357.8752
G1 X201.683 Y44.260 E358.3338
G1 X191.401 Y44.260 E358.6756
G1 X191.401 Y33.173 E359.0442
G0 X191.003 Y34.073 F4800
G1 F600 X191.003 Y30.064 E359.1775
G1 X202.080 Y30.064 E359.5457
G1 X202.080 Y44.660 E360.0309
G1 X191.003 Y44.660 E360.3992
G1 X191.003 Y34.272 E360.7445
G0 X190.606 Y35.172 F4800
G1 F600 X190.606 Y29.664 E360.9276
G1 X202.477 Y29.664 E361.3222
G1 X202.477 Y45.060 E361.8340
G1 X190.606 Y45.060 E362.2287
G1 X190.606 Y35.372 E362.5508
G0 X189.702 Y37.307 F4800
G1 F600 X189.811 Y37.243 E362.5550
G1 X189.811 Y28.864 E362.8335
G1 X203.272 Y28.864 E363.2810
G1 X203.272 Y37.253 E363.5599
G1 X203.462 Y37.364 E363.5672
G1 X203.272 Y37.474 E363.5744
G1 X203.272 Y45.859 E363.8532
G1 X189.811 Y45.859 E364.3007
G1 X189.811 Y37.470 E364.5795
G1 X189.702 Y37.407 E364.5838
G0 X189.414 Y37.871 F4800
G1 F600 X189.414 Y37.701 E364.5894
G1 X188.824 Y37.358 E364.6121
G1 X189.414 Y37.013 E364.6348
G1 X189.414 Y28.465 E364.9190
G1 X203.670 Y28.465 E365.3929
G1 X203.670 Y37.023 E365.6774
G1 X204.255 Y37.363 E365.6999
G1 X203.670 Y37.705 E365.7224
G1 X203.670 Y46.259 E366.0068
G1 X189.414 Y46.259 E366.4807
G1 X189.414 Y38.071 E366.7529
G0 X189.016 Y38.970 F4800
G1 F600 X189.016 Y37.932 E366.7875
G1 X188.032 Y37.359 E366.8253
G1 X189.016 Y36.783 E366.8632
G1 X189.016 Y28.065 E367.1530
G1 X204.067 Y28.065 E367.6534
G1 X204.067 Y36.792 E367.9435
G1 X205.048 Y37.363 E367.9812
G1 X204.067 Y37.935 E368.0190
G1 X204.067 Y46.659 E368.3090
G1 X189.016 Y46.659 E368.8094
G1 X189.016 Y39.170 E369.0583
G0 X187.824 Y42.268 F4800
G1 F600 X187.824 Y38.623 E369.1795
G1 X185.955 Y37.536 E369.2514
G1 X185.856 Y37.386 E369.2574
G1 X185.954 Y37.189 E369.2647
G1 X187.824 Y36.094 E369.3367
G1 X187.824 Y26.865 E369.6435
G1 X205.259 Y26.865 E370.2231
G1 X205.259 Y36.101 E370.5301
G1 X207.069 Y37.153 E370.5997
G1 X207.225 Y37.342 E370.6079
G1 X207.131 Y37.534 E370.6150
G1 X205.259 Y38.626 E370.6870
G1 X205.259 Y47.858 E370.9939
G1 X187.824 Y47.858 E371.5735
G1 X187.824 Y42.468 E371.7527
G0 X187.030 Y44.466 F4800
G1 F600 X187.030 Y39.085 E371.9316
G1 X185.486 Y38.187 E371.9910
G1 X185.270 Y37.992 E372.0007
G1 X185.122 Y37.755 E372.0099
G1 X185.050 Y37.507 E372.0185
G1 X185.050 Y37.222 E372.0280
G1 X185.119 Y36.976 E372.0365
G1 X185.266 Y36.737 E372.0458
G1 X185.483 Y36.540 E372.0556
G1 X187.030 Y35.634 E372.1152
G1 X187.030 Y26.066 E372.4332
G1 X206.054 Y26.066 E373.0657
G1 X206.054 Y35.639 E373.3839
G1 X207.523 Y36.494 E373.4404
G1 X207.800 Y36.723 E373.4524
G1 X207.950 Y36.953 E373.4615
G1 X208.029 Y37.213 E373.4705
G1 X208.033 Y37.507 E373.4803
G1 X207.964 Y37.748 E373.4887
G1 X207.817 Y37.987 E373.4980
G1 X207.601 Y38.184 E373.5077
G1 X206.054 Y39.087 E373.5673
G1 X206.054 Y48.658 E373.8854
G1 X187.030 Y48.658 E374.5179
G1 X187.030 Y44.666 E374.6506
G0 X186.632 Y45.565 F4800
G1 F600 X186.632 Y39.315 E374.8583
G1 X185.252 Y38.512 E374.9114
G1 X184.963 Y38.253 E374.9243
G1 X184.756 Y37.920 E374.9374
G1 X184.653 Y37.564 E374.9497
G1 X184.652 Y37.167 E374.9629
G1 X184.752 Y36.813 E374.9751
G1 X184.958 Y36.478 E374.9882
G1 X185.247 Y36.215 E375.0012
G1 X186.632 Y35.404 E375.0545
G1 X186.632 Y25.666 E375.3783
G1 X206.451 Y25.666 E376.0371
G1 X206.451 Y35.409 E376.3610
G1 X207.750 Y36.164 E376.4110
G1 X208.099 Y36.453 E376.4260
G1 X208.313 Y36.781 E376.4390
G1 X208.426 Y37.150 E376.4519
G1 X208.431 Y37.561 E376.4655
G1 X208.331 Y37.911 E376.4776
G1 X208.126 Y38.245 E376.4906
G1 X207.837 Y38.508 E376.5036
G1 X206.451 Y39.317 E376.5570
G1 X206.451 Y49.058 E376.8808
G1 X186.632 Y49.058 E377.5396
G1 X186.632 Y45.765 E377.6491
G0 X185.838 Y47.763 F4800
G1 F600 X185.838 Y39.776 E377.9146
G1 X184.808 Y39.177 E377.9542
G1 X184.570 Y38.992 E377.9642
G1 X184.356 Y38.771 E377.9744
G1 X184.174 Y38.521 E377.9847
G1 X184.028 Y38.247 E377.9950
G1 X183.924 Y37.957 E378.0053
G1 X183.862 Y37.661 E378.0154
G1 X183.841 Y37.361 E378.0253
G1 X183.860 Y37.073 E378.0350
G1 X183.920 Y36.779 E378.0449
G1 X184.022 Y36.491 E378.0551
G1 X184.166 Y36.216 E378.0654
G1 X184.346 Y35.965 E378.0757
G1 X184.560 Y35.741 E378.0860
G1 X184.800 Y35.552 E378.0961
G1 X185.838 Y34.945 E378.1361
G1 X185.838 Y24.866 E378.4711
G1 X207.246 Y24.866 E379.1828
G1 X207.246 Y34.948 E379.5179
G1 X208.183 Y35.493 E379.5540
G1 X208.487 Y35.715 E379.5665
G1 X208.697 Y35.924 E379.5763
G1 X208.884 Y36.171 E379.5866
G1 X209.034 Y36.441 E379.5969
G1 X209.144 Y36.729 E379.6071
G1 X209.212 Y37.025 E379.6172
G1 X209.238 Y37.322 E379.6271
G1 X209.221 Y37.662 E379.6385
G1 X209.164 Y37.944 E379.6480
G1 X209.061 Y38.233 E379.6582
G1 X208.918 Y38.507 E379.6685
G1 X208.737 Y38.759 E379.6788
G1 X208.523 Y38.983 E379.6891
G1 X208.284 Y39.172 E379.6993
G1 X207.246 Y39.778 E379.7392
G1 X207.246 Y49.857 E380.0743
G1 X185.838 Y49.857 E380.7860
G1 X185.838 Y47.963 E380.8489
;segType:Support
G0 F4800 E379.849
G0 F4800 X193.204 Y52.088
G0 F4800 E380.849
G1 F900 X195.004 Y52.088 E380.8998
G1 X193.204 Y53.888 E380.9717
G1 X195.004 Y53.888 E381.0226
;segType:Loop
G0 F4800 E380.023
G0 F4800 X187.292 Y124.232
G0 F4800 E381.023
G1 F600 X187.292 Y114.510 E381.3458
G1 X186.614 Y114.114 E381.3719
G1 X186.289 Y113.861 E381.3856
G1 X185.998 Y113.560 E381.3995
G1 X185.749 Y113.218 E381.4136
G1 X185.550 Y112.844 E381.4277
G1 X185.407 Y112.449 E381.4416
G1 X185.322 Y112.042 E381.4555
G1 X185.294 Y111.632 E381.4691
G1 X185.320 Y111.235 E381.4823
G1 X185.402 Y110.834 E381.4960
G1 X185.542 Y110.439 E381.5099
G1 X185.738 Y110.064 E381.5240
G1 X185.985 Y109.720 E381.5380
G1 X186.276 Y109.416 E381.5520
G1 X186.603 Y109.158 E381.5659
G1 X187.292 Y108.755 E381.5924
G1 X187.292 Y98.336 E381.9388
G1 X210.292 Y98.336 E382.7034
G1 X210.292 Y108.756 E383.0498
G1 X210.869 Y109.091 E383.0719
G1 X211.254 Y109.373 E383.0878
G1 X211.547 Y109.665 E383.1015
G1 X211.802 Y110.001 E383.1156
G1 X212.007 Y110.370 E383.1296
G1 X212.157 Y110.764 E383.1436
G1 X212.251 Y111.169 E383.1574
G1 X212.286 Y111.578 E383.1711
G1 X212.264 Y112.034 E383.1863
G1 X212.182 Y112.431 E383.1997
G1 X212.042 Y112.826 E383.2136
G1 X211.847 Y113.200 E383.2277
G1 X211.600 Y113.544 E383.2418
G1 X211.309 Y113.849 E383.2558
G1 X210.981 Y114.107 E383.2696
G1 X210.292 Y114.510 E383.2962
G1 X210.292 Y124.929 E383.6425
G1 X187.292 Y124.929 E384.4071
G1 X187.292 Y124.432 E384.4237
;segType:Perimeter
G0 X187.553 Y124.996 F4800
G1 F360 X186.892 Y125.271 E384.4475
G1 X186.892 Y114.741 E384.7975
G1 X186.390 Y114.449 E384.8168
G1 X186.023 Y114.162 E384.8323
G1 X185.692 Y113.821 E384.8481
G1 X185.409 Y113.433 E384.8640
G1 X185.184 Y113.009 E384.8800
G1 X185.022 Y112.560 E384.8959
G1 X184.925 Y112.097 E384.9115
G1 X184.893 Y111.632 E384.9270
G1 X184.923 Y111.181 E384.9421
G1 X185.016 Y110.725 E384.9575
G1 X185.175 Y110.277 E384.9733
G1 X185.397 Y109.852 E384.9893
G1 X185.677 Y109.462 E385.0053
G1 X186.007 Y109.116 E385.0212
G1 X186.378 Y108.824 E385.0369
G1 X186.892 Y108.523 E385.0567
G1 X186.892 Y97.934 E385.4087
G1 X210.692 Y97.934 E386.1999
G1 X210.692 Y108.524 E386.5520
G1 X211.087 Y108.753 E386.5671
G1 X211.514 Y109.065 E386.5847
G1 X211.848 Y109.398 E386.6004
G1 X212.138 Y109.780 E386.6163
G1 X212.370 Y110.199 E386.6322
G1 X212.541 Y110.645 E386.6481
G1 X212.647 Y111.106 E386.6639
G1 X212.687 Y111.570 E386.6794
G1 X212.661 Y112.085 E386.6965
G1 X212.568 Y112.540 E386.7119
G1 X212.410 Y112.988 E386.7277
G1 X212.188 Y113.413 E386.7437
G1 X211.908 Y113.803 E386.7597
G1 X211.577 Y114.148 E386.7756
G1 X211.206 Y114.441 E386.7913
G1 X210.692 Y114.742 E386.8111
G1 X210.692 Y125.331 E387.1631
G1 X186.952 Y125.331 E387.9523
G1 X187.225 Y124.666
;segType:HShell
G0 X187.691 Y123.133 F4800
G1 F600 X187.691 Y114.278 E388.2467
G1 X186.837 Y113.780 E388.2795
G1 X186.556 Y113.561 E388.2914
G1 X186.303 Y113.301 E388.3034
G1 X186.087 Y113.004 E388.3156
G1 X185.916 Y112.680 E388.3278
G1 X185.791 Y112.338 E388.3399
G1 X185.718 Y111.986 E388.3518
G1 X185.693 Y111.631 E388.3637
G1 X185.716 Y111.290 E388.3750
G1 X185.787 Y110.942 E388.3868
G1 X185.908 Y110.601 E388.3989
G1 X186.078 Y110.276 E388.4111
G1 X186.291 Y109.978 E388.4232
G1 X186.544 Y109.714 E388.4354
G1 X186.828 Y109.491 E388.4474
G1 X187.691 Y108.985 E388.4807
G1 X187.691 Y98.737 E388.8214
G1 X209.894 Y98.737 E389.5595
G1 X209.894 Y108.987 E389.9002
G1 X210.651 Y109.428 E389.9294
G1 X210.996 Y109.679 E389.9435
G1 X211.247 Y109.930 E389.9553
G1 X211.468 Y110.221 E389.9675
G1 X211.645 Y110.541 E389.9796
G1 X211.775 Y110.881 E389.9917
G1 X211.856 Y111.232 E390.0037
G1 X211.887 Y111.585 E390.0155
G1 X211.867 Y111.984 E390.0287
G1 X211.798 Y112.323 E390.0402
G1 X211.676 Y112.664 E390.0523
G1 X211.507 Y112.989 E390.0645
G1 X211.294 Y113.287 E390.0766
G1 X211.041 Y113.551 E390.0888
G1 X210.757 Y113.774 E390.1008
G1 X209.894 Y114.279 E390.1340
G1 X209.894 Y124.528 E390.4747
G1 X187.691 Y124.528 E391.2128
G1 X187.691 Y123.333 E391.2526
G0 X188.088 Y122.034 F4800
G1 F600 X188.088 Y114.048 E391.5180
G1 X187.059 Y113.448 E391.5577
G1 X186.821 Y113.262 E391.5677
G1 X186.607 Y113.042 E391.5779
G1 X186.425 Y112.791 E391.5882
G1 X186.279 Y112.517 E391.5985
G1 X186.174 Y112.228 E391.6087
G1 X186.112 Y111.931 E391.6188
G1 X186.091 Y111.631 E391.6288
G1 X186.111 Y111.344 E391.6384
G1 X186.171 Y111.050 E391.6484
G1 X186.273 Y110.762 E391.6586
G1 X186.417 Y110.486 E391.6689
G1 X186.597 Y110.235 E391.6792
G1 X186.811 Y110.012 E391.6894
G1 X187.051 Y109.822 E391.6996
G1 X188.088 Y109.215 E391.7395
G1 X188.088 Y99.137 E392.0746
G1 X209.496 Y99.137 E392.7862
G1 X209.496 Y109.218 E393.1214
G1 X210.435 Y109.764 E393.1575
G1 X210.737 Y109.985 E393.1699
G1 X210.948 Y110.194 E393.1798
G1 X211.135 Y110.441 E393.1900
G1 X211.284 Y110.711 E393.2003
G1 X211.395 Y110.999 E393.2106
G1 X211.463 Y111.295 E393.2207
G1 X211.489 Y111.593 E393.2306
G1 X211.472 Y111.933 E393.2419
G1 X211.414 Y112.214 E393.2514
