; GCode generated by CraftWare
G28 X0 Y0
G28 Z0

M190 S60 ;set and wait bed temperature
M109 S220 ;set and wait head temperature
; ------------------------------------
; Layer #0
; ------------------------------------
G21 ; mm
G90 ; abs
G92 E0 ; reset extr
M106 S0
;segType:Skirt
G0 F4800 E-1.000
G0 F2400 Z0.200
G0 F4800 X55.994 Y157.992
G0 F4800 E0.000
G1 F600 X65.404 Y157.992 E0.3128
G1 X65.861 Y158.057 E0.3282
G1 X66.907 Y159.096 E0.3772
G1 X67.887 Y159.680 E0.4151
G1 X68.475 Y159.875 E0.4357
G1 X68.867 Y160.525 E0.4609
G1 X72.527 Y164.161 E0.6325
G1 X72.853 Y164.356 E0.6451
G1 X73.115 Y164.616 E0.6573
G1 X73.507 Y164.746 E0.6711
G1 X74.029 Y165.005 E0.6905
G1 X74.291 Y165.135 E0.7002
G1 X74.683 Y165.135 E0.7132
G1 X74.814 Y165.265 E0.7193
G1 X78.473 Y165.265 E0.8410
G1 X78.865 Y165.135 E0.8547
G1 X79.127 Y165.135 E0.8634
G1 X79.257 Y165.005 E0.8695
G1 X79.519 Y165.005 E0.8782
G1 X79.649 Y164.876 E0.8843
G1 X79.911 Y164.876 E0.8930
G1 X80.564 Y164.486 E0.9183
G1 X81.087 Y163.966 E0.9428
G1 X81.413 Y163.772 E0.9555
G1 X84.289 Y160.914 E1.0902
G1 X84.681 Y160.265 E1.1154
G1 X84.942 Y160.005 E1.1277
G1 X86.576 Y159.031 E1.1909
G1 X86.837 Y158.771 E1.2032
G1 X87.164 Y158.577 E1.2158
G1 X87.687 Y158.057 E1.2403
G1 X88.144 Y157.992 E1.2557
G1 X91.804 Y157.992 E1.3773
G1 X92.131 Y158.187 E1.3900
G1 X92.654 Y158.706 E1.4145
G1 X92.980 Y158.901 E1.4271
G1 X93.241 Y159.161 E1.4394
G1 X93.895 Y159.550 E1.4647
G1 X94.287 Y159.680 E1.4784
G1 X94.614 Y159.875 E1.4911
G1 X94.810 Y160.200 E1.5037
G1 X95.071 Y160.460 E1.5159
G1 X95.267 Y160.785 E1.5285
G1 X98.665 Y164.161 E1.6878
G1 X99.319 Y164.551 E1.7131
G1 X99.776 Y164.876 E1.7317
G1 X100.038 Y164.876 E1.7404
G1 X100.168 Y165.005 E1.7465
G1 X100.430 Y165.005 E1.7552
G1 X100.560 Y165.135 E1.7613
G1 X100.822 Y165.135 E1.7700
G1 X100.952 Y165.265 E1.7762
G1 X104.873 Y165.265 E1.9065
G1 X105.004 Y165.135 E1.9126
G1 X105.461 Y165.071 E1.9280
G1 X105.853 Y164.941 E1.9417
G1 X106.180 Y164.746 E1.9544
G1 X106.572 Y164.616 E1.9681
G1 X106.834 Y164.356 E1.9803
G1 X107.160 Y164.161 E1.9930
G1 X110.819 Y160.525 E2.1645
G1 X111.212 Y159.875 E2.1897
G1 X111.539 Y159.680 E2.2024
G1 X111.931 Y159.550 E2.2161
G1 X112.584 Y159.161 E2.2414
G1 X112.845 Y158.901 E2.2536
G1 X113.172 Y158.706 E2.2663
G1 X113.695 Y158.187 E2.2908
G1 X114.022 Y157.992 E2.3034
G1 X123.693 Y157.992 E2.6249
G1 X124.869 Y156.823 E2.6801
G1 X125.196 Y157.018 E2.6927
G1 X125.980 Y157.797 E2.7295
G1 X126.307 Y157.992 E2.7421
G1 X135.978 Y157.992 E3.0636
G1 X137.024 Y159.031 E3.1126
G1 X138.331 Y159.810 E3.1632
G1 X138.592 Y159.810 E3.1719
G1 X138.788 Y160.135 E3.1845
G1 X139.050 Y160.395 E3.1968
G1 X139.246 Y160.719 E3.2094
G1 X142.905 Y164.356 E3.3809
G1 X143.559 Y164.746 E3.4062
G1 X143.951 Y164.876 E3.4199
G1 X144.081 Y165.005 E3.4260
G1 X144.539 Y165.071 E3.4414
G1 X144.931 Y165.200 E3.4551
G1 X145.388 Y165.265 E3.4705
G1 X148.786 Y165.265 E3.5834
G1 X148.917 Y165.135 E3.5896
G1 X149.440 Y165.135 E3.6069
G1 X149.570 Y165.005 E3.6131
G1 X149.832 Y165.005 E3.6218
G1 X151.139 Y164.226 E3.6723
G1 X154.537 Y160.849 E3.8316
G1 X154.733 Y160.525 E3.8442
G1 X154.994 Y160.265 E3.8564
G1 X155.190 Y159.940 E3.8691
G1 X155.844 Y159.550 E3.8944
G1 X156.236 Y159.420 E3.9081
G1 X156.497 Y159.161 E3.9203
G1 X157.151 Y158.771 E3.9456
G1 X157.935 Y157.992 E3.9824
G1 X162.117 Y157.992 E4.1214
G1 X162.901 Y158.771 E4.1582
G1 X163.555 Y159.161 E4.1835
G1 X163.816 Y159.420 E4.1957
G1 X164.208 Y159.550 E4.2094
G1 X164.862 Y159.940 E4.2347
G1 X165.058 Y160.265 E4.2474
G1 X165.581 Y160.785 E4.2719
G1 X165.776 Y161.109 E4.2845
G1 X168.652 Y163.966 E4.4192
G1 X168.979 Y164.161 E4.4319
G1 X169.240 Y164.421 E4.4441
G1 X169.567 Y164.616 E4.4568
G1 X169.959 Y164.746 E4.4705
G1 X170.286 Y164.941 E4.4831
G1 X171.070 Y165.200 E4.5106
G1 X171.527 Y165.265 E4.5259
G1 X174.664 Y165.265 E4.6302
G1 X175.578 Y165.135 E4.6609
G1 X175.709 Y165.005 E4.6671
G1 X175.971 Y165.005 E4.6758
G1 X177.277 Y164.226 E4.7263
G1 X180.937 Y160.589 E4.8978
G1 X181.133 Y160.265 E4.9104
G1 X181.394 Y160.005 E4.9227
G1 X181.460 Y159.810 E4.9295
G1 X181.721 Y159.810 E4.9382
G1 X183.028 Y159.031 E4.9888
G1 X184.074 Y157.992 E5.0378
G1 X193.483 Y157.992 E5.3506
G1 X193.941 Y157.927 E5.3660
G1 X196.816 Y155.070 E5.5007
G1 X196.816 Y138.445 E6.0534
G1 X196.816 Y121.820 E6.6061
G1 X196.816 Y113.767 E6.8738
G1 X193.941 Y110.910 E7.0085
G1 X193.483 Y110.845 E7.0239
G1 X184.596 Y110.845 E7.3193
G1 X184.139 Y110.780 E7.3347
G1 X183.354 Y110.001 E7.3714
G1 X183.028 Y109.806 E7.3841
G1 X182.767 Y109.547 E7.3963
G1 X182.375 Y109.417 E7.4101
G1 X182.113 Y109.157 E7.4223
G1 X181.721 Y109.027 E7.4360
G1 X181.394 Y108.832 E7.4487
G1 X181.198 Y108.507 E7.4613
G1 X180.937 Y108.248 E7.4735
G1 X180.741 Y107.923 E7.4862
G1 X177.604 Y104.806 E7.6332
G1 X177.277 Y104.611 E7.6458
G1 X177.016 Y104.351 E7.6581
G1 X176.363 Y103.962 E7.6833
G1 X175.186 Y103.572 E7.7245
G1 X174.664 Y103.572 E7.7419
G1 X174.533 Y103.442 E7.7480
G1 X171.658 Y103.442 E7.8436
G1 X171.527 Y103.572 E7.8498
G1 X171.004 Y103.572 E7.8671
G1 X170.873 Y103.702 E7.8733
G1 X170.416 Y103.767 E7.8886
G1 X170.089 Y103.962 E7.9013
G1 X169.697 Y104.092 E7.9150
G1 X169.371 Y104.286 E7.9276
G1 X169.109 Y104.546 E7.9399
G1 X168.782 Y104.741 E7.9525
G1 X165.384 Y108.118 E8.1118
G1 X164.992 Y108.767 E8.1370
G1 X164.392 Y109.125 E8.1602
G0 F4800 E7.160
G0 F4800 X157.508 Y134.443
G0 X152.000 Y154.698
G0 X151.312 Y157.230
G0 F4800 E8.160
;segType:Loop
G1 F600 X151.240 Y157.540 E8.1708
G1 X151.105 Y157.944 E8.1850
G1 X150.926 Y158.342 E8.1995
G1 X150.706 Y158.725 E8.2142
G1 X150.445 Y159.088 E8.2290
G1 X150.148 Y159.425 E8.2440
G1 X149.818 Y159.730 E8.2589
G1 X149.459 Y159.998 E8.2738
G1 X149.080 Y160.226 E8.2885
G1 X148.676 Y160.416 E8.3034
G1 X148.262 Y160.563 E8.3180
G1 X147.846 Y160.665 E8.3322
G1 X147.435 Y160.725 E8.3460
G1 X147.004 Y160.746 E8.3604
G1 X146.643 Y160.731 E8.3724
G1 X146.216 Y160.674 E8.3867
G1 X145.812 Y160.581 E8.4005
G1 X145.409 Y160.446 E8.4146
G1 X145.012 Y160.268 E8.4291
G1 X144.629 Y160.048 E8.4438
G1 X144.266 Y159.788 E8.4586
G1 X143.930 Y159.490 E8.4735
G1 X143.625 Y159.159 E8.4885
G1 X143.356 Y158.801 E8.5034
G1 X143.128 Y158.422 E8.5181
G1 X142.937 Y158.017 E8.5330
G1 X142.791 Y157.605 E8.5475
G1 X142.681 Y157.131 E8.5637
G1 X142.623 Y156.681 E8.5787
G1 X142.579 Y155.771 E8.6090
G1 X141.510 Y155.725 E8.6446
G1 X141.010 Y155.659 E8.6614
G1 X140.511 Y155.548 E8.6783
G1 X140.020 Y155.392 E8.6955
G1 X139.544 Y155.192 E8.7127
G1 X139.087 Y154.949 E8.7299
G1 X138.655 Y154.667 E8.7470
G1 X138.250 Y154.349 E8.7641
G1 X137.880 Y153.999 E8.7811
G1 X137.345 Y153.397 E8.8078
G1 X127.806 Y153.397 E9.1249
G1 X127.806 Y115.289 E10.3918
G1 X137.345 Y115.289 E10.7089
G1 X137.872 Y114.696 E10.7352
G1 X138.238 Y114.348 E10.7520
G1 X138.639 Y114.030 E10.7690
G1 X139.069 Y113.747 E10.7862
G1 X139.525 Y113.503 E10.8033
G1 X140.001 Y113.301 E10.8206
G1 X140.492 Y113.143 E10.8377
G1 X140.994 Y113.030 E10.8548
G1 X141.499 Y112.962 E10.8717
G1 X142.583 Y112.915 E10.9078
G1 X142.622 Y111.979 E10.9389
G1 X142.679 Y111.551 E10.9533
G1 X142.773 Y111.146 E10.9671
G1 X142.908 Y110.742 E10.9813
G1 X143.086 Y110.345 E10.9957
G1 X143.307 Y109.961 E11.0104
G1 X143.567 Y109.598 E11.0253
G1 X143.865 Y109.261 E11.0402
G1 X144.195 Y108.956 E11.0552
G1 X144.553 Y108.688 E11.0701
G1 X144.933 Y108.460 E11.0848
G1 X145.336 Y108.270 E11.0996
G1 X145.751 Y108.123 E11.1142
G1 X146.167 Y108.021 E11.1285
G1 X146.578 Y107.961 E11.1423
G1 X147.009 Y107.940 E11.1566
G1 X147.370 Y107.955 E11.1686
G1 X147.796 Y108.012 E11.1829
G1 X148.200 Y108.105 E11.1967
G1 X148.604 Y108.241 E11.2109
G1 X149.000 Y108.418 E11.2253
G1 X149.383 Y108.638 E11.2400
G1 X149.746 Y108.899 E11.2549
G1 X150.083 Y109.196 E11.2698
G1 X150.388 Y109.527 E11.2847
G1 X150.656 Y109.885 E11.2996
G1 X150.884 Y110.265 E11.3143
G1 X151.075 Y110.670 E11.3292
G1 X151.221 Y111.081 E11.3437
G1 X151.333 Y111.561 E11.3601
G1 X151.385 Y111.914 E11.3720
G1 X151.434 Y112.915 E11.4053
G1 X152.502 Y112.962 E11.4409
G1 X153.003 Y113.027 E11.4576
G1 X153.501 Y113.138 E11.4746
G1 X153.992 Y113.294 E11.4917
G1 X154.469 Y113.494 E11.5089
G1 X154.926 Y113.737 E11.5261
G1 X155.358 Y114.018 E11.5433
G1 X155.763 Y114.338 E11.5604
G1 X156.133 Y114.687 E11.5773
G1 X156.667 Y115.289 E11.6041
G1 X163.545 Y115.289 E11.8328
G1 X164.072 Y114.696 E11.8591
G1 X164.438 Y114.348 E11.8759
G1 X164.839 Y114.030 E11.8929
G1 X165.269 Y113.747 E11.9100
G1 X165.725 Y113.503 E11.9272
G1 X166.201 Y113.301 E11.9444
G1 X166.692 Y113.143 E11.9616
G1 X167.194 Y113.030 E11.9787
G1 X167.699 Y112.962 E11.9956
G1 X168.783 Y112.915 E12.0317
G1 X168.822 Y111.979 E12.0628
G1 X168.879 Y111.551 E12.0772
G1 X168.973 Y111.146 E12.0910
G1 X169.108 Y110.742 E12.1052
G1 X169.286 Y110.345 E12.1196
G1 X169.507 Y109.961 E12.1343
G1 X169.767 Y109.598 E12.1492
G1 X170.065 Y109.261 E12.1641
G1 X170.395 Y108.956 E12.1791
G1 X170.753 Y108.688 E12.1940
G1 X171.133 Y108.460 E12.2087
G1 X171.536 Y108.270 E12.2235
G1 X171.951 Y108.123 E12.2381
G1 X172.367 Y108.021 E12.2524
G1 X172.778 Y107.961 E12.2662
G1 X173.209 Y107.940 E12.2805
G1 X173.570 Y107.955 E12.2925
G1 X173.996 Y108.012 E12.3068
G1 X174.400 Y108.105 E12.3206
G1 X174.804 Y108.241 E12.3348
G1 X175.200 Y108.418 E12.3492
G1 X175.583 Y108.638 E12.3639
G1 X175.946 Y108.899 E12.3787
G1 X176.283 Y109.196 E12.3937
G1 X176.588 Y109.527 E12.4086
G1 X176.856 Y109.885 E12.4235
G1 X177.085 Y110.265 E12.4382
G1 X177.275 Y110.670 E12.4531
G1 X177.421 Y111.082 E12.4676
G1 X177.533 Y111.561 E12.4840
G1 X177.584 Y111.914 E12.4959
G1 X177.634 Y112.915 E12.5292
G1 X178.702 Y112.962 E12.5647
G1 X179.203 Y113.027 E12.5815
G1 X179.701 Y113.138 E12.5985
G1 X180.192 Y113.294 E12.6156
G1 X180.669 Y113.494 E12.6328
G1 X181.126 Y113.737 E12.6500
G1 X181.558 Y114.018 E12.6671
G1 X181.963 Y114.338 E12.6843
G1 X182.333 Y114.687 E12.7012
G1 X182.867 Y115.289 E12.7280
G1 X192.406 Y115.289 E13.0451
G1 X192.406 Y153.397 E14.3119
G1 X182.867 Y153.397 E14.6290
G1 X182.341 Y153.991 E14.6554
G1 X181.974 Y154.338 E14.6722
G1 X181.574 Y154.656 E14.6892
G1 X181.143 Y154.939 E14.7063
G1 X180.687 Y155.183 E14.7235
G1 X180.211 Y155.385 E14.7407
G1 X179.721 Y155.543 E14.7579
G1 X179.218 Y155.656 E14.7750
G1 X178.713 Y155.724 E14.7919
G1 X177.630 Y155.772 E14.8280
G1 X177.591 Y156.708 E14.8591
G1 X177.534 Y157.135 E14.8734
G1 X177.440 Y157.540 E14.8873
G1 X177.305 Y157.944 E14.9014
G1 X177.126 Y158.342 E14.9159
G1 X176.906 Y158.725 E14.9306
G1 X176.645 Y159.088 E14.9455
G1 X176.348 Y159.425 E14.9604
G1 X176.018 Y159.730 E14.9754
G1 X175.659 Y159.998 E14.9902
G1 X175.280 Y160.226 E15.0049
G1 X174.876 Y160.416 E15.0198
G1 X174.462 Y160.563 E15.0344
G1 X174.046 Y160.665 E15.0486
G1 X173.635 Y160.725 E15.0624
G1 X173.204 Y160.746 E15.0768
G1 X172.843 Y160.731 E15.0888
G1 X172.416 Y160.674 E15.1031
G1 X172.012 Y160.581 E15.1169
G1 X171.609 Y160.446 E15.1310
G1 X171.212 Y160.268 E15.1455
G1 X170.829 Y160.048 E15.1602
G1 X170.466 Y159.788 E15.1750
G1 X170.130 Y159.490 E15.1900
G1 X169.825 Y159.159 E15.2049
G1 X169.556 Y158.801 E15.2198
G1 X169.328 Y158.422 E15.2345
G1 X169.137 Y158.017 E15.2494
G1 X168.991 Y157.605 E15.2639
G1 X168.881 Y157.131 E15.2801
G1 X168.823 Y156.681 E15.2952
G1 X168.779 Y155.771 E15.3255
G1 X167.710 Y155.725 E15.3610
G1 X167.210 Y155.659 E15.3778
G1 X166.711 Y155.548 E15.3948
G1 X166.220 Y155.392 E15.4119
G1 X165.744 Y155.192 E15.4291
G1 X165.287 Y154.949 E15.4463
G1 X164.855 Y154.667 E15.4634
G1 X164.450 Y154.349 E15.4806
G1 X164.080 Y153.999 E15.4975
G1 X163.545 Y153.397 E15.5243
G1 X156.667 Y153.397 E15.7529
G1 X156.141 Y153.991 E15.7793
G1 X155.774 Y154.338 E15.7961
G1 X155.374 Y154.656 E15.8131
G1 X154.943 Y154.939 E15.8302
G1 X154.487 Y155.183 E15.8474
G1 X154.011 Y155.385 E15.8646
G1 X153.521 Y155.543 E15.8817
G1 X153.018 Y155.656 E15.8989
G1 X152.513 Y155.724 E15.9158
G1 X151.430 Y155.772 E15.9518
G1 X151.391 Y156.708 E15.9830
G1 X151.391 Y156.708 E15.9830
;segType:Perimeter
G0 X152.067 Y155.556 F4800
G1 F360 X151.812 Y156.211 E16.0063
G1 X151.790 Y156.742 E16.0240
G1 X151.728 Y157.206 E16.0396
G1 X151.626 Y157.648 E16.0546
G1 X151.478 Y158.088 E16.0701
G1 X151.283 Y158.521 E16.0859
G1 X151.044 Y158.940 E16.1019
G1 X150.759 Y159.336 E16.1181
G1 X150.435 Y159.703 E16.1344
G1 X150.075 Y160.035 E16.1507
G1 X149.684 Y160.328 E16.1669
G1 X149.270 Y160.577 E16.1830
G1 X148.829 Y160.784 E16.1992
G1 X148.377 Y160.944 E16.2151
G1 X147.923 Y161.056 E16.2307
G1 X147.474 Y161.121 E16.2457
G1 X147.006 Y161.144 E16.2613
G1 X146.608 Y161.128 E16.2746
G1 X146.144 Y161.066 E16.2901
G1 X145.703 Y160.964 E16.3052
G1 X145.262 Y160.816 E16.3206
G1 X144.829 Y160.622 E16.3364
G1 X144.411 Y160.382 E16.3524
G1 X144.015 Y160.098 E16.3686
G1 X143.648 Y159.773 E16.3849
G1 X143.316 Y159.413 E16.4012
G1 X143.023 Y159.022 E16.4174
G1 X142.774 Y158.608 E16.4335
G1 X142.567 Y158.167 E16.4497
G1 X142.407 Y157.716 E16.4656
G1 X142.286 Y157.201 E16.4832
G1 X142.225 Y156.715 E16.4995
G1 X142.197 Y156.152 E16.5182
G1 X141.475 Y156.121 E16.5422
G1 X140.940 Y156.051 E16.5602
G1 X140.406 Y155.932 E16.5783
G1 X139.881 Y155.765 E16.5967
G1 X139.371 Y155.551 E16.6151
G1 X138.882 Y155.291 E16.6335
G1 X138.420 Y154.990 E16.6518
G1 X137.987 Y154.649 E16.6701
G1 X137.591 Y154.275 E16.6882
G1 X137.165 Y153.794 E16.7096
G1 X127.406 Y153.794 E17.0340
G1 X127.406 Y114.892 E18.3272
G1 X137.165 Y114.892 E18.6516
G1 X137.583 Y114.420 E18.6726
G1 X137.975 Y114.048 E18.6906
G1 X138.403 Y113.708 E18.7087
G1 X138.864 Y113.406 E18.7271
G1 X139.351 Y113.145 E18.7454
G1 X139.861 Y112.928 E18.7638
G1 X140.386 Y112.759 E18.7822
G1 X140.923 Y112.638 E18.8005
G1 X141.464 Y112.566 E18.8186
G1 X142.198 Y112.534 E18.8431
G1 X142.223 Y111.944 E18.8627
G1 X142.285 Y111.481 E18.8782
G1 X142.387 Y111.039 E18.8933
G1 X142.535 Y110.598 E18.9088
G1 X142.729 Y110.165 E18.9245
G1 X142.969 Y109.747 E18.9406
G1 X143.253 Y109.350 E18.9568
G1 X143.578 Y108.983 E18.9731
G1 X143.938 Y108.651 E18.9894
G1 X144.329 Y108.359 E19.0056
G1 X144.743 Y108.109 E19.0217
G1 X145.183 Y107.902 E19.0378
G1 X145.636 Y107.742 E19.0538
G1 X146.090 Y107.631 E19.0693
G1 X146.539 Y107.565 E19.0844
G1 X147.007 Y107.542 E19.1000
G1 X147.405 Y107.558 E19.1132
G1 X147.868 Y107.620 E19.1288
G1 X148.310 Y107.722 E19.1438
G1 X148.750 Y107.870 E19.1593
G1 X149.183 Y108.064 E19.1751
G1 X149.601 Y108.304 E19.1911
G1 X149.997 Y108.588 E19.2073
G1 X150.364 Y108.913 E19.2236
G1 X150.696 Y109.273 E19.2399
G1 X150.989 Y109.664 E19.2561
G1 X151.238 Y110.078 E19.2722
G1 X151.446 Y110.519 E19.2884
G1 X151.606 Y110.970 E19.3043
G1 X151.726 Y111.487 E19.3219
G1 X151.783 Y111.875 E19.3350
G1 X151.815 Y112.534 E19.3569
G1 X152.537 Y112.565 E19.3809
G1 X153.073 Y112.635 E19.3989
G1 X153.606 Y112.754 E19.4170
G1 X154.131 Y112.921 E19.4353
G1 X154.641 Y113.135 E19.4537
G1 X155.130 Y113.395 E19.4721
G1 X155.592 Y113.696 E19.4905
G1 X156.025 Y114.037 E19.5088
G1 X156.421 Y114.411 E19.5269
G1 X156.848 Y114.892 E19.5483
G1 X163.365 Y114.892 E19.7649
G1 X163.783 Y114.420 E19.7859
G1 X164.175 Y114.048 E19.8038
G1 X164.603 Y113.708 E19.8220
G1 X165.064 Y113.406 E19.8403
G1 X165.551 Y113.145 E19.8587
G1 X166.061 Y112.928 E19.8771
G1 X166.586 Y112.759 E19.8954
G1 X167.123 Y112.638 E19.9138
G1 X167.664 Y112.566 E19.9319
G1 X168.398 Y112.534 E19.9563
G1 X168.423 Y111.944 E19.9760
G1 X168.485 Y111.481 E19.9915
G1 X168.587 Y111.039 E20.0066
G1 X168.735 Y110.598 E20.0220
G1 X168.929 Y110.165 E20.0378
G1 X169.169 Y109.747 E20.0538
G1 X169.453 Y109.350 E20.0700
G1 X169.778 Y108.983 E20.0863
G1 X170.138 Y108.651 E20.1026
G1 X170.529 Y108.359 E20.1189
G1 X170.943 Y108.109 E20.1349
G1 X171.383 Y107.902 E20.1511
G1 X171.836 Y107.742 E20.1671
G1 X172.290 Y107.631 E20.1826
G1 X172.739 Y107.565 E20.1977
G1 X173.207 Y107.542 E20.2133
G1 X173.605 Y107.558 E20.2265
G1 X174.068 Y107.620 E20.2421
G1 X174.510 Y107.722 E20.2571
G1 X174.950 Y107.870 E20.2726
G1 X175.383 Y108.064 E20.2883
G1 X175.801 Y108.304 E20.3044
G1 X176.197 Y108.588 E20.3206
G1 X176.564 Y108.913 E20.3368
G1 X176.897 Y109.273 E20.3532
G1 X177.189 Y109.664 E20.3694
G1 X177.438 Y110.078 E20.3854
G1 X177.646 Y110.519 E20.4016
G1 X177.806 Y110.970 E20.4176
G1 X177.927 Y111.487 E20.4352
G1 X177.983 Y111.875 E20.4482
G1 X178.015 Y112.534 E20.4702
G1 X178.737 Y112.565 E20.4942
G1 X179.273 Y112.635 E20.5121
G1 X179.806 Y112.754 E20.5303
G1 X180.331 Y112.921 E20.5486
G1 X180.841 Y113.135 E20.5670
G1 X181.330 Y113.395 E20.5854
G1 X181.792 Y113.696 E20.6037
G1 X182.225 Y114.037 E20.6221
G1 X182.621 Y114.411 E20.6402
G1 X183.048 Y114.892 E20.6615
G1 X192.806 Y114.892 E20.9860
G1 X192.806 Y153.794 E22.2792
G1 X183.048 Y153.794 E22.6036
G1 X182.630 Y154.266 E22.6246
G1 X182.238 Y154.638 E22.6425
G1 X181.810 Y154.978 E22.6607
G1 X181.349 Y155.280 E22.6790
G1 X180.861 Y155.541 E22.6974
G1 X180.352 Y155.758 E22.7158
G1 X179.827 Y155.927 E22.7342
G1 X179.289 Y156.048 E22.7525
G1 X178.749 Y156.120 E22.7706
G1 X178.014 Y156.153 E22.7950
G1 X177.990 Y156.742 E22.8147
G1 X177.928 Y157.206 E22.8302
G1 X177.826 Y157.648 E22.8453
G1 X177.678 Y158.088 E22.8607
G1 X177.483 Y158.521 E22.8765
G1 X177.244 Y158.940 E22.8925
G1 X176.959 Y159.336 E22.9087
G1 X176.635 Y159.703 E22.9250
G1 X176.275 Y160.035 E22.9413
G1 X175.884 Y160.328 E22.9576
G1 X175.470 Y160.577 E22.9736
G1 X175.029 Y160.784 E22.9898
G1 X174.577 Y160.944 E23.0057
G1 X174.123 Y161.056 E23.0213
G1 X173.674 Y161.121 E23.0364
G1 X173.206 Y161.144 E23.0520
G1 X172.808 Y161.128 E23.0652
G1 X172.344 Y161.066 E23.0808
G1 X171.903 Y160.964 E23.0958
G1 X171.462 Y160.816 E23.1113
G1 X171.029 Y160.622 E23.1270
G1 X170.611 Y160.382 E23.1431
G1 X170.215 Y160.098 E23.1592
G1 X169.848 Y159.773 E23.1755
G1 X169.516 Y159.413 E23.1918
G1 X169.223 Y159.022 E23.2081
G1 X168.974 Y158.608 E23.2241
G1 X168.767 Y158.167 E23.2403
G1 X168.607 Y157.716 E23.2562
G1 X168.486 Y157.201 E23.2738
G1 X168.425 Y156.715 E23.2901
G1 X168.397 Y156.152 E23.3088
G1 X167.675 Y156.121 E23.3329
G1 X167.140 Y156.051 E23.3508
G1 X166.606 Y155.932 E23.3690
G1 X166.081 Y155.765 E23.3873
G1 X165.571 Y155.551 E23.4057
G1 X165.082 Y155.291 E23.4241
G1 X164.620 Y154.990 E23.4424
G1 X164.187 Y154.649 E23.4608
G1 X163.791 Y154.275 E23.4789
G1 X163.365 Y153.794 E23.5002
G1 X156.848 Y153.794 E23.7169
G1 X156.430 Y154.266 E23.7378
G1 X156.038 Y154.638 E23.7558
G1 X155.610 Y154.978 E23.7740
G1 X155.149 Y155.280 E23.7923
G1 X154.661 Y155.541 E23.8107
G1 X154.152 Y155.758 E23.8291
G1 X153.627 Y155.927 E23.8474
G1 X153.089 Y156.048 E23.8657
G1 X152.549 Y156.120 E23.8838
G1 X151.873 Y156.150 E23.9063
G1 X151.215 Y156.406
G0 F4800 E22.906
G0 F4800 X148.309 Y158.737
G0 X146.174 Y160.350
G0 F4800 E23.906
;segType:Loop
G1 F600 X145.837 Y160.270 E23.9179
G1 X145.491 Y160.149 E23.9300
G1 X145.029 Y159.931 E23.9470
G1 X144.717 Y159.742 E23.9591
G1 X144.421 Y159.522 E23.9714
G1 X144.042 Y159.173 E23.9885
G1 X143.798 Y158.895 E24.0008
G1 X143.585 Y158.600 E24.0129
G1 X143.353 Y158.204 E24.0282
G1 X143.205 Y157.877 E24.0401
G1 X143.058 Y157.452 E24.0551
G1 X142.956 Y156.968 E24.0715
G1 X142.905 Y156.351 E24.0921
G1 X142.932 Y155.884 E24.1076
G1 X143.059 Y155.233 E24.1297
G1 X143.211 Y154.790 E24.1453
G1 X143.389 Y154.413 E24.1591
G1 X143.575 Y154.101 E24.1712
G1 X143.850 Y153.727 E24.1866
G1 X144.135 Y153.418 E24.2006
G1 X144.410 Y153.173 E24.2128
G1 X144.784 Y152.900 E24.2282
G1 X145.100 Y152.716 E24.2404
G1 X145.511 Y152.528 E24.2554
G1 X145.845 Y152.415 E24.2671
G1 X146.278 Y152.311 E24.2819
G1 X146.954 Y152.246 E24.3045
G1 X147.464 Y152.272 E24.3215
G1 X148.119 Y152.400 E24.3437
G1 X148.563 Y152.553 E24.3593
G1 X148.941 Y152.731 E24.3732
G1 X149.253 Y152.917 E24.3852
G1 X149.628 Y153.192 E24.4007
G1 X149.936 Y153.477 E24.4147
G1 X150.181 Y153.752 E24.4269
G1 X150.455 Y154.126 E24.4423
G1 X150.637 Y154.441 E24.4544
G1 X150.826 Y154.851 E24.4694
G1 X150.939 Y155.184 E24.4811
G1 X151.043 Y155.616 E24.4959
G1 X151.107 Y156.289 E24.5183
G1 X151.088 Y156.738 E24.5333
G1 X151.040 Y157.078 E24.5447
G1 X150.937 Y157.509 E24.5594
G1 X150.817 Y157.854 E24.5716
G1 X150.599 Y158.316 E24.5886
G1 X150.410 Y158.628 E24.6007
G1 X150.191 Y158.923 E24.6129
G1 X149.841 Y159.302 E24.6301
G1 X149.563 Y159.546 E24.6423
G1 X149.267 Y159.760 E24.6545
G1 X148.868 Y159.994 E24.6699
G1 X148.440 Y160.181 E24.6854
G1 X147.801 Y160.362 E24.7075
G1 X147.295 Y160.430 E24.7245
G1 X146.619 Y160.422 E24.7469
G1 X146.619 Y160.422 E24.7469
;segType:Perimeter
G0 X147.757 Y160.477 F4800
G1 F360 X147.212 Y160.032 E24.7704
G1 X146.650 Y160.025 E24.7890
G1 X146.344 Y159.982 E24.7993
G1 X145.950 Y159.888 E24.8128
G1 X145.644 Y159.781 E24.8235
G1 X145.219 Y159.581 E24.8391
G1 X144.941 Y159.413 E24.8500
G1 X144.678 Y159.217 E24.8609
G1 X144.330 Y158.896 E24.8766
G1 X144.112 Y158.648 E24.8876
G1 X143.921 Y158.383 E24.8984
G1 X143.709 Y158.022 E24.9124
G1 X143.577 Y157.731 E24.9230
G1 X143.445 Y157.347 E24.9365
G1 X143.353 Y156.910 E24.9513
G1 X143.306 Y156.346 E24.9701
G1 X143.329 Y155.934 E24.9839
G1 X143.446 Y155.336 E25.0041
G1 X143.583 Y154.939 E25.0181
G1 X143.743 Y154.599 E25.0306
G1 X143.909 Y154.320 E25.0413
G1 X144.160 Y153.979 E25.0554
G1 X144.416 Y153.701 E25.0680
G1 X144.662 Y153.482 E25.0789
G1 X145.004 Y153.232 E25.0930
G1 X145.285 Y153.069 E25.1038
G1 X145.660 Y152.898 E25.1175
G1 X145.957 Y152.797 E25.1279
G1 X146.344 Y152.703 E25.1412
G1 X146.963 Y152.645 E25.1619
G1 X147.415 Y152.667 E25.1769
G1 X148.014 Y152.785 E25.1972
G1 X148.412 Y152.921 E25.2112
G1 X148.752 Y153.082 E25.2237
G1 X149.030 Y153.248 E25.2344
G1 X149.372 Y153.499 E25.2485
G1 X149.650 Y153.755 E25.2611
G1 X149.869 Y154.001 E25.2721
G1 X150.118 Y154.342 E25.2861
G1 X150.281 Y154.623 E25.2969
G1 X150.453 Y154.998 E25.3106
G1 X150.554 Y155.294 E25.3210
G1 X150.647 Y155.682 E25.3343
G1 X150.706 Y156.299 E25.3549
G1 X150.689 Y156.702 E25.3683
G1 X150.646 Y157.005 E25.3784
G1 X150.553 Y157.398 E25.3919
G1 X150.446 Y157.704 E25.4027
G1 X150.246 Y158.128 E25.4183
G1 X150.077 Y158.407 E25.4291
G1 X149.882 Y158.670 E25.4400
G1 X149.561 Y159.018 E25.4557
G1 X149.313 Y159.236 E25.4667
G1 X149.048 Y159.427 E25.4776
G1 X148.685 Y159.639 E25.4915
G1 X148.304 Y159.807 E25.5054
G1 X147.719 Y159.972 E25.5256
G1 X147.329 Y160.025 E25.5387
G1 X146.842 Y160.533
G0 F4800 E24.539
G0 F4800 X172.374 Y160.350
G0 F4800 E25.539
;segType:Loop
G1 F600 X172.037 Y160.270 E25.5502
G1 X171.691 Y160.149 E25.5623
G1 X171.229 Y159.931 E25.5793
G1 X170.917 Y159.742 E25.5915
G1 X170.621 Y159.522 E25.6037
G1 X170.242 Y159.173 E25.6209
G1 X169.998 Y158.895 E25.6331
G1 X169.785 Y158.600 E25.6453
G1 X169.553 Y158.204 E25.6605
G1 X169.405 Y157.877 E25.6724
G1 X169.258 Y157.452 E25.6874
G1 X169.156 Y156.968 E25.7038
G1 X169.105 Y156.351 E25.7244
G1 X169.132 Y155.884 E25.7399
G1 X169.259 Y155.233 E25.7620
G1 X169.411 Y154.790 E25.7776
G1 X169.589 Y154.413 E25.7914
G1 X169.775 Y154.101 E25.8035
G1 X170.050 Y153.727 E25.8189
G1 X170.335 Y153.418 E25.8329
G1 X170.610 Y153.173 E25.8452
G1 X170.984 Y152.900 E25.8606
G1 X171.300 Y152.716 E25.8727
G1 X171.711 Y152.528 E25.8877
G1 X172.045 Y152.415 E25.8994
G1 X172.478 Y152.311 E25.9143
G1 X173.154 Y152.246 E25.9368
G1 X173.664 Y152.272 E25.9538
G1 X174.319 Y152.400 E25.9760
G1 X174.763 Y152.553 E25.9916
G1 X175.141 Y152.731 E26.0055
G1 X175.453 Y152.917 E26.0176
G1 X175.828 Y153.192 E26.0330
G1 X176.136 Y153.477 E26.0470
G1 X176.381 Y153.752 E26.0592
G1 X176.655 Y154.126 E26.0746
G1 X176.837 Y154.441 E26.0867
G1 X177.026 Y154.851 E26.1017
G1 X177.139 Y155.184 E26.1134
G1 X177.243 Y155.616 E26.1282
G1 X177.307 Y156.289 E26.1507
G1 X177.288 Y156.738 E26.1656
G1 X177.240 Y157.078 E26.1770
G1 X177.137 Y157.509 E26.1918
G1 X177.017 Y157.854 E26.2039
G1 X176.799 Y158.316 E26.2209
G1 X176.610 Y158.628 E26.2330
G1 X176.391 Y158.923 E26.2452
G1 X176.042 Y159.302 E26.2624
G1 X175.763 Y159.546 E26.2747
G1 X175.467 Y159.760 E26.2868
G1 X175.068 Y159.994 E26.3022
G1 X174.640 Y160.181 E26.3177
G1 X174.001 Y160.362 E26.3398
G1 X173.495 Y160.430 E26.3568
G1 X172.819 Y160.422 E26.3792
G1 X172.819 Y160.422 E26.3792
;segType:Perimeter
G0 X173.957 Y160.477 F4800
G1 F360 X173.412 Y160.032 E26.4027
G1 X172.850 Y160.025 E26.4213
G1 X172.544 Y159.982 E26.4316
G1 X172.150 Y159.888 E26.4451
G1 X171.844 Y159.781 E26.4559
G1 X171.420 Y159.581 E26.4715
G1 X171.141 Y159.413 E26.4823
G1 X170.878 Y159.217 E26.4932
G1 X170.530 Y158.896 E26.5089
G1 X170.312 Y158.648 E26.5199
G1 X170.121 Y158.383 E26.5308
G1 X169.909 Y158.022 E26.5447
G1 X169.777 Y157.731 E26.5553
G1 X169.645 Y157.347 E26.5688
G1 X169.553 Y156.910 E26.5836
G1 X169.506 Y156.346 E26.6025
G1 X169.529 Y155.934 E26.6162
G1 X169.646 Y155.336 E26.6364
G1 X169.783 Y154.939 E26.6504
G1 X169.943 Y154.599 E26.6629
G1 X170.109 Y154.320 E26.6737
G1 X170.360 Y153.979 E26.6877
G1 X170.616 Y153.701 E26.7003
G1 X170.862 Y153.482 E26.7113
G1 X171.204 Y153.232 E26.7253
G1 X171.485 Y153.069 E26.7361
G1 X171.860 Y152.898 E26.7498
G1 X172.157 Y152.797 E26.7603
G1 X172.544 Y152.703 E26.7735
G1 X173.163 Y152.645 E26.7942
G1 X173.615 Y152.667 E26.8092
G1 X174.214 Y152.785 E26.8295
G1 X174.612 Y152.921 E26.8435
G1 X174.952 Y153.082 E26.8560
G1 X175.230 Y153.248 E26.8668
G1 X175.572 Y153.499 E26.8809
G1 X175.850 Y153.755 E26.8934
G1 X176.069 Y154.001 E26.9044
G1 X176.318 Y154.342 E26.9184
G1 X176.481 Y154.623 E26.9292
G1 X176.653 Y154.998 E26.9429
G1 X176.754 Y155.294 E26.9533
G1 X176.847 Y155.682 E26.9666
G1 X176.906 Y156.299 E26.9872
G1 X176.889 Y156.702 E27.0006
G1 X176.846 Y157.005 E27.0108
G1 X176.753 Y157.398 E27.0242
G1 X176.646 Y157.704 E27.0350
G1 X176.446 Y158.128 E27.0506
G1 X176.277 Y158.407 E27.0614
G1 X176.082 Y158.670 E27.0723
G1 X175.761 Y159.018 E27.0880
G1 X175.513 Y159.236 E27.0990
G1 X175.248 Y159.427 E27.1099
G1 X174.885 Y159.639 E27.1238
G1 X174.504 Y159.807 E27.1377
G1 X173.919 Y159.972 E27.1579
G1 X173.529 Y160.025 E27.1710
G1 X173.042 Y160.533
G0 F4800 E26.171
G0 F4800 X172.613 Y160.188
G0 X171.031 Y159.574
G0 X169.956 Y158.489
G0 X169.359 Y156.938
G0 X169.457 Y155.286
G0 X172.373 Y116.350
G0 F4800 E27.171
;segType:Loop
G1 F600 X172.037 Y116.270 E27.1825
G1 X171.692 Y116.150 E27.1946
G1 X171.229 Y115.931 E27.2116
G1 X170.916 Y115.742 E27.2238
G1 X170.621 Y115.522 E27.2360
G1 X170.242 Y115.173 E27.2532
G1 X169.998 Y114.895 E27.2654
G1 X169.785 Y114.599 E27.2776
G1 X169.551 Y114.201 E27.2929
G1 X169.364 Y113.773 E27.3084
G1 X169.183 Y113.136 E27.3305
G1 X169.116 Y112.631 E27.3474
G1 X169.123 Y111.957 E27.3698
G1 X169.173 Y111.608 E27.3815
G1 X169.275 Y111.177 E27.3963
G1 X169.395 Y110.833 E27.4084
G1 X169.613 Y110.370 E27.4254
G1 X169.802 Y110.058 E27.4375
G1 X170.022 Y109.763 E27.4497
G1 X170.372 Y109.384 E27.4669
G1 X170.649 Y109.140 E27.4792
G1 X170.945 Y108.927 E27.4913
G1 X171.341 Y108.694 E27.5065
G1 X171.668 Y108.546 E27.5185
G1 X172.094 Y108.399 E27.5335
G1 X172.580 Y108.297 E27.5500
G1 X173.198 Y108.245 E27.5706
G1 X173.666 Y108.272 E27.5862
G1 X174.319 Y108.400 E27.6083
G1 X174.763 Y108.553 E27.6239
G1 X175.140 Y108.731 E27.6378
G1 X175.453 Y108.917 E27.6499
G1 X175.828 Y109.192 E27.6653
G1 X176.136 Y109.477 E27.6793
G1 X176.381 Y109.752 E27.6915
G1 X176.655 Y110.126 E27.7069
G1 X176.837 Y110.441 E27.7190
G1 X177.026 Y110.851 E27.7341
G1 X177.139 Y111.185 E27.7457
G1 X177.243 Y111.617 E27.7605
G1 X177.307 Y112.289 E27.7830
G1 X177.288 Y112.738 E27.7979
G1 X177.240 Y113.078 E27.8093
G1 X177.137 Y113.509 E27.8241
G1 X177.017 Y113.854 E27.8362
G1 X176.799 Y114.316 E27.8532
G1 X176.610 Y114.627 E27.8653
G1 X176.391 Y114.923 E27.8775
G1 X176.041 Y115.302 E27.8947
G1 X175.764 Y115.546 E27.9069
G1 X175.468 Y115.760 E27.9191
G1 X175.068 Y115.994 E27.9345
G1 X174.640 Y116.181 E27.9500
G1 X174.001 Y116.363 E27.9721
G1 X173.495 Y116.430 E27.9891
G1 X172.819 Y116.422 E28.0115
G1 X172.819 Y116.422 E28.0115
;segType:Perimeter
G0 X173.957 Y116.477 F4800
G1 F360 X173.412 Y116.032 E28.0350
G1 X172.850 Y116.025 E28.0536
G1 X172.544 Y115.982 E28.0639
G1 X172.150 Y115.888 E28.0774
G1 X171.844 Y115.782 E28.0881
G1 X171.420 Y115.581 E28.1037
G1 X171.141 Y115.412 E28.1146
G1 X170.878 Y115.217 E28.1255
G1 X170.530 Y114.896 E28.1412
G1 X170.312 Y114.648 E28.1522
G1 X170.121 Y114.383 E28.1630
G1 X169.908 Y114.021 E28.1770
G1 X169.741 Y113.639 E28.1908
G1 X169.576 Y113.055 E28.2110
G1 X169.516 Y112.607 E28.2261
G1 X169.523 Y111.987 E28.2467
G1 X169.567 Y111.681 E28.2569
G1 X169.660 Y111.288 E28.2704
G1 X169.766 Y110.982 E28.2811
G1 X169.967 Y110.557 E28.2968
G1 X170.135 Y110.280 E28.3076
G1 X170.331 Y110.016 E28.3185
G1 X170.652 Y109.668 E28.3342
G1 X170.900 Y109.451 E28.3452
G1 X171.165 Y109.259 E28.3560
G1 X171.526 Y109.047 E28.3700
G1 X171.817 Y108.915 E28.3806
G1 X172.202 Y108.783 E28.3941
G1 X172.639 Y108.691 E28.4090
G1 X173.204 Y108.644 E28.4278
G1 X173.616 Y108.667 E28.4415
G1 X174.214 Y108.785 E28.4618
G1 X174.612 Y108.921 E28.4758
G1 X174.952 Y109.082 E28.4883
G1 X175.231 Y109.248 E28.4991
G1 X175.572 Y109.499 E28.5131
G1 X175.850 Y109.755 E28.5257
G1 X176.069 Y110.001 E28.5367
G1 X176.318 Y110.342 E28.5507
G1 X176.481 Y110.623 E28.5615
G1 X176.653 Y110.998 E28.5752
G1 X176.754 Y111.294 E28.5856
G1 X176.847 Y111.682 E28.5989
G1 X176.906 Y112.299 E28.6195
G1 X176.889 Y112.702 E28.6329
G1 X176.846 Y113.005 E28.6431
G1 X176.753 Y113.399 E28.6565
G1 X176.646 Y113.704 E28.6673
G1 X176.446 Y114.128 E28.6829
G1 X176.277 Y114.406 E28.6937
G1 X176.082 Y114.670 E28.7046
G1 X175.761 Y115.018 E28.7203
G1 X175.513 Y115.235 E28.7313
G1 X175.248 Y115.427 E28.7422
G1 X174.885 Y115.639 E28.7561
G1 X174.504 Y115.807 E28.7700
G1 X173.919 Y115.972 E28.7902
G1 X173.529 Y116.024 E28.8033
G1 X173.042 Y116.533
G0 F4800 X156.767 Y115.070
G0 X151.677 Y112.672
G0 X150.623 Y109.501
G0 X148.652 Y108.595
;segType:Loop
G1 F600 X148.940 Y108.731 E28.8139
G1 X149.253 Y108.917 E28.8260
G1 X149.628 Y109.192 E28.8414
G1 X149.936 Y109.477 E28.8554
G1 X150.181 Y109.752 E28.8676
G1 X150.455 Y110.126 E28.8830
G1 X150.637 Y110.441 E28.8951
G1 X150.826 Y110.851 E28.9101
G1 X150.939 Y111.185 E28.9218
G1 X151.043 Y111.617 E28.9366
G1 X151.107 Y112.291 E28.9591
G1 X151.082 Y112.800 E28.9761
G1 X150.954 Y113.453 E28.9982
G1 X150.801 Y113.897 E29.0138
G1 X150.623 Y114.273 E29.0276
G1 X150.438 Y114.585 E29.0397
G1 X150.162 Y114.959 E29.0551
G1 X149.878 Y115.268 E29.0691
G1 X149.603 Y115.513 E29.0813
G1 X149.229 Y115.786 E29.0967
G1 X148.913 Y115.969 E29.1089
G1 X148.502 Y116.158 E29.1239
G1 X148.168 Y116.271 E29.1356
G1 X147.735 Y116.376 E29.1504
G1 X147.059 Y116.440 E29.1730
G1 X146.549 Y116.415 E29.1900
G1 X145.894 Y116.286 E29.2122
G1 X145.449 Y116.133 E29.2278
G1 X145.072 Y115.956 E29.2417
G1 X144.760 Y115.769 E29.2538
G1 X144.385 Y115.494 E29.2692
G1 X144.076 Y115.209 E29.2832
G1 X143.831 Y114.935 E29.2954
G1 X143.558 Y114.560 E29.3108
G1 X143.375 Y114.245 E29.3229
G1 X143.187 Y113.835 E29.3379
G1 X143.074 Y113.502 E29.3496
G1 X142.970 Y113.070 E29.3644
G1 X142.906 Y112.395 E29.3869
G1 X142.931 Y111.886 E29.4039
G1 X143.059 Y111.234 E29.4260
G1 X143.211 Y110.790 E29.4416
G1 X143.390 Y110.413 E29.4554
G1 X143.575 Y110.102 E29.4675
G1 X143.850 Y109.727 E29.4829
G1 X144.135 Y109.418 E29.4969
G1 X144.410 Y109.173 E29.5091
G1 X144.784 Y108.900 E29.5246
G1 X145.100 Y108.717 E29.5367
G1 X145.511 Y108.528 E29.5517
G1 X145.845 Y108.415 E29.5634
G1 X146.278 Y108.310 E29.5782
G1 X146.954 Y108.246 E29.6008
G1 X147.464 Y108.272 E29.6178
G1 X148.119 Y108.400 E29.6400
G1 X148.119 Y108.400 E29.6400
;segType:Perimeter
G0 X147.018 Y108.141 F4800
G1 F360 X147.473 Y108.678 E29.6634
G1 X148.014 Y108.785 E29.6817
G1 X148.412 Y108.921 E29.6957
G1 X148.752 Y109.082 E29.7082
G1 X149.031 Y109.248 E29.7190
G1 X149.372 Y109.499 E29.7331
G1 X149.650 Y109.755 E29.7457
G1 X149.869 Y110.001 E29.7566
G1 X150.118 Y110.342 E29.7707
G1 X150.281 Y110.623 E29.7814
G1 X150.453 Y110.998 E29.7951
G1 X150.554 Y111.294 E29.8056
G1 X150.647 Y111.682 E29.8188
G1 X150.706 Y112.300 E29.8394
G1 X150.683 Y112.752 E29.8545
G1 X150.566 Y113.350 E29.8748
G1 X150.430 Y113.747 E29.8887
G1 X150.269 Y114.087 E29.9012
G1 X150.103 Y114.366 E29.9120
G1 X149.852 Y114.707 E29.9261
G1 X149.596 Y114.985 E29.9386
G1 X149.350 Y115.204 E29.9496
G1 X149.009 Y115.454 E29.9636
G1 X148.728 Y115.616 E29.9745
G1 X148.353 Y115.788 E29.9882
G1 X148.056 Y115.889 E29.9986
G1 X147.668 Y115.983 E30.0118
G1 X147.049 Y116.041 E30.0325
G1 X146.597 Y116.019 E30.0475
G1 X145.998 Y115.902 E30.0678
G1 X145.601 Y115.765 E30.0818
G1 X145.261 Y115.605 E30.0943
G1 X144.982 Y115.438 E30.1051
G1 X144.641 Y115.188 E30.1192
G1 X144.363 Y114.931 E30.1318
G1 X144.144 Y114.685 E30.1427
G1 X143.894 Y114.344 E30.1568
G1 X143.731 Y114.063 E30.1676
G1 X143.559 Y113.688 E30.1813
G1 X143.459 Y113.392 E30.1917
G1 X143.365 Y113.004 E30.2049
G1 X143.307 Y112.386 E30.2256
G1 X143.329 Y111.935 E30.2406
G1 X143.446 Y111.336 E30.2609
G1 X143.583 Y110.939 E30.2748
G1 X143.743 Y110.599 E30.2873
G1 X143.909 Y110.320 E30.2981
G1 X144.160 Y109.979 E30.3122
G1 X144.416 Y109.701 E30.3248
G1 X144.662 Y109.482 E30.3357
G1 X145.004 Y109.232 E30.3498
G1 X145.285 Y109.070 E30.3606
G1 X145.660 Y108.898 E30.3743
G1 X145.957 Y108.797 E30.3847
G1 X146.344 Y108.703 E30.3980
G1 X146.963 Y108.645 E30.4186
G1 X147.356 Y108.664 E30.4317
G1 X147.929 Y108.252
G0 F4800 E29.432
G0 F4800 X147.979 Y108.579
G0 X146.312 Y108.511
G0 X144.896 Y109.069
G0 X143.745 Y110.213
G0 X143.257 Y111.286
G0 X140.471 Y127.791
G0 F4800 E30.432
;segType:HShell
G1 F600 X140.938 Y127.795 E30.4472
G1 X142.618 Y128.369 E30.5062
G1 X145.012 Y128.838 E30.5874
G1 X147.345 Y128.953 E30.6650
G1 X149.813 Y128.718 E30.7474
G1 X151.681 Y128.273 E30.8113
G1 X153.131 Y127.778 E30.8622
G1 X167.072 Y127.771 E31.3256
G1 X168.499 Y128.264 E31.3758
G1 X170.114 Y128.650 E31.4310
G1 X171.847 Y128.895 E31.4892
G1 X174.259 Y128.927 E31.5694
G1 X176.580 Y128.616 E31.6472
G1 X178.921 Y127.948 E31.7281
G1 X179.311 Y127.778 E31.7423
G1 X179.840 Y127.778 E31.7599
G1 X179.840 Y140.900 E32.1961
G1 X179.286 Y140.897 E32.2145
G1 X177.604 Y140.318 E32.2737
G1 X175.196 Y139.848 E32.3552
G1 X172.868 Y139.733 E32.4327
G1 X170.401 Y139.968 E32.5151
G1 X168.533 Y140.413 E32.5789
G1 X167.082 Y140.908 E32.6299
G1 X153.083 Y140.896 E33.0953
G1 X151.404 Y140.318 E33.1543
G1 X148.996 Y139.848 E33.2359
G1 X146.668 Y139.733 E33.3133
G1 X144.201 Y139.968 E33.3957
G1 X142.333 Y140.413 E33.4596
G1 X140.882 Y140.908 E33.5105
G1 X140.373 Y140.908 E33.5275
G1 X140.373 Y127.887 E33.9603
G0 X139.981 Y128.354 F4800
G1 F600 X139.981 Y127.396 E33.9922
G1 X141.005 Y127.406 E34.0263
G1 X142.720 Y127.991 E34.0865
G1 X145.060 Y128.450 E34.1658
G1 X147.336 Y128.562 E34.2415
G1 X149.748 Y128.333 E34.3221
G1 X151.572 Y127.898 E34.3844
G1 X153.065 Y127.388 E34.4369
G1 X167.139 Y127.381 E34.9047
G1 X168.609 Y127.889 E34.9564
G1 X170.187 Y128.266 E35.0104
G1 X171.877 Y128.505 E35.0671
G1 X174.236 Y128.536 E35.1455
G1 X176.499 Y128.233 E35.2214
G1 X178.787 Y127.581 E35.3005
G1 X179.229 Y127.388 E35.3165
G1 X180.232 Y127.388 E35.3499
G1 X180.232 Y141.293 E35.8122
G1 X179.218 Y141.287 E35.8459
G1 X177.501 Y140.695 E35.9062
G1 X175.149 Y140.236 E35.9859
G1 X172.877 Y140.124 E36.0615
G1 X170.466 Y140.354 E36.1421
G1 X168.643 Y140.788 E36.2044
G1 X167.148 Y141.298 E36.2569
G1 X153.016 Y141.286 E36.7266
G1 X151.301 Y140.695 E36.7870
G1 X148.949 Y140.236 E36.8666
G1 X146.677 Y140.124 E36.9422
G1 X144.266 Y140.354 E37.0228
G1 X142.443 Y140.788 E37.0851
G1 X140.947 Y141.298 E37.1376
G1 X139.981 Y141.298 E37.1697
G1 X139.981 Y128.549 E37.5936
G0 X141.390 Y128.362 F4800
G1 F600 X142.516 Y128.746 E37.6331
G1 X144.964 Y129.226 E37.7161
G1 X147.353 Y129.344 E37.7956
G1 X149.878 Y129.104 E37.8799
G1 X151.791 Y128.647 E37.9453
G1 X153.197 Y128.168 E37.9946
G1 X167.006 Y128.161 E38.4537
G1 X168.388 Y128.638 E38.5023
G1 X170.040 Y129.033 E38.5588
G1 X171.817 Y129.284 E38.6184
G1 X174.283 Y129.317 E38.7004
G1 X176.660 Y128.999 E38.7802
G1 X179.054 Y128.316 E38.8629
G1 X179.393 Y128.168 E38.8752
G1 X179.447 Y128.168 E38.8770
G1 X179.447 Y140.508 E39.2872
G1 X179.353 Y140.507 E39.2903
G1 X177.706 Y139.940 E39.3482
G1 X175.244 Y139.460 E39.4316
G1 X172.859 Y139.342 E39.5110
G1 X170.336 Y139.582 E39.5953
G1 X168.423 Y140.038 E39.6606
G1 X167.017 Y140.518 E39.7100
G1 X153.149 Y140.506 E40.1710
G1 X151.506 Y139.940 E40.2288
G1 X149.044 Y139.460 E40.3122
G1 X146.659 Y139.342 E40.3916
G1 X144.136 Y139.582 E40.4758
G1 X142.223 Y140.038 E40.5412
G1 X140.817 Y140.518 E40.5906
G1 X140.766 Y140.518 E40.5923
G1 X140.766 Y128.184 E41.0023
G1 X140.870 Y128.185 E41.0058
G1 X141.204 Y128.299 E41.0175
G0 X139.588 Y129.427 F4800
G1 F600 X139.588 Y127.002 E41.0982
G1 X141.073 Y127.017 E41.1475
G1 X142.822 Y127.614 E41.2090
G1 X145.108 Y128.062 E41.2864
G1 X147.327 Y128.171 E41.3603
G1 X149.684 Y127.947 E41.4390
G1 X151.462 Y127.523 E41.4997
G1 X152.894 Y127.037 E41.5500
G1 X152.979 Y126.998 E41.5531
G1 X167.205 Y126.991 E42.0260
G1 X168.720 Y127.514 E42.0793
G1 X170.261 Y127.883 E42.1320
G1 X171.908 Y128.116 E42.1873
G1 X174.212 Y128.146 E42.2639
G1 X176.418 Y127.850 E42.3379
G1 X178.654 Y127.213 E42.4152
G1 X179.147 Y126.998 E42.4330
G1 X180.625 Y126.998 E42.4822
G1 X180.625 Y141.686 E42.9705
G1 X179.151 Y141.676 E43.0195
G1 X177.398 Y141.072 E43.0811
G1 X175.101 Y140.624 E43.1589
G1 X172.886 Y140.515 E43.2326
G1 X170.530 Y140.739 E43.3113
G1 X168.752 Y141.163 E43.3721
G1 X167.318 Y141.650 E43.4224
G1 X167.234 Y141.688 E43.4255
G1 X152.950 Y141.676 E43.9003
G1 X151.198 Y141.072 E43.9619
G1 X148.901 Y140.624 E44.0397
G1 X146.686 Y140.515 E44.1135
G1 X144.330 Y140.739 E44.1921
G1 X142.552 Y141.163 E44.2529
G1 X141.118 Y141.650 E44.3032
G1 X141.034 Y141.688 E44.3063
G1 X139.588 Y141.688 E44.3544
G1 X139.588 Y129.622 E44.7555
G0 X139.195 Y130.499 F4800
G1 F600 X139.195 Y126.608 E44.8849
G1 X141.140 Y126.627 E44.9495
G1 X142.924 Y127.236 E45.0122
G1 X145.156 Y127.674 E45.0878
G1 X147.318 Y127.780 E45.1598
G1 X149.619 Y127.561 E45.2366
G1 X151.353 Y127.148 E45.2959
G1 X152.748 Y126.674 E45.3449
G1 X152.893 Y126.608 E45.3502
G1 X167.307 Y126.608 E45.8293
G1 X167.353 Y126.629 E45.8310
G1 X168.830 Y127.140 E45.8830
G1 X170.335 Y127.499 E45.9344
G1 X171.938 Y127.726 E45.9882
G1 X174.188 Y127.755 E46.0630
G1 X176.338 Y127.467 E46.1351
G1 X178.520 Y126.845 E46.2106
G1 X179.065 Y126.608 E46.2303
G1 X181.018 Y126.608 E46.2952
G1 X181.018 Y142.079 E46.8095
G1 X179.084 Y142.066 E46.8738
G1 X177.296 Y141.450 E46.9367
G1 X175.053 Y141.012 E47.0127
G1 X172.895 Y140.906 E47.0845
G1 X170.595 Y141.125 E47.1613
G1 X168.862 Y141.538 E47.2205
G1 X167.464 Y142.012 E47.2696
G1 X167.320 Y142.079 E47.2749
G1 X152.884 Y142.066 E47.7548
G1 X151.096 Y141.450 E47.8176
G1 X148.853 Y141.012 E47.8936
G1 X146.695 Y140.906 E47.9654
G1 X144.395 Y141.125 E48.0422
G1 X142.662 Y141.538 E48.1015
G1 X141.264 Y142.012 E48.1505
G1 X141.120 Y142.079 E48.1558
G1 X139.195 Y142.079 E48.2198
G1 X139.195 Y130.694 E48.5982
G0 X138.803 Y131.572 F4800
G1 F600 X138.803 Y126.218 E48.7762
G1 X141.186 Y126.218 E48.8555
G1 X141.288 Y126.265 E48.8592
G1 X143.026 Y126.859 E48.9203
G1 X145.204 Y127.286 E48.9941
G1 X147.309 Y127.389 E49.0641
G1 X149.554 Y127.176 E49.1391
G1 X151.243 Y126.773 E49.1968
G1 X152.602 Y126.312 E49.2445
G1 X152.807 Y126.218 E49.2520
G1 X167.395 Y126.218 E49.7370
G1 X167.502 Y126.268 E49.7409
G1 X168.941 Y126.765 E49.7915
G1 X170.409 Y127.116 E49.8417
G1 X171.969 Y127.336 E49.8941
G1 X174.164 Y127.365 E49.9671
G1 X176.257 Y127.085 E50.0372
G1 X178.387 Y126.477 E50.1109
G1 X178.982 Y126.218 E50.1325
G1 X181.410 Y126.218 E50.2132
G1 X181.410 Y142.469 E50.7534
G1 X179.023 Y142.469 E50.8328
G1 X178.935 Y142.428 E50.8360
G1 X177.193 Y141.827 E50.8973
G1 X175.005 Y141.400 E50.9714
G1 X172.904 Y141.297 E51.0413
G1 X170.660 Y141.510 E51.1162
G1 X168.971 Y141.913 E51.1739
G1 X167.611 Y142.375 E51.2217
G1 X167.407 Y142.469 E51.2292
G1 X152.823 Y142.469 E51.7140
G1 X152.735 Y142.428 E51.7172
G1 X150.993 Y141.827 E51.7785
G1 X148.805 Y141.400 E51.8526
G1 X146.704 Y141.297 E51.9225
G1 X144.460 Y141.510 E51.9974
G1 X142.771 Y141.913 E52.0552
G1 X141.411 Y142.375 E52.1029
G1 X141.207 Y142.469 E52.1104
G1 X138.803 Y142.469 E52.1903
G1 X138.803 Y131.767 E52.5461
G0 X138.410 Y132.645 F4800
G1 F600 X138.410 Y125.827 E52.7727
G1 X141.275 Y125.827 E52.8679
G1 X141.437 Y125.904 E52.8739
G1 X143.128 Y126.481 E52.9333
G1 X145.252 Y126.898 E53.0053
G1 X147.300 Y126.998 E53.0734
G1 X149.489 Y126.790 E53.1465
G1 X151.134 Y126.398 E53.2027
G1 X152.456 Y125.949 E53.2491
G1 X152.720 Y125.827 E53.2588
G1 X167.484 Y125.827 E53.7496
G1 X167.651 Y125.907 E53.7558
G1 X169.051 Y126.390 E53.8050
G1 X170.482 Y126.732 E53.8539
G1 X171.999 Y126.947 E53.9048
G1 X174.141 Y126.974 E53.9760
G1 X176.176 Y126.702 E54.0443
G1 X178.253 Y126.110 E54.1161
G1 X178.900 Y125.827 E54.1395
G1 X181.803 Y125.827 E54.2361
G1 X181.803 Y142.859 E54.8022
G1 X178.934 Y142.859 E54.8976
G1 X178.786 Y142.789 E54.9030
G1 X177.091 Y142.205 E54.9627
G1 X174.958 Y141.789 E55.0349
G1 X172.913 Y141.688 E55.1030
G1 X170.725 Y141.896 E55.1760
G1 X169.081 Y142.288 E55.2322
G1 X167.758 Y142.737 E55.2787
G1 X167.494 Y142.859 E55.2883
G1 X152.734 Y142.859 E55.7790
G1 X152.586 Y142.789 E55.7844
G1 X150.891 Y142.205 E55.8440
G1 X148.758 Y141.789 E55.9163
G1 X146.713 Y141.688 E55.9843
G1 X144.525 Y141.896 E56.0574
G1 X142.881 Y142.288 E56.1136
G1 X141.558 Y142.737 E56.1601
G1 X141.294 Y142.859 E56.1697
G1 X138.410 Y142.859 E56.2656
G1 X138.410 Y132.840 E56.5986
G0 X137.625 Y134.790 F4800
G1 F600 X137.625 Y125.047 E56.9225
G1 X141.452 Y125.047 E57.0497
G1 X141.734 Y125.180 E57.0601
G1 X143.333 Y125.726 E57.1163
G1 X145.348 Y126.121 E57.1846
G1 X147.282 Y126.217 E57.2489
G1 X149.359 Y126.019 E57.3183
G1 X150.915 Y125.648 E57.3714
G1 X152.163 Y125.224 E57.4153
G1 X152.547 Y125.047 E57.4293
G1 X167.662 Y125.047 E57.9318
G1 X167.950 Y125.184 E57.9424
G1 X169.272 Y125.641 E57.9889
G1 X170.630 Y125.965 E58.0353
G1 X172.060 Y126.167 E58.0833
G1 X174.093 Y126.194 E58.1509
G1 X176.015 Y125.936 E58.2154
G1 X177.985 Y125.375 E58.2835
G1 X178.735 Y125.047 E58.3107
G1 X182.588 Y125.047 E58.4388
G1 X182.588 Y143.639 E59.0568
G1 X178.757 Y143.639 E59.1842
G1 X178.488 Y143.512 E59.1941
G1 X176.885 Y142.960 E59.2504
G1 X174.862 Y142.565 E59.3190
G1 X172.931 Y142.470 E59.3832
G1 X170.855 Y142.667 E59.4526
G1 X169.300 Y143.038 E59.5057
G1 X168.051 Y143.462 E59.5496
G1 X167.667 Y143.639 E59.5636
G1 X152.557 Y143.639 E60.0659
G1 X152.288 Y143.512 E60.0758
G1 X150.685 Y142.960 E60.1322
G1 X148.662 Y142.565 E60.2007
G1 X146.731 Y142.470 E60.2650
G1 X144.655 Y142.667 E60.3343
G1 X143.100 Y143.038 E60.3874
G1 X141.851 Y143.462 E60.4313
G1 X141.467 Y143.639 E60.4453
G1 X137.625 Y143.639 E60.5731
G1 X137.625 Y134.985 E60.8608
G0 X137.232 Y135.862 F4800
G1 F600 X137.232 Y124.657 E61.2333
G1 X141.540 Y124.657 E61.3765
G1 X141.882 Y124.819 E61.3891
G1 X143.435 Y125.349 E61.4436
G1 X145.396 Y125.733 E61.5100
G1 X147.273 Y125.826 E61.5725
G1 X149.294 Y125.634 E61.6400
G1 X150.805 Y125.273 E61.6916
G1 X152.016 Y124.862 E61.7342
G1 X152.461 Y124.657 E61.7504
G1 X167.750 Y124.657 E62.2587
G1 X168.100 Y124.823 E62.2716
G1 X169.383 Y125.266 E62.3167
G1 X170.703 Y125.581 E62.3618
G1 X172.090 Y125.778 E62.4084
G1 X174.069 Y125.803 E62.4742
G1 X175.934 Y125.553 E62.5367
G1 X177.852 Y125.007 E62.6030
G1 X178.652 Y124.657 E62.6321
G1 X182.981 Y124.657 E62.7759
G1 X182.981 Y144.029 E63.4200
G1 X178.668 Y144.029 E63.5633
G1 X178.339 Y143.874 E63.5754
G1 X176.783 Y143.337 E63.6301
G1 X174.814 Y142.953 E63.6968
G1 X172.940 Y142.861 E63.7592
G1 X170.919 Y143.053 E63.8267
G1 X169.409 Y143.413 E63.8783
G1 X168.197 Y143.825 E63.9208
G1 X167.754 Y144.029 E63.9371
G1 X152.468 Y144.029 E64.4452
G1 X152.139 Y143.874 E64.4573
G1 X150.583 Y143.337 E64.5120
G1 X148.614 Y142.953 E64.5787
G1 X146.740 Y142.861 E64.6411
G1 X144.719 Y143.053 E64.7086
G1 X143.209 Y143.413 E64.7602
G1 X141.997 Y143.825 E64.8027
G1 X141.554 Y144.029 E64.8190
G1 X137.232 Y144.029 E64.9626
G1 X137.232 Y136.057 E65.2276
G0 X136.840 Y136.935 F4800
G1 F600 X136.840 Y124.267 E65.6488
G1 X141.429 Y124.267 E65.8013
G1 X141.488 Y124.200 E65.8043
G1 X142.031 Y124.457 E65.8243
G1 X143.537 Y124.971 E65.8772
G1 X145.444 Y125.345 E65.9418
G1 X147.264 Y125.435 E66.0024
G1 X149.230 Y125.248 E66.0680
G1 X150.696 Y124.898 E66.1181
G1 X151.870 Y124.499 E66.1593
G1 X152.524 Y124.198 E66.1833
G1 X152.585 Y124.267 E66.1863
G1 X167.623 Y124.267 E66.6862
G1 X167.687 Y124.195 E66.6894
G1 X168.249 Y124.462 E66.7101
G1 X169.493 Y124.892 E66.7539
G1 X170.777 Y125.198 E66.7978
G1 X172.120 Y125.388 E66.8429
G1 X174.046 Y125.413 E66.9069
G1 X175.854 Y125.171 E66.9675
G1 X177.718 Y124.639 E67.0319
G1 X178.725 Y124.199 E67.0685
G1 X178.785 Y124.267 E67.0715
G1 X183.373 Y124.267 E67.2240
G1 X183.373 Y144.419 E67.8940
G1 X178.785 Y144.419 E68.0465
G1 X178.724 Y144.488 E68.0495
G1 X178.190 Y144.235 E68.0692
G1 X176.680 Y143.715 E68.1223
G1 X174.767 Y143.341 E68.1871
G1 X172.949 Y143.252 E68.2476
G1 X170.984 Y143.438 E68.3132
G1 X169.519 Y143.788 E68.3633
G1 X168.344 Y144.187 E68.4046
G1 X167.685 Y144.491 E68.4287
G1 X167.621 Y144.419 E68.4318
G1 X152.585 Y144.419 E68.9317
G1 X152.524 Y144.488 E68.9347
G1 X151.990 Y144.235 E68.9544
G1 X150.480 Y143.715 E69.0075
G1 X148.567 Y143.341 E69.0723
G1 X146.749 Y143.252 E69.1328
G1 X144.784 Y143.438 E69.1984
G1 X143.319 Y143.788 E69.2485
G1 X142.144 Y144.187 E69.2898
G1 X141.485 Y144.491 E69.3139
G1 X141.421 Y144.419 E69.3171
G1 X136.840 Y144.419 E69.4694
G1 X136.840 Y137.130 E69.7117
G0 X136.447 Y138.008 F4800
G1 F600 X136.447 Y123.877 E70.1815
G1 X141.251 Y123.877 E70.3412
G1 X141.389 Y123.722 E70.3481
G1 X142.179 Y124.095 E70.3771
G1 X143.639 Y124.594 E70.4284
G1 X145.492 Y124.957 E70.4912
G1 X147.255 Y125.044 E70.5499
G1 X149.165 Y124.862 E70.6136
G1 X150.586 Y124.523 E70.6622
G1 X151.723 Y124.137 E70.7021
G1 X152.625 Y123.721 E70.7351
G1 X152.762 Y123.877 E70.7420
G1 X167.446 Y123.877 E71.2302
G1 X167.589 Y123.716 E71.2373
G1 X168.399 Y124.100 E71.2671
G1 X169.604 Y124.517 E71.3095
G1 X170.851 Y124.814 E71.3521
G1 X172.151 Y124.998 E71.3958
G1 X174.022 Y125.022 E71.4580
G1 X175.773 Y124.788 E71.5167
G1 X177.584 Y124.272 E71.5793
G1 X178.830 Y123.727 E71.6245
G1 X178.962 Y123.877 E71.6312
G1 X183.766 Y123.877 E71.7908
G1 X183.766 Y144.810 E72.4867
G1 X178.962 Y144.810 E72.6464
G1 X178.823 Y144.966 E72.6534
G1 X178.041 Y144.597 E72.6821
G1 X176.578 Y144.092 E72.7336
G1 X174.719 Y143.729 E72.7965
G1 X172.957 Y143.642 E72.8552
G1 X171.049 Y143.824 E72.9189
G1 X169.628 Y144.163 E72.9674
G1 X168.490 Y144.550 E73.0074
G1 X167.584 Y144.967 E73.0406
G1 X167.444 Y144.810 E73.0476
G1 X152.762 Y144.810 E73.5357
G1 X152.623 Y144.966 E73.5426
G1 X151.841 Y144.597 E73.5714
G1 X150.378 Y144.092 E73.6229
G1 X148.519 Y143.729 E73.6858
G1 X146.757 Y143.642 E73.7444
G1 X144.849 Y143.824 E73.8082
G1 X143.428 Y144.163 E73.8567
G1 X142.290 Y144.550 E73.8967
G1 X141.384 Y144.967 E73.9298
G1 X141.244 Y144.810 E73.9369
G1 X136.447 Y144.810 E74.0963
G1 X136.447 Y138.203 E74.3160
G0 X136.055 Y139.080 F4800
G1 F600 X136.055 Y123.486 E74.8344
G1 X141.074 Y123.486 E75.0012
G1 X141.289 Y123.243 E75.0120
G1 X142.328 Y123.733 E75.0502
G1 X143.742 Y124.217 E75.0999
G1 X145.540 Y124.569 E75.1608
G1 X147.246 Y124.653 E75.2176
G1 X149.100 Y124.477 E75.2795
G1 X150.477 Y124.148 E75.3266
G1 X151.577 Y123.774 E75.3652
G1 X152.726 Y123.245 E75.4073
G1 X152.940 Y123.486 E75.4180
G1 X167.270 Y123.486 E75.8943
G1 X167.492 Y123.237 E75.9054
G1 X168.549 Y123.739 E75.9443
G1 X169.714 Y124.142 E75.9853
G1 X170.924 Y124.431 E76.0267
G1 X172.181 Y124.609 E76.0689
G1 X173.998 Y124.632 E76.1293
G1 X175.692 Y124.405 E76.1861
G1 X177.450 Y123.904 E76.2469
G1 X178.835 Y123.298 E76.2971
G1 X178.926 Y123.245 E76.3006
G1 X179.140 Y123.486 E76.3114
G1 X184.158 Y123.486 E76.4782
G1 X184.158 Y145.200 E77.2000
G1 X179.140 Y145.200 E77.3669
G1 X178.922 Y145.445 E77.3777
G1 X177.892 Y144.958 E77.4156
G1 X176.475 Y144.470 E77.4655
G1 X174.671 Y144.117 E77.5266
G1 X172.966 Y144.033 E77.5833
G1 X171.114 Y144.209 E77.6452
G1 X169.738 Y144.538 E77.6922
G1 X168.637 Y144.912 E77.7309
G1 X167.484 Y145.444 E77.7731
G1 X167.267 Y145.200 E77.7839
G1 X152.940 Y145.200 E78.2602
G1 X152.722 Y145.445 E78.2711
G1 X151.692 Y144.958 E78.3090
G1 X150.275 Y144.470 E78.3588
G1 X148.471 Y144.117 E78.4199
G1 X146.766 Y144.033 E78.4767
G1 X144.914 Y144.209 E78.5385
G1 X143.538 Y144.538 E78.5856
G1 X142.437 Y144.912 E78.6242
G1 X141.284 Y145.444 E78.6664
G1 X141.067 Y145.200 E78.6773
G1 X136.055 Y145.200 E78.8439
G1 X136.055 Y139.275 E79.0409
G0 X135.662 Y140.153 F4800
G1 F600 X135.662 Y123.096 E79.6079
G1 X140.896 Y123.096 E79.7819
G1 X141.202 Y122.750 E79.7972
G1 X141.359 Y122.844 E79.8033
G1 X142.476 Y123.372 E79.8444
G1 X143.844 Y123.839 E79.8924
G1 X145.588 Y124.181 E79.9515
G1 X147.237 Y124.262 E80.0064
G1 X149.035 Y124.091 E80.0664
G1 X150.367 Y123.773 E80.1120
G1 X151.430 Y123.412 E80.1493
G1 X152.546 Y122.898 E80.1901
G1 X152.808 Y122.746 E80.2002
G1 X153.117 Y123.096 E80.2157
G1 X167.093 Y123.096 E80.6803
G1 X167.401 Y122.751 E80.6957
G1 X167.489 Y122.804 E80.6991
G1 X168.698 Y123.378 E80.7436
G1 X169.825 Y123.768 E80.7833
G1 X170.998 Y124.047 E80.8234
G1 X172.212 Y124.219 E80.8641
G1 X173.974 Y124.242 E80.9227
G1 X175.612 Y124.022 E80.9776
G1 X177.317 Y123.537 E81.0366
G1 X178.656 Y122.950 E81.0852
G1 X179.007 Y122.745 E81.0987
G1 X179.317 Y123.096 E81.1142
G1 X184.551 Y123.096 E81.2882
G1 X184.551 Y145.590 E82.0360
G1 X179.317 Y145.590 E82.2100
G1 X179.010 Y145.937 E82.2254
G1 X178.851 Y145.843 E82.2316
G1 X177.743 Y145.319 E82.2723
G1 X176.372 Y144.847 E82.3205
G1 X174.624 Y144.505 E82.3797
G1 X172.975 Y144.424 E82.4346
G1 X171.179 Y144.595 E82.4946
G1 X169.847 Y144.913 E82.5401
G1 X168.783 Y145.275 E82.5774
G1 X167.670 Y145.788 E82.6182
G1 X167.402 Y145.942 E82.6285
G1 X167.090 Y145.590 E82.6441
G1 X153.117 Y145.590 E83.1086
G1 X152.810 Y145.937 E83.1240
G1 X152.651 Y145.843 E83.1302
G1 X151.543 Y145.319 E83.1709
G1 X150.172 Y144.847 E83.2191
G1 X148.424 Y144.505 E83.2783
G1 X146.775 Y144.424 E83.3332
G1 X144.979 Y144.595 E83.3932
G1 X143.647 Y144.913 E83.4387
G1 X142.583 Y145.275 E83.4760
G1 X141.470 Y145.788 E83.5168
G1 X141.202 Y145.942 E83.5271
G1 X140.890 Y145.590 E83.5427
G1 X135.662 Y145.590 E83.7165
G1 X135.662 Y140.348 E83.8908
G0 X135.269 Y141.225 F4800
G1 F600 X135.269 Y122.706 E84.5064
G1 X140.718 Y122.706 E84.6876
G1 X141.123 Y122.249 E84.7079
G1 X141.545 Y122.500 E84.7242
G1 X142.625 Y123.010 E84.7639
G1 X143.946 Y123.462 E84.8103
G1 X145.636 Y123.793 E84.8676
G1 X147.228 Y123.871 E84.9206
G1 X148.970 Y123.706 E84.9787
G1 X150.257 Y123.398 E85.0227
G1 X151.284 Y123.049 E85.0587
G1 X152.364 Y122.552 E85.0983
G1 X152.889 Y122.248 E85.1185
G1 X153.295 Y122.706 E85.1388
G1 X166.916 Y122.706 E85.5916
G1 X167.324 Y122.248 E85.6120
G1 X167.676 Y122.461 E85.6257
G1 X168.848 Y123.017 E85.6688
G1 X169.935 Y123.393 E85.7071
G1 X171.071 Y123.664 E85.7459
G1 X172.242 Y123.829 E85.7852
G1 X173.951 Y123.851 E85.8420
G1 X175.531 Y123.639 E85.8950
G1 X177.183 Y123.169 E85.9521
G1 X178.477 Y122.603 E85.9991
G1 X179.087 Y122.246 E86.0226
G1 X179.495 Y122.706 E86.0430
G1 X184.943 Y122.706 E86.2241
G1 X184.943 Y145.980 E86.9978
G1 X179.494 Y145.980 E87.1790
G1 X179.089 Y146.439 E87.1993
G1 X178.665 Y146.187 E87.2157
G1 X177.594 Y145.681 E87.2551
G1 X176.270 Y145.225 E87.3017
G1 X174.576 Y144.894 E87.3590
G1 X172.984 Y144.815 E87.4120
G1 X171.244 Y144.981 E87.4701
G1 X169.957 Y145.288 E87.5141
G1 X168.930 Y145.637 E87.5502
G1 X167.851 Y146.134 E87.5896
G1 X167.321 Y146.440 E87.6100
G1 X166.913 Y145.980 E87.6305
G1 X153.294 Y145.980 E88.0832
G1 X152.889 Y146.439 E88.1035
G1 X152.465 Y146.187 E88.1199
G1 X151.394 Y145.681 E88.1593
G1 X150.070 Y145.225 E88.2058
G1 X148.376 Y144.894 E88.2632
G1 X146.784 Y144.815 E88.3162
G1 X145.044 Y144.981 E88.3743
G1 X143.757 Y145.288 E88.4183
G1 X142.730 Y145.637 E88.4544
G1 X141.651 Y146.134 E88.4938
G1 X141.121 Y146.440 E88.5142
G1 X140.713 Y145.980 E88.5346
G1 X135.269 Y145.980 E88.7156
G1 X135.269 Y141.420 E88.8672
G0 X134.877 Y142.298 F4800
G1 F600 X134.877 Y122.316 E89.5315
G1 X140.541 Y122.316 E89.7197
G1 X141.044 Y121.747 E89.7450
G1 X141.730 Y122.155 E89.7715
G1 X142.774 Y122.648 E89.8099
G1 X144.049 Y123.084 E89.8547
G1 X145.684 Y123.405 E89.9101
G1 X147.219 Y123.480 E89.9612
G1 X148.905 Y123.320 E90.0175
G1 X150.147 Y123.024 E90.0599
G1 X151.137 Y122.687 E90.0947
G1 X152.182 Y122.206 E90.1330
G1 X152.970 Y121.749 E90.1632
G1 X153.472 Y122.316 E90.1884
G1 X166.740 Y122.316 E90.6295
G1 X167.248 Y121.746 E90.6548
G1 X167.863 Y122.117 E90.6787
G1 X168.997 Y122.655 E90.7205
G1 X170.046 Y123.018 E90.7574
G1 X171.145 Y123.280 E90.7949
G1 X172.272 Y123.440 E90.8328
G1 X173.927 Y123.461 E90.8878
G1 X175.450 Y123.257 E90.9389
G1 X177.049 Y122.802 E90.9941
G1 X178.298 Y122.255 E91.0395
G1 X179.168 Y121.746 E91.0730
G1 X179.672 Y122.316 E91.0982
G1 X185.336 Y122.316 E91.2865
G1 X185.336 Y146.370 E92.0862
G1 X179.672 Y146.370 E92.2745
G1 X179.168 Y146.940 E92.2998
G1 X178.480 Y146.532 E92.3264
G1 X177.445 Y146.042 E92.3644
G1 X176.167 Y145.602 E92.4094
G1 X174.528 Y145.282 E92.4649
G1 X172.993 Y145.206 E92.5160
G1 X171.308 Y145.366 E92.5722
G1 X170.067 Y145.662 E92.6147
G1 X169.076 Y146.000 E92.6494
G1 X168.033 Y146.480 E92.6876
G1 X167.240 Y146.938 E92.7181
G1 X166.736 Y146.370 E92.7433
G1 X153.472 Y146.370 E93.1843
G1 X152.968 Y146.940 E93.2096
G1 X152.280 Y146.532 E93.2361
G1 X151.245 Y146.042 E93.2742
G1 X149.967 Y145.602 E93.3191
G1 X148.328 Y145.282 E93.3747
G1 X146.793 Y145.206 E93.4257
G1 X145.108 Y145.366 E93.4820
G1 X143.867 Y145.662 E93.5244
G1 X142.876 Y146.000 E93.5592
G1 X141.833 Y146.480 E93.5974
G1 X141.040 Y146.938 E93.6279
G1 X140.536 Y146.370 E93.6531
G1 X134.877 Y146.370 E93.8412
G1 X134.877 Y142.493 E93.9701
G0 X134.484 Y143.370 F4800
G1 F600 X134.484 Y121.926 E94.6830
G1 X140.363 Y121.926 E94.8785
G1 X140.971 Y121.238 E94.9090
G1 X141.045 Y121.292 E94.9120
G1 X141.916 Y121.811 E94.9457
G1 X142.922 Y122.286 E94.9827
G1 X144.151 Y122.707 E95.0259
G1 X145.732 Y123.016 E95.0794
G1 X147.211 Y123.089 E95.1286
G1 X148.841 Y122.934 E95.1831
G1 X150.038 Y122.649 E95.2240
G1 X150.991 Y122.324 E95.2575
G1 X152.001 Y121.859 E95.2944
G1 X152.897 Y121.340 E95.3289
G1 X153.039 Y121.236 E95.3347
G1 X153.649 Y121.926 E95.3653
G1 X166.563 Y121.926 E95.7946
G1 X167.171 Y121.243 E95.8250
G1 X168.050 Y121.774 E95.8591
G1 X169.147 Y122.294 E95.8995
G1 X170.156 Y122.644 E95.9350
G1 X171.218 Y122.896 E95.9713
G1 X172.303 Y123.050 E96.0077
G1 X173.903 Y123.070 E96.0609
G1 X175.370 Y122.874 E96.1101
G1 X176.915 Y122.434 E96.1635
G1 X178.119 Y121.907 E96.2072
G1 X179.135 Y121.313 E96.2463
G1 X179.240 Y121.237 E96.2506
G1 X179.849 Y121.926 E96.2812
G1 X185.729 Y121.926 E96.4766
G1 X185.729 Y146.760 E97.3022
G1 X179.849 Y146.760 E97.4977
G1 X179.240 Y147.449 E97.5282
G1 X179.160 Y147.390 E97.5315
G1 X178.295 Y146.876 E97.5650
G1 X177.296 Y146.404 E97.6017
G1 X176.064 Y145.980 E97.6450
G1 X174.480 Y145.670 E97.6987
G1 X173.002 Y145.597 E97.7479
G1 X171.373 Y145.752 E97.8023
G1 X170.176 Y146.037 E97.8432
G1 X169.223 Y146.362 E97.8767
G1 X168.214 Y146.826 E97.9136
G1 X167.320 Y147.343 E97.9479
G1 X167.171 Y147.451 E97.9540
G1 X166.559 Y146.760 E97.9847
G1 X153.649 Y146.760 E98.4139
G1 X153.040 Y147.449 E98.4444
G1 X152.960 Y147.390 E98.4477
G1 X152.095 Y146.876 E98.4812
G1 X151.096 Y146.404 E98.5179
G1 X149.864 Y145.980 E98.5612
G1 X148.280 Y145.670 E98.6149
G1 X146.802 Y145.597 E98.6641
G1 X145.173 Y145.752 E98.7185
G1 X143.976 Y146.037 E98.7594
G1 X143.023 Y146.362 E98.7929
G1 X142.014 Y146.826 E98.8298
G1 X141.120 Y147.343 E98.8641
G1 X140.971 Y147.451 E98.8702
G1 X140.359 Y146.760 E98.9009
G1 X134.484 Y146.760 E99.0962
G1 X134.484 Y143.565 E99.2024
G0 X134.092 Y144.443 F4800
G1 F600 X134.092 Y121.536 E99.9639
G1 X140.186 Y121.536 E100.1665
G1 X140.915 Y120.711 E100.2031
G1 X141.263 Y120.968 E100.2175
G1 X142.101 Y121.467 E100.2499
G1 X143.071 Y121.925 E100.2856
G1 X144.253 Y122.329 E100.3271
G1 X145.780 Y122.628 E100.3788
G1 X147.202 Y122.698 E100.4261
G1 X148.776 Y122.549 E100.4787
G1 X149.928 Y122.274 E100.5181
G1 X150.844 Y121.962 E100.5503
G1 X151.819 Y121.513 E100.5859
G1 X152.682 Y121.013 E100.6191
G1 X153.096 Y120.710 E100.6361
G1 X153.827 Y121.536 E100.6728
G1 X166.386 Y121.536 E101.0903
G1 X167.114 Y120.713 E101.1268
G1 X167.391 Y120.920 E101.1383
G1 X168.237 Y121.430 E101.1712
G1 X169.296 Y121.933 E101.2101
G1 X170.267 Y122.269 E101.2443
G1 X171.292 Y122.513 E101.2793
G1 X172.333 Y122.661 E101.3143
G1 X173.879 Y122.680 E101.3657
G1 X175.289 Y122.491 E101.4130
G1 X176.782 Y122.066 E101.4645
G1 X177.939 Y121.559 E101.5066
G1 X178.920 Y120.987 E101.5443
G1 X179.298 Y120.712 E101.5598
G1 X180.027 Y121.536 E101.5964
G1 X186.121 Y121.536 E101.7990
G1 X186.121 Y147.151 E102.6505
G1 X180.027 Y147.151 E102.8531
G1 X179.297 Y147.975 E102.8897
G1 X178.942 Y147.715 E102.9044
G1 X178.109 Y147.220 E102.9366
G1 X177.147 Y146.765 E102.9720
G1 X175.962 Y146.357 E103.0136
G1 X174.433 Y146.058 E103.0654
G1 X173.011 Y145.988 E103.1128
G1 X171.438 Y146.137 E103.1653
G1 X170.286 Y146.412 E103.2047
G1 X169.369 Y146.725 E103.2369
G1 X168.396 Y147.173 E103.2725
G1 X167.535 Y147.670 E103.3055
G1 X167.114 Y147.976 E103.3228
G1 X166.381 Y147.151 E103.3595
G1 X153.827 Y147.151 E103.7769
G1 X153.097 Y147.975 E103.8135
G1 X152.742 Y147.715 E103.8281
G1 X151.909 Y147.220 E103.8603
G1 X150.947 Y146.765 E103.8957
G1 X149.762 Y146.357 E103.9374
G1 X148.233 Y146.058 E103.9892
G1 X146.811 Y145.988 E104.0365
G1 X145.238 Y146.137 E104.0890
G1 X144.086 Y146.412 E104.1284
G1 X143.169 Y146.725 E104.1606
G1 X142.196 Y147.173 E104.1962
G1 X141.335 Y147.670 E104.2293
G1 X140.914 Y147.976 E104.2466
G1 X140.181 Y147.151 E104.2833
G1 X134.092 Y147.151 E104.4857
G1 X134.092 Y144.638 E104.5692
G0 X133.699 Y145.516 F4800
G1 F600 X133.699 Y121.146 E105.3794
G1 X140.008 Y121.146 E105.5891
G1 X140.860 Y120.184 E105.6318
G1 X141.482 Y120.643 E105.6576
G1 X142.287 Y121.123 E105.6887
G1 X143.219 Y121.563 E105.7230
G1 X144.356 Y121.952 E105.7629
G1 X145.828 Y122.240 E105.8128
G1 X147.193 Y122.307 E105.8582
G1 X148.711 Y122.163 E105.9089
G1 X149.818 Y121.899 E105.9468
G1 X150.698 Y121.599 E105.9776
G1 X151.637 Y121.167 E106.0120
G1 X152.466 Y120.687 E106.0439
G1 X153.153 Y120.184 E106.0722
G1 X154.004 Y121.146 E106.1149
G1 X166.208 Y121.146 E106.5206
G1 X167.059 Y120.185 E106.5632
G1 X167.612 Y120.596 E106.5861
G1 X168.424 Y121.087 E106.6177
G1 X169.446 Y121.572 E106.6553
G1 X170.378 Y121.894 E106.6880
G1 X171.365 Y122.129 E106.7218
G1 X172.363 Y122.271 E106.7553
G1 X173.855 Y122.290 E106.8049
G1 X175.208 Y122.108 E106.8503
G1 X176.648 Y121.699 E106.9000
G1 X177.760 Y121.212 E106.9404
G1 X178.704 Y120.660 E106.9768
G1 X179.355 Y120.187 E107.0035
G1 X180.204 Y121.146 E107.0461
G1 X186.514 Y121.146 E107.2558
G1 X186.514 Y147.541 E108.1333
G1 X180.204 Y147.541 E108.3431
G1 X179.353 Y148.502 E108.3857
G1 X178.725 Y148.040 E108.4117
G1 X177.924 Y147.564 E108.4426
G1 X176.997 Y147.127 E108.4767
G1 X175.859 Y146.734 E108.5167
G1 X174.385 Y146.446 E108.5667
G1 X173.020 Y146.379 E108.6121
G1 X171.503 Y146.523 E108.6628
G1 X170.396 Y146.787 E108.7006
G1 X169.516 Y147.087 E108.7315
G1 X168.577 Y147.519 E108.7658
G1 X167.750 Y147.997 E108.7976
G1 X167.057 Y148.502 E108.8261
G1 X166.204 Y147.541 E108.8688
G1 X154.004 Y147.541 E109.2744
G1 X153.153 Y148.502 E109.3171
G1 X152.525 Y148.040 E109.3430
G1 X151.724 Y147.564 E109.3740
G1 X150.797 Y147.127 E109.4080
G1 X149.659 Y146.734 E109.4481
G1 X148.185 Y146.446 E109.4980
G1 X146.820 Y146.379 E109.5434
G1 X145.303 Y146.523 E109.5941
G1 X144.196 Y146.787 E109.6319
G1 X143.316 Y147.087 E109.6628
G1 X142.377 Y147.519 E109.6972
G1 X141.550 Y147.997 E109.7289
G1 X140.857 Y148.502 E109.7575
G1 X140.004 Y147.541 E109.8002
G1 X133.699 Y147.541 E110.0098
G1 X133.699 Y145.711 E110.0706
G0 X132.914 Y147.661 F4800
G1 F600 X132.914 Y120.365 E110.9780
G1 X139.654 Y120.365 E111.2021
G1 X140.780 Y119.092 E111.2586
G1 X141.121 Y119.405 E111.2740
G1 X141.919 Y119.994 E111.3070
G1 X142.658 Y120.434 E111.3356
G1 X143.516 Y120.839 E111.3671
G1 X144.560 Y121.197 E111.4038
G1 X145.924 Y121.464 E111.4500
G1 X147.175 Y121.526 E111.4916
G1 X148.581 Y121.392 E111.5386
G1 X149.599 Y121.149 E111.5734
G1 X150.405 Y120.874 E111.6017
G1 X151.274 Y120.474 E111.6335
G1 X152.034 Y120.034 E111.6627
G1 X152.826 Y119.455 E111.6953
G1 X153.229 Y119.089 E111.7134
G1 X154.359 Y120.365 E111.7700
G1 X165.854 Y120.365 E112.1522
G1 X166.983 Y119.089 E112.2088
G1 X167.345 Y119.423 E112.2252
G1 X168.052 Y119.949 E112.2545
G1 X168.797 Y120.400 E112.2834
G1 X169.745 Y120.849 E112.3183
G1 X170.599 Y121.145 E112.3483
G1 X171.512 Y121.362 E112.3796
G1 X172.424 Y121.492 E112.4102
G1 X173.807 Y121.509 E112.4562
G1 X175.047 Y121.343 E112.4978
G1 X176.380 Y120.964 E112.5438
G1 X177.402 Y120.516 E112.5809
G1 X178.272 Y120.007 E112.6144
G1 X178.962 Y119.507 E112.6428
G1 X179.434 Y119.094 E112.6636
G1 X180.559 Y120.365 E112.7200
G1 X187.299 Y120.365 E112.9441
G1 X187.299 Y148.321 E113.8734
G1 X180.559 Y148.321 E114.0975
G1 X179.432 Y149.594 E114.1540
G1 X179.092 Y149.280 E114.1694
G1 X178.289 Y148.690 E114.2026
G1 X177.553 Y148.253 E114.2310
G1 X176.700 Y147.850 E114.2624
G1 X175.654 Y147.489 E114.2991
G1 X174.289 Y147.222 E114.3454
G1 X173.038 Y147.161 E114.3870
G1 X171.633 Y147.294 E114.4339
G1 X170.615 Y147.537 E114.4687
G1 X169.809 Y147.812 E114.4970
G1 X168.940 Y148.211 E114.5288
G1 X168.180 Y148.650 E114.5580
G1 X167.384 Y149.231 E114.5908
G1 X166.982 Y149.597 E114.6088
G1 X165.850 Y148.321 E114.6655
G1 X154.359 Y148.321 E115.0475
G1 X153.232 Y149.594 E115.1041
G1 X152.892 Y149.280 E115.1195
G1 X152.089 Y148.690 E115.1526
G1 X151.353 Y148.253 E115.1810
G1 X150.500 Y147.850 E115.2124
G1 X149.454 Y147.489 E115.2492
G1 X148.089 Y147.222 E115.2954
G1 X146.838 Y147.161 E115.3371
G1 X145.433 Y147.294 E115.3840
G1 X144.415 Y147.537 E115.4188
G1 X143.609 Y147.812 E115.4471
G1 X142.740 Y148.211 E115.4789
G1 X141.980 Y148.650 E115.5080
G1 X141.184 Y149.231 E115.5408
G1 X140.782 Y149.597 E115.5589
G1 X139.650 Y148.321 E115.6156
G1 X132.914 Y148.321 E115.8395
G1 X132.914 Y147.856 E115.8550
G0 X133.306 Y146.588 F4800
G1 F600 X133.306 Y120.755 E116.7138
G1 X139.831 Y120.755 E116.9306
G1 X140.809 Y119.650 E116.9797
G1 X140.870 Y119.705 E116.9825
G1 X141.700 Y120.318 E117.0168
G1 X142.472 Y120.778 E117.0467
G1 X143.368 Y121.201 E117.0796
G1 X144.458 Y121.574 E117.1179
G1 X145.876 Y121.852 E117.1659
G1 X147.184 Y121.916 E117.2094
G1 X148.646 Y121.778 E117.2583
G1 X149.708 Y121.524 E117.2946
G1 X150.551 Y121.237 E117.3242
G1 X151.455 Y120.821 E117.3573
G1 X152.250 Y120.360 E117.3878
G1 X153.075 Y119.757 E117.4218
G1 X153.199 Y119.645 E117.4273
G1 X154.182 Y120.755 E117.4766
G1 X166.031 Y120.755 E117.8705
G1 X167.011 Y119.647 E117.9197
G1 X167.093 Y119.723 E117.9234
G1 X167.832 Y120.273 E117.9540
G1 X168.610 Y120.743 E117.9842
G1 X169.596 Y121.210 E118.0205
G1 X170.488 Y121.519 E118.0519
G1 X171.439 Y121.746 E118.0844
G1 X172.394 Y121.881 E118.1164
G1 X173.831 Y121.899 E118.1642
G1 X175.128 Y121.725 E118.2077
G1 X176.514 Y121.331 E118.2556
G1 X177.581 Y120.864 E118.2944
G1 X178.488 Y120.334 E118.3293
G1 X179.208 Y119.811 E118.3589
G1 X179.398 Y119.645 E118.3673
G1 X180.382 Y120.755 E118.4166
G1 X186.906 Y120.755 E118.6335
G1 X186.906 Y147.931 E119.5369
G1 X180.381 Y147.931 E119.7538
G1 X179.404 Y149.036 E119.8028
G1 X179.343 Y148.980 E119.8056
G1 X178.507 Y148.365 E119.8401
G1 X177.739 Y147.908 E119.8698
G1 X176.848 Y147.488 E119.9025
G1 X175.757 Y147.112 E119.9409
G1 X174.337 Y146.834 E119.9890
G1 X173.029 Y146.770 E120.0325
G1 X171.568 Y146.909 E120.0813
G1 X170.506 Y147.162 E120.1176
G1 X169.662 Y147.450 E120.1472
G1 X168.758 Y147.865 E120.1803
G1 X167.965 Y148.323 E120.2108
G1 X167.134 Y148.929 E120.2450
G1 X167.012 Y149.041 E120.2505
G1 X166.027 Y147.931 E120.2998
G1 X154.181 Y147.931 E120.6936
G1 X153.204 Y149.036 E120.7426
G1 X153.143 Y148.980 E120.7454
G1 X152.307 Y148.365 E120.7799
G1 X151.539 Y147.908 E120.8096
G1 X150.648 Y147.488 E120.8423
G1 X149.557 Y147.112 E120.8807
G1 X148.137 Y146.834 E120.9288
G1 X146.829 Y146.770 E120.9723
G1 X145.368 Y146.909 E121.0211
G1 X144.306 Y147.162 E121.0574
G1 X143.462 Y147.450 E121.0870
G1 X142.558 Y147.865 E121.1201
G1 X141.765 Y148.323 E121.1506
G1 X140.934 Y148.929 E121.1847
G1 X140.812 Y149.041 E121.1903
G1 X139.827 Y147.931 E121.2396
G1 X133.306 Y147.931 E121.4564
G1 X133.306 Y146.783 E121.4945
G0 X132.544 Y148.711 F4800
G1 F600 X132.521 Y148.711 E121.4952
G1 X132.521 Y119.975 E122.4505
G1 X139.476 Y119.975 E122.6817
G1 X140.752 Y118.534 E122.7457
G1 X141.371 Y119.104 E122.7737
G1 X142.137 Y119.669 E122.8053
G1 X142.844 Y120.090 E122.8327
G1 X143.665 Y120.478 E122.8629
G1 X144.663 Y120.819 E122.8979
G1 X145.972 Y121.076 E122.9423
G1 X147.166 Y121.135 E122.9820
G1 X148.516 Y121.007 E123.0271
G1 X149.489 Y120.774 E123.0604
G1 X150.258 Y120.512 E123.0874
G1 X151.092 Y120.128 E123.1179
G1 X151.819 Y119.707 E123.1458
G1 X152.577 Y119.153 E123.1770
G1 X153.260 Y118.534 E123.2077
G1 X154.537 Y119.975 E123.2717
G1 X165.676 Y119.975 E123.6420
G1 X166.954 Y118.531 E123.7061
G1 X167.597 Y119.124 E123.7352
G1 X168.272 Y119.626 E123.7632
G1 X168.984 Y120.056 E123.7908
G1 X169.895 Y120.488 E123.8243
G1 X170.709 Y120.770 E123.8530
G1 X171.586 Y120.979 E123.8830
G1 X172.455 Y121.102 E123.9121
G1 X173.783 Y121.118 E123.9563
G1 X174.966 Y120.960 E123.9960
G1 X176.246 Y120.596 E124.0402
G1 X177.223 Y120.168 E124.0757
G1 X178.057 Y119.681 E124.1078
G1 X178.716 Y119.202 E124.1349
G1 X179.348 Y118.650 E124.1628
G1 X179.457 Y118.530 E124.1681
G1 X180.737 Y119.975 E124.2323
G1 X187.692 Y119.975 E124.4635
G1 X187.692 Y148.711 E125.4188
G1 X180.736 Y148.711 E125.6500
G1 X179.460 Y150.153 E125.7140
G1 X178.841 Y149.581 E125.7420
G1 X178.071 Y149.015 E125.7738
G1 X177.368 Y148.597 E125.8010
G1 X176.551 Y148.211 E125.8310
G1 X175.551 Y147.867 E125.8662
G1 X174.241 Y147.610 E125.9106
G1 X173.047 Y147.552 E125.9503
G1 X171.697 Y147.680 E125.9954
G1 X170.725 Y147.912 E126.0286
G1 X169.955 Y148.175 E126.0556
G1 X169.121 Y148.558 E126.0862
G1 X168.396 Y148.977 E126.1140
G1 X167.633 Y149.533 E126.1454
G1 X166.952 Y150.153 E126.1760
G1 X165.673 Y148.711 E126.2401
G1 X154.536 Y148.711 E126.6103
G1 X153.260 Y150.153 E126.6743
G1 X152.641 Y149.581 E126.7023
G1 X151.871 Y149.015 E126.7341
G1 X151.168 Y148.597 E126.7613
G1 X150.351 Y148.211 E126.7913
G1 X149.351 Y147.867 E126.8265
G1 X148.041 Y147.610 E126.8709
G1 X146.847 Y147.552 E126.9106
G1 X145.497 Y147.680 E126.9557
G1 X144.525 Y147.912 E126.9889
G1 X143.755 Y148.175 E127.0160
G1 X142.921 Y148.558 E127.0465
G1 X142.196 Y148.977 E127.0743
G1 X141.433 Y149.533 E127.1057
G1 X140.752 Y150.153 E127.1363
G1 X139.473 Y148.711 E127.2004
G1 X132.740 Y148.711 E127.4242
G0 X133.623 Y149.101 F4800
G1 F600 X132.129 Y149.101 E127.4739
G1 X132.129 Y119.585 E128.4551
G1 X139.299 Y119.585 E128.6935
G1 X140.746 Y117.949 E128.7661
G1 X140.982 Y118.214 E128.7779
G1 X141.622 Y118.803 E128.8068
G1 X142.356 Y119.344 E128.8371
G1 X143.029 Y119.746 E128.8632
G1 X143.814 Y120.116 E128.8920
G1 X144.765 Y120.442 E128.9254
G1 X146.020 Y120.688 E128.9679
G1 X147.157 Y120.744 E129.0058
G1 X148.452 Y120.621 E129.0490
G1 X149.379 Y120.399 E129.0807
G1 X150.112 Y120.149 E129.1064
G1 X150.911 Y119.782 E129.1356
G1 X151.603 Y119.381 E129.1622
G1 X152.329 Y118.850 E129.1921
G1 X152.922 Y118.323 E129.2185
G1 X153.265 Y117.950 E129.2354
G1 X154.714 Y119.585 E129.3080
G1 X165.499 Y119.585 E129.6665
G1 X166.946 Y117.949 E129.7391
G1 X167.137 Y118.167 E129.7488
G1 X167.849 Y118.824 E129.7810
G1 X168.492 Y119.303 E129.8076
G1 X169.171 Y119.713 E129.8340
G1 X170.044 Y120.127 E129.8661
G1 X170.820 Y120.395 E129.8934
G1 X171.659 Y120.595 E129.9221
G1 X172.485 Y120.712 E129.9498
G1 X173.759 Y120.728 E129.9922
G1 X174.886 Y120.577 E130.0299
G1 X176.113 Y120.229 E130.0723
G1 X177.043 Y119.820 E130.1061
G1 X177.841 Y119.354 E130.1368
G1 X178.470 Y118.898 E130.1627
G1 X179.072 Y118.371 E130.1893
G1 X179.461 Y117.945 E130.2085
G1 X180.914 Y119.585 E130.2813
G1 X188.084 Y119.585 E130.5197
G1 X188.084 Y149.101 E131.5009
G1 X180.914 Y149.101 E131.7393
G1 X179.466 Y150.737 E131.8119
G1 X179.230 Y150.473 E131.8237
G1 X178.590 Y149.881 E131.8526
G1 X177.853 Y149.339 E131.8831
G1 X177.183 Y148.941 E131.9090
G1 X176.402 Y148.573 E131.9377
G1 X175.449 Y148.244 E131.9712
G1 X174.193 Y147.999 E132.0137
G1 X173.056 Y147.942 E132.0516
G1 X171.762 Y148.065 E132.0948
G1 X170.835 Y148.287 E132.1265
G1 X170.101 Y148.537 E132.1522
G1 X169.302 Y148.904 E132.1815
G1 X168.611 Y149.303 E132.2080
G1 X167.881 Y149.836 E132.2380
G1 X167.290 Y150.364 E132.2644
G1 X166.946 Y150.737 E132.2813
G1 X165.496 Y149.101 E132.3539
G1 X154.714 Y149.101 E132.7124
G1 X153.266 Y150.737 E132.7850
G1 X153.030 Y150.473 E132.7967
G1 X152.390 Y149.881 E132.8257
G1 X151.653 Y149.339 E132.8561
G1 X150.983 Y148.941 E132.8821
G1 X150.202 Y148.573 E132.9108
G1 X149.249 Y148.244 E132.9443
G1 X147.993 Y147.999 E132.9868
G1 X146.856 Y147.942 E133.0247
G1 X145.562 Y148.065 E133.0679
G1 X144.635 Y148.287 E133.0996
G1 X143.901 Y148.537 E133.1253
G1 X143.102 Y148.904 E133.1545
G1 X142.411 Y149.303 E133.1811
G1 X141.681 Y149.836 E133.2111
G1 X141.090 Y150.364 E133.2375
G1 X140.746 Y150.737 E133.2543
G1 X139.296 Y149.101 E133.3270
G1 X133.819 Y149.101 E133.5091
G0 X134.702 Y149.491 F4800
G1 F600 X131.736 Y149.491 E133.6077
G1 X131.736 Y119.195 E134.6148
G1 X139.121 Y119.195 E134.8603
G1 X140.690 Y117.422 E134.9390
G1 X140.765 Y117.382 E134.9419
G1 X141.263 Y117.941 E134.9668
G1 X141.873 Y118.503 E134.9943
G1 X142.574 Y119.020 E135.0233
G1 X143.215 Y119.402 E135.0481
G1 X143.962 Y119.754 E135.0755
G1 X144.868 Y120.064 E135.1073
G1 X146.068 Y120.300 E135.1480
G1 X147.148 Y120.353 E135.1840
G1 X148.387 Y120.235 E135.2253
G1 X149.269 Y120.024 E135.2555
G1 X149.965 Y119.787 E135.2799
G1 X150.729 Y119.436 E135.3079
G1 X151.387 Y119.055 E135.3332
G1 X152.081 Y118.547 E135.3617
G1 X152.645 Y118.046 E135.3868
G1 X153.207 Y117.435 E135.4144
G1 X153.318 Y117.418 E135.4181
G1 X154.891 Y119.195 E135.4970
G1 X165.321 Y119.195 E135.8438
G1 X166.890 Y117.422 E135.9224
G1 X166.955 Y117.366 E135.9253
G1 X167.419 Y117.895 E135.9487
G1 X168.101 Y118.524 E135.9795
G1 X168.712 Y118.979 E136.0049
G1 X169.358 Y119.369 E136.0299
G1 X170.194 Y119.766 E136.0607
G1 X170.930 Y120.021 E136.0866
G1 X171.733 Y120.212 E136.1141
G1 X172.515 Y120.323 E136.1403
G1 X173.735 Y120.338 E136.1809
G1 X174.805 Y120.194 E136.2168
G1 X175.979 Y119.861 E136.2573
G1 X176.864 Y119.473 E136.2895
G1 X177.625 Y119.028 E136.3188
G1 X178.224 Y118.593 E136.3434
G1 X178.796 Y118.093 E136.3686
G1 X179.459 Y117.367 E136.4013
G1 X179.518 Y117.418 E136.4039
G1 X181.091 Y119.195 E136.4828
G1 X188.477 Y119.195 E136.7283
G1 X188.477 Y149.491 E137.7355
G1 X181.091 Y149.491 E137.9810
G1 X179.521 Y151.265 E138.0598
G1 X179.447 Y151.304 E138.0625
G1 X178.949 Y150.746 E138.0874
G1 X178.339 Y150.182 E138.1150
G1 X177.635 Y149.664 E138.1441
G1 X176.997 Y149.285 E138.1687
G1 X176.253 Y148.934 E138.1961
G1 X175.346 Y148.622 E138.2280
G1 X174.145 Y148.387 E138.2687
G1 X173.065 Y148.333 E138.3046
G1 X171.827 Y148.451 E138.3460
G1 X170.945 Y148.662 E138.3761
G1 X170.248 Y148.900 E138.4006
G1 X169.484 Y149.250 E138.4285
G1 X168.827 Y149.630 E138.4538
G1 X168.129 Y150.139 E138.4825
G1 X167.567 Y150.641 E138.5075
G1 X167.005 Y151.251 E138.5351
G1 X166.894 Y151.268 E138.5388
G1 X165.318 Y149.491 E138.6178
G1 X154.891 Y149.491 E138.9644
G1 X153.321 Y151.265 E139.0432
G1 X153.247 Y151.304 E139.0460
G1 X152.749 Y150.746 E139.0708
G1 X152.139 Y150.182 E139.0984
G1 X151.435 Y149.664 E139.1275
G1 X150.797 Y149.285 E139.1521
G1 X150.053 Y148.934 E139.1795
G1 X149.146 Y148.622 E139.2114
G1 X147.945 Y148.387 E139.2521
G1 X146.865 Y148.333 E139.2880
G1 X145.627 Y148.451 E139.3294
G1 X144.745 Y148.662 E139.3595
G1 X144.048 Y148.900 E139.3840
G1 X143.284 Y149.250 E139.4119
G1 X142.627 Y149.630 E139.4372
G1 X141.929 Y150.139 E139.4659
G1 X141.367 Y150.641 E139.4909
G1 X140.805 Y151.251 E139.5185
G1 X140.713 Y151.289 E139.5218
G1 X139.119 Y149.491 E139.6017
G1 X134.899 Y149.491 E139.7420
G0 X135.782 Y149.882 F4800
G1 F600 X131.344 Y149.882 E139.8895
G1 X131.344 Y118.805 E140.9226
G1 X138.944 Y118.805 E141.1753
G1 X140.412 Y117.145 E141.2490
G1 X140.719 Y116.880 E141.2625
G1 X140.834 Y116.813 E141.2669
G1 X141.072 Y117.138 E141.2802
G1 X141.544 Y117.668 E141.3039
G1 X142.124 Y118.202 E141.3301
G1 X142.793 Y118.695 E141.3577
G1 X143.400 Y119.057 E141.3812
G1 X144.111 Y119.392 E141.4073
G1 X144.970 Y119.687 E141.4375
G1 X146.116 Y119.911 E141.4763
G1 X147.139 Y119.962 E141.5104
G1 X148.322 Y119.850 E141.5499
G1 X149.159 Y119.649 E141.5785
G1 X149.819 Y119.424 E141.6016
G1 X150.548 Y119.089 E141.6283
G1 X151.172 Y118.728 E141.6523
G1 X151.834 Y118.244 E141.6795
G1 X152.369 Y117.768 E141.7033
G1 X152.903 Y117.188 E141.7296
G1 X153.178 Y116.813 E141.7450
G1 X153.286 Y116.874 E141.7491
G1 X153.595 Y117.141 E141.7627
G1 X155.069 Y118.805 E141.8366
G1 X165.144 Y118.805 E142.1715
G1 X166.612 Y117.145 E142.2452
G1 X166.919 Y116.880 E142.2587
G1 X167.033 Y116.814 E142.2630
G1 X167.225 Y117.080 E142.2739
G1 X167.701 Y117.623 E142.2979
G1 X168.353 Y118.224 E142.3274
G1 X168.932 Y118.656 E142.3514
G1 X169.545 Y119.026 E142.3752
G1 X170.344 Y119.404 E142.4046
G1 X171.041 Y119.646 E142.4291
G1 X171.806 Y119.828 E142.4553
G1 X172.546 Y119.933 E142.4801
G1 X173.711 Y119.947 E142.5189
G1 X174.725 Y119.811 E142.5529
G1 X175.845 Y119.493 E142.5916
G1 X176.685 Y119.125 E142.6221
G1 X177.410 Y118.701 E142.6500
G1 X177.979 Y118.289 E142.6733
G1 X178.521 Y117.814 E142.6973
G1 X179.126 Y117.158 E142.7270
G1 X179.377 Y116.813 E142.7412
G1 X179.486 Y116.874 E142.7453
G1 X179.795 Y117.141 E142.7589
G1 X181.269 Y118.805 E142.8328
G1 X188.869 Y118.805 E143.0855
G1 X188.869 Y149.882 E144.1186
G1 X181.268 Y149.882 E144.3713
G1 X179.799 Y151.542 E144.4450
G1 X179.494 Y151.806 E144.4584
G1 X179.378 Y151.873 E144.4628
G1 X179.141 Y151.548 E144.4762
G1 X178.668 Y151.019 E144.4998
G1 X178.088 Y150.483 E144.5260
G1 X177.417 Y149.989 E144.5537
G1 X176.812 Y149.630 E144.5771
G1 X176.104 Y149.296 E144.6031
G1 X175.244 Y148.999 E144.6334
G1 X174.097 Y148.775 E144.6722
G1 X173.074 Y148.724 E144.7063
G1 X171.892 Y148.836 E144.7457
G1 X171.054 Y149.037 E144.7744
G1 X170.394 Y149.262 E144.7976
G1 X169.665 Y149.596 E144.8242
G1 X169.042 Y149.957 E144.8482
G1 X168.377 Y150.442 E144.8755
G1 X167.844 Y150.918 E144.8993
G1 X167.309 Y151.499 E144.9255
G1 X167.035 Y151.873 E144.9410
G1 X166.925 Y151.811 E144.9451
G1 X166.618 Y151.546 E144.9586
G1 X165.141 Y149.882 E145.0326
G1 X155.068 Y149.882 E145.3674
G1 X153.599 Y151.542 E145.4411
G1 X153.294 Y151.806 E145.4546
G1 X153.178 Y151.873 E145.4590
G1 X152.941 Y151.548 E145.4724
G1 X152.468 Y151.019 E145.4960
G1 X151.888 Y150.483 E145.5222
G1 X151.217 Y149.989 E145.5499
G1 X150.612 Y149.630 E145.5733
G1 X149.904 Y149.296 E145.5993
G1 X149.044 Y148.999 E145.6296
G1 X147.897 Y148.775 E145.6684
G1 X146.874 Y148.724 E145.7025
G1 X145.692 Y148.836 E145.7419
G1 X144.854 Y149.037 E145.7706
G1 X144.194 Y149.262 E145.7938
G1 X143.465 Y149.596 E145.8204
G1 X142.842 Y149.957 E145.8444
G1 X142.177 Y150.442 E145.8717
G1 X141.644 Y150.918 E145.8955
G1 X141.109 Y151.499 E145.9217
G1 X140.832 Y151.877 E145.9373
G1 X140.558 Y151.681 E145.9485
G1 X140.430 Y151.559 E145.9544
G1 X138.941 Y149.882 E146.0289
G1 X135.978 Y149.882 E146.1274
G0 X136.861 Y150.272 F4800
G1 F600 X130.951 Y150.272 E146.3239
G1 X130.951 Y118.415 E147.3830
G1 X138.766 Y118.415 E147.6428
G1 X140.135 Y116.868 E147.7114
G1 X140.490 Y116.561 E147.7270
G1 X140.945 Y116.300 E147.7444
G1 X141.378 Y116.893 E147.7689
G1 X141.825 Y117.395 E147.7912
G1 X142.375 Y117.902 E147.8161
G1 X143.011 Y118.370 E147.8423
G1 X143.586 Y118.713 E147.8646
G1 X144.259 Y119.031 E147.8893
G1 X145.072 Y119.309 E147.9179
G1 X146.164 Y119.523 E147.9549
G1 X147.130 Y119.571 E147.9870
G1 X148.257 Y119.464 E148.0247
G1 X149.049 Y119.274 E148.0517
G1 X149.672 Y119.062 E148.0736
G1 X150.366 Y118.743 E148.0990
G1 X150.956 Y118.402 E148.1217
G1 X151.586 Y117.941 E148.1476
G1 X152.092 Y117.491 E148.1702
G1 X152.598 Y116.940 E148.1950
G1 X153.068 Y116.302 E148.2214
G1 X153.514 Y116.554 E148.2384
G1 X153.872 Y116.864 E148.2541
G1 X155.246 Y118.415 E148.3230
G1 X164.966 Y118.415 E148.6462
G1 X166.335 Y116.868 E148.7148
G1 X166.690 Y116.561 E148.7304
G1 X167.144 Y116.300 E148.7478
G1 X167.533 Y116.838 E148.7698
G1 X167.983 Y117.351 E148.7925
G1 X168.605 Y117.924 E148.8207
G1 X169.153 Y118.332 E148.8434
G1 X169.731 Y118.682 E148.8658
G1 X170.493 Y119.043 E148.8939
G1 X171.151 Y119.271 E148.9170
G1 X171.880 Y119.444 E148.9419
G1 X172.576 Y119.543 E148.9653
G1 X173.687 Y119.557 E149.0022
G1 X174.644 Y119.429 E149.0343
G1 X175.711 Y119.126 E149.0712
G1 X176.505 Y118.777 E149.1000
G1 X177.194 Y118.375 E149.1265
G1 X177.733 Y117.985 E149.1487
G1 X178.246 Y117.535 E149.1713
G1 X178.822 Y116.911 E149.1996
G1 X179.265 Y116.301 E149.2246
G1 X179.714 Y116.554 E149.2418
G1 X180.072 Y116.864 E149.2575
G1 X181.446 Y118.415 E149.3264
G1 X189.262 Y118.415 E149.5862
G1 X189.262 Y150.272 E150.6453
G1 X181.446 Y150.272 E150.9051
G1 X180.077 Y151.818 E150.9737
G1 X179.723 Y152.126 E150.9893
G1 X179.268 Y152.385 E151.0067
G1 X178.835 Y151.793 E151.0311
G1 X178.387 Y151.291 E151.0535
G1 X177.837 Y150.783 E151.0784
G1 X177.199 Y150.314 E151.1047
G1 X176.627 Y149.974 E151.1268
G1 X175.955 Y149.657 E151.1515
G1 X175.141 Y149.377 E151.1802
G1 X174.049 Y149.163 E151.2172
G1 X173.083 Y149.115 E151.2493
G1 X171.957 Y149.222 E151.2869
G1 X171.164 Y149.412 E151.3140
G1 X170.540 Y149.625 E151.3359
G1 X169.847 Y149.943 E151.3613
G1 X169.257 Y150.284 E151.3839
G1 X168.624 Y150.745 E151.4100
G1 X168.120 Y151.195 E151.4324
G1 X167.613 Y151.746 E151.4573
G1 X167.145 Y152.385 E151.4836
G1 X166.697 Y152.131 E151.5007
G1 X166.341 Y151.823 E151.5164
G1 X164.964 Y150.272 E151.5853
G1 X155.246 Y150.272 E151.9084
G1 X153.877 Y151.818 E151.9771
G1 X153.523 Y152.126 E151.9927
G1 X153.068 Y152.385 E152.0101
G1 X152.635 Y151.793 E152.0345
G1 X152.187 Y151.291 E152.0568
G1 X151.637 Y150.783 E152.0817
G1 X150.999 Y150.314 E152.1081
G1 X150.427 Y149.974 E152.1302
G1 X149.755 Y149.657 E152.1549
G1 X148.941 Y149.377 E152.1835
G1 X147.849 Y149.163 E152.2205
G1 X146.883 Y149.115 E152.2527
G1 X145.757 Y149.222 E152.2903
G1 X144.964 Y149.412 E152.3174
G1 X144.340 Y149.625 E152.3393
G1 X143.647 Y149.943 E152.3646
G1 X143.057 Y150.284 E152.3873
G1 X142.424 Y150.745 E152.4133
G1 X141.920 Y151.195 E152.4358
G1 X141.413 Y151.746 E152.4607
G1 X140.945 Y152.385 E152.4870
G1 X140.701 Y152.264 E152.4960
G1 X140.307 Y151.982 E152.5122
G1 X140.147 Y151.830 E152.5195
G1 X138.764 Y150.272 E152.5888
G1 X137.057 Y150.272 E152.6455
G0 X137.940 Y150.662 F4800
G1 F600 X130.558 Y150.662 E152.8909
G1 X130.558 Y118.024 E153.9759
G1 X138.589 Y118.024 E154.2429
G1 X139.857 Y116.591 E154.3065
G1 X140.258 Y116.244 E154.3241
G1 X140.721 Y115.968 E154.3420
G1 X141.111 Y115.817 E154.3559
G1 X141.247 Y116.051 E154.3649
G1 X141.684 Y116.649 E154.3895
G1 X142.106 Y117.123 E154.4107
G1 X142.626 Y117.601 E154.4341
G1 X143.230 Y118.045 E154.4591
G1 X143.771 Y118.369 E154.4800
G1 X144.408 Y118.669 E154.5034
G1 X145.175 Y118.932 E154.5304
G1 X146.212 Y119.135 E154.5655
G1 X147.121 Y119.180 E154.5958
G1 X148.192 Y119.079 E154.6315
G1 X148.939 Y118.899 E154.6571
G1 X149.526 Y118.699 E154.6777
G1 X150.185 Y118.397 E154.7018
G1 X150.740 Y118.075 E154.7231
G1 X151.339 Y117.638 E154.7477
G1 X151.816 Y117.213 E154.7690
G1 X152.294 Y116.693 E154.7925
G1 X152.737 Y116.092 E154.8173
G1 X152.897 Y115.825 E154.8276
G1 X153.283 Y115.965 E154.8413
G1 X153.745 Y116.236 E154.8591
G1 X154.149 Y116.586 E154.8769
G1 X155.424 Y118.024 E154.9408
G1 X164.789 Y118.024 E155.2521
G1 X166.057 Y116.591 E155.3157
G1 X166.458 Y116.244 E155.3334
G1 X166.921 Y115.968 E155.3513
G1 X167.314 Y115.816 E155.3653
G1 X167.475 Y116.090 E155.3758
G1 X167.840 Y116.595 E155.3966
G1 X168.265 Y117.079 E155.4180
G1 X168.857 Y117.624 E155.4447
G1 X169.373 Y118.009 E155.4661
G1 X169.918 Y118.339 E155.4873
G1 X170.643 Y118.682 E155.5140
G1 X171.262 Y118.897 E155.5358
G1 X171.953 Y119.061 E155.5594
G1 X172.606 Y119.154 E155.5813
G1 X173.663 Y119.166 E155.6165
G1 X174.564 Y119.046 E155.6467
G1 X175.578 Y118.758 E155.6817
G1 X176.326 Y118.430 E155.7089
G1 X176.979 Y118.048 E155.7340
G1 X177.487 Y117.680 E155.7549
G1 X177.971 Y117.256 E155.7762
G1 X178.518 Y116.663 E155.8031
G1 X178.901 Y116.146 E155.8245
G1 X179.093 Y115.824 E155.8369
G1 X179.483 Y115.965 E155.8507
G1 X179.945 Y116.236 E155.8685
G1 X180.349 Y116.586 E155.8863
G1 X181.624 Y118.024 E155.9502
G1 X189.655 Y118.024 E156.2172
G1 X189.655 Y150.662 E157.3021
G1 X181.623 Y150.662 E157.5691
G1 X180.355 Y152.095 E157.6328
G1 X179.955 Y152.442 E157.6504
G1 X179.493 Y152.717 E157.6682
G1 X179.101 Y152.869 E157.6822
G1 X178.966 Y152.636 E157.6912
G1 X178.529 Y152.038 E157.7158
G1 X178.106 Y151.564 E157.7369
G1 X177.586 Y151.084 E157.7604
G1 X176.981 Y150.639 E157.7854
G1 X176.442 Y150.318 E157.8063
G1 X175.807 Y150.019 E157.8296
G1 X175.038 Y149.754 E157.8566
G1 X174.001 Y149.551 E157.8917
G1 X173.091 Y149.506 E157.9220
G1 X172.022 Y149.608 E157.9577
G1 X171.274 Y149.787 E157.9833
G1 X170.686 Y149.987 E158.0039
G1 X170.028 Y150.289 E158.0280
G1 X169.473 Y150.610 E158.0493
G1 X168.872 Y151.048 E158.0740
G1 X168.397 Y151.473 E158.0952
G1 X167.918 Y151.993 E158.1187
G1 X167.476 Y152.595 E158.1435
G1 X167.317 Y152.862 E158.1539
G1 X166.930 Y152.722 E158.1675
G1 X166.467 Y152.448 E158.1854
G1 X166.064 Y152.101 E158.2031
G1 X164.787 Y150.662 E158.2671
G1 X155.423 Y150.662 E158.5783
G1 X154.155 Y152.095 E158.6420
G1 X153.755 Y152.442 E158.6596
G1 X153.293 Y152.717 E158.6775
G1 X152.901 Y152.869 E158.6914
G1 X152.766 Y152.636 E158.7004
G1 X152.329 Y152.038 E158.7250
G1 X151.906 Y151.564 E158.7461
G1 X151.386 Y151.084 E158.7696
G1 X150.781 Y150.639 E158.7946
G1 X150.241 Y150.318 E158.8155
G1 X149.607 Y150.019 E158.8388
G1 X148.838 Y149.754 E158.8658
G1 X147.801 Y149.551 E158.9010
G1 X146.891 Y149.506 E158.9312
G1 X145.822 Y149.608 E158.9669
G1 X145.074 Y149.787 E158.9925
G1 X144.486 Y149.987 E159.0131
G1 X143.828 Y150.289 E159.0372
G1 X143.273 Y150.610 E159.0585
G1 X142.672 Y151.048 E159.0832
G1 X142.197 Y151.473 E159.1044
G1 X141.718 Y151.993 E159.1280
G1 X141.276 Y152.595 E159.1528
G1 X141.117 Y152.862 E159.1631
G1 X140.730 Y152.722 E159.1767
G1 X140.493 Y152.596 E159.1857
G1 X140.056 Y152.282 E159.2036
G1 X139.864 Y152.101 E159.2124
G1 X138.587 Y150.662 E159.2763
G1 X138.136 Y150.662 E159.2913
G0 X138.813 Y151.506 F4800
G1 F600 X138.410 Y151.052 E159.3115
G1 X130.166 Y151.052 E159.5856
G1 X130.166 Y117.634 E160.6965
G1 X138.412 Y117.634 E160.9706
G1 X139.574 Y116.321 E161.0289
G1 X139.791 Y116.115 E161.0388
G1 X140.027 Y115.928 E161.0489
G1 X140.282 Y115.761 E161.0590
G1 X140.551 Y115.616 E161.0691
G1 X140.830 Y115.498 E161.0792
G1 X141.109 Y115.408 E161.0890
G1 X141.306 Y115.372 E161.0956
G1 X141.576 Y115.838 E161.1135
G1 X141.990 Y116.404 E161.1369
G1 X142.387 Y116.850 E161.1567
G1 X142.877 Y117.300 E161.1788
G1 X143.448 Y117.721 E161.2024
G1 X143.957 Y118.025 E161.2221
G1 X144.556 Y118.307 E161.2441
G1 X145.277 Y118.555 E161.2695
G1 X146.260 Y118.747 E161.3028
G1 X147.112 Y118.789 E161.3312
G1 X148.127 Y118.693 E161.3650
G1 X148.829 Y118.524 E161.3890
G1 X149.380 Y118.337 E161.4084
G1 X150.003 Y118.050 E161.4312
G1 X150.525 Y117.749 E161.4512
G1 X151.091 Y117.335 E161.4745
G1 X151.539 Y116.936 E161.4945
G1 X151.990 Y116.445 E161.5166
G1 X152.409 Y115.877 E161.5401
G1 X152.711 Y115.372 E161.5597
G1 X153.171 Y115.494 E161.5755
G1 X153.452 Y115.612 E161.5856
G1 X153.722 Y115.755 E161.5958
G1 X153.975 Y115.920 E161.6058
G1 X154.214 Y116.109 E161.6160
G1 X154.432 Y116.315 E161.6260
G1 X155.601 Y117.634 E161.6845
G1 X164.612 Y117.634 E161.9841
G1 X165.774 Y116.321 E162.0424
G1 X165.991 Y116.115 E162.0523
G1 X166.227 Y115.928 E162.0623
G1 X166.482 Y115.761 E162.0725
G1 X166.751 Y115.616 E162.0826
G1 X167.030 Y115.498 E162.0927
G1 X167.309 Y115.408 E162.1025
G1 X167.508 Y115.372 E162.1092
G1 X167.804 Y115.877 E162.1286
G1 X168.148 Y116.353 E162.1481
G1 X168.547 Y116.807 E162.1682
G1 X169.109 Y117.324 E162.1936
G1 X169.593 Y117.685 E162.2137
G1 X170.105 Y117.995 E162.2336
G1 X170.792 Y118.321 E162.2589
G1 X171.372 Y118.522 E162.2793
G1 X172.027 Y118.677 E162.3017
G1 X172.637 Y118.764 E162.3221
G1 X173.639 Y118.776 E162.3555
G1 X174.483 Y118.663 E162.3838
G1 X175.444 Y118.391 E162.4170
G1 X176.146 Y118.082 E162.4425
G1 X176.763 Y117.722 E162.4662
G1 X177.241 Y117.376 E162.4858
G1 X177.696 Y116.977 E162.5059
G1 X178.215 Y116.415 E162.5314
G1 X178.574 Y115.931 E162.5514
G1 X178.906 Y115.371 E162.5731
G1 X179.371 Y115.494 E162.5890
G1 X179.652 Y115.612 E162.5992
G1 X179.922 Y115.755 E162.6093
G1 X180.175 Y115.920 E162.6194
G1 X180.414 Y116.109 E162.6295
G1 X180.632 Y116.315 E162.6395
G1 X181.801 Y117.634 E162.6981
G1 X190.047 Y117.634 E162.9722
G1 X190.047 Y151.052 E164.0831
G1 X181.801 Y151.052 E164.3573
G1 X180.638 Y152.366 E164.4156
G1 X180.422 Y152.572 E164.4255
G1 X180.186 Y152.758 E164.4355
G1 X179.932 Y152.925 E164.4456
G1 X179.663 Y153.068 E164.4557
G1 X179.382 Y153.188 E164.4659
G1 X179.103 Y153.278 E164.4756
G1 X178.906 Y153.314 E164.4823
G1 X178.636 Y152.849 E164.5002
G1 X178.222 Y152.282 E164.5235
G1 X177.825 Y151.837 E164.5433
G1 X177.335 Y151.384 E164.5655
G1 X176.763 Y150.964 E164.5891
G1 X176.256 Y150.662 E164.6087
G1 X175.658 Y150.380 E164.6307
G1 X174.936 Y150.132 E164.6561
G1 X173.953 Y149.939 E164.6894
G1 X173.100 Y149.897 E164.7178
G1 X172.087 Y149.993 E164.7516
G1 X171.384 Y150.162 E164.7756
G1 X170.833 Y150.350 E164.7950
G1 X170.210 Y150.635 E164.8178
G1 X169.688 Y150.937 E164.8378
G1 X169.120 Y151.352 E164.8612
G1 X168.673 Y151.750 E164.8811
G1 X168.222 Y152.241 E164.9033
G1 X167.804 Y152.810 E164.9267
G1 X167.503 Y153.315 E164.9463
G1 X167.041 Y153.192 E164.9622
G1 X166.761 Y153.074 E164.9723
G1 X166.492 Y152.932 E164.9824
G1 X166.237 Y152.765 E164.9925
G1 X165.998 Y152.577 E165.0026
G1 X165.781 Y152.371 E165.0126
G1 X164.610 Y151.052 E165.0712
G1 X155.601 Y151.052 E165.3707
G1 X154.438 Y152.366 E165.4290
G1 X154.222 Y152.572 E165.4390
G1 X153.986 Y152.758 E165.4490
G1 X153.732 Y152.925 E165.4590
G1 X153.463 Y153.068 E165.4692
G1 X153.182 Y153.188 E165.4793
G1 X152.903 Y153.278 E165.4891
G1 X152.706 Y153.314 E165.4957
G1 X152.437 Y152.849 E165.5136
G1 X152.022 Y152.282 E165.5369
G1 X151.625 Y151.837 E165.5568
G1 X151.135 Y151.384 E165.5789
G1 X150.563 Y150.964 E165.6026
G1 X150.056 Y150.662 E165.6222
G1 X149.458 Y150.380 E165.6442
G1 X148.736 Y150.132 E165.6695
G1 X147.753 Y149.939 E165.7028
G1 X146.900 Y149.897 E165.7312
G1 X145.887 Y149.993 E165.7651
G1 X145.184 Y150.162 E165.7891
G1 X144.633 Y150.350 E165.8084
G1 X144.010 Y150.635 E165.8312
G1 X143.488 Y150.937 E165.8513
G1 X142.920 Y151.352 E165.8746
G1 X142.473 Y151.750 E165.8946
G1 X142.022 Y152.241 E165.9167
G1 X141.604 Y152.810 E165.9402
G1 X141.303 Y153.315 E165.9597
G1 X140.841 Y153.192 E165.9756
G1 X140.561 Y153.074 E165.9857
G1 X140.292 Y152.932 E165.9958
G1 X140.037 Y152.765 E166.0060
G1 X139.798 Y152.577 E166.0161
G1 X139.581 Y152.371 E166.0260
G1 X138.943 Y151.653 E166.0580
G0 X139.233 Y152.569 F4800
G1 F600 X138.233 Y151.442 E166.1080
G1 X129.773 Y151.442 E166.3893
G1 X129.773 Y117.244 E167.5261
G1 X138.234 Y117.244 E167.8074
G1 X139.291 Y116.050 E167.8604
G1 X139.532 Y115.821 E167.8715
G1 X139.796 Y115.612 E167.8827
G1 X140.080 Y115.426 E167.8940
G1 X140.380 Y115.265 E167.9053
G1 X140.692 Y115.132 E167.9165
G1 X141.013 Y115.029 E167.9278
G1 X141.531 Y114.935 E167.9452
G1 X141.625 Y115.140 E167.9527
G1 X141.906 Y115.625 E167.9714
G1 X142.297 Y116.160 E167.9934
G1 X142.668 Y116.577 E168.0120
G1 X143.128 Y117.000 E168.0327
G1 X143.666 Y117.396 E168.0549
G1 X144.143 Y117.680 E168.0734
G1 X144.705 Y117.945 E168.0940
G1 X145.380 Y118.177 E168.1178
G1 X146.308 Y118.359 E168.1492
G1 X147.103 Y118.398 E168.1757
G1 X148.062 Y118.307 E168.2077
G1 X148.719 Y118.149 E168.2302
G1 X149.233 Y117.974 E168.2482
G1 X149.822 Y117.704 E168.2697
G1 X150.309 Y117.422 E168.2884
G1 X150.843 Y117.031 E168.3104
G1 X151.263 Y116.658 E168.3291
G1 X151.686 Y116.198 E168.3499
G1 X152.081 Y115.662 E168.3720
G1 X152.364 Y115.188 E168.3904
G1 X152.484 Y114.934 E168.3997
G1 X152.985 Y115.025 E168.4167
G1 X153.308 Y115.128 E168.4279
G1 X153.621 Y115.260 E168.4392
G1 X153.922 Y115.419 E168.4505
G1 X154.205 Y115.604 E168.4618
G1 X154.472 Y115.814 E168.4731
G1 X154.715 Y116.044 E168.4842
G1 X155.778 Y117.244 E168.5375
G1 X164.434 Y117.244 E168.8252
G1 X165.491 Y116.050 E168.8782
G1 X165.732 Y115.821 E168.8893
G1 X165.996 Y115.612 E168.9005
G1 X166.280 Y115.426 E168.9118
G1 X166.580 Y115.265 E168.9231
G1 X166.892 Y115.132 E168.9344
G1 X167.213 Y115.029 E168.9456
G1 X167.729 Y114.935 E168.9630
G1 X167.792 Y115.082 E168.9683
G1 X168.134 Y115.664 E168.9908
G1 X168.456 Y116.110 E169.0091
G1 X168.829 Y116.535 E169.0279
G1 X169.360 Y117.025 E169.0519
G1 X169.814 Y117.362 E169.0707
G1 X170.293 Y117.652 E169.0893
G1 X170.942 Y117.959 E169.1132
G1 X171.483 Y118.147 E169.1322
G1 X172.101 Y118.294 E169.1533
G1 X172.667 Y118.374 E169.1723
G1 X173.615 Y118.386 E169.2038
G1 X174.403 Y118.280 E169.2303
G1 X175.310 Y118.023 E169.2616
G1 X175.967 Y117.735 E169.2855
G1 X176.547 Y117.395 E169.3078
G1 X176.995 Y117.071 E169.3262
G1 X177.420 Y116.699 E169.3450
G1 X177.911 Y116.166 E169.3690
G1 X178.247 Y115.714 E169.3878
G1 X178.536 Y115.237 E169.4063
G1 X178.679 Y114.933 E169.4175
G1 X179.185 Y115.025 E169.4346
G1 X179.508 Y115.128 E169.4458
G1 X179.821 Y115.260 E169.4571
G1 X180.122 Y115.419 E169.4684
G1 X180.405 Y115.604 E169.4797
G1 X180.672 Y115.814 E169.4910
G1 X180.915 Y116.044 E169.5021
G1 X181.978 Y117.244 E169.5554
G1 X190.440 Y117.244 E169.8367
G1 X190.440 Y151.442 E170.9735
G1 X181.978 Y151.442 E171.2548
G1 X180.922 Y152.636 E171.3078
G1 X180.680 Y152.866 E171.3189
G1 X180.417 Y153.074 E171.3301
G1 X180.134 Y153.260 E171.3413
G1 X179.833 Y153.420 E171.3527
G1 X179.520 Y153.554 E171.3640
G1 X179.200 Y153.657 E171.3752
G1 X178.681 Y153.751 E171.3927
G1 X178.588 Y153.546 E171.4001
G1 X178.307 Y153.061 E171.4188
G1 X177.916 Y152.527 E171.4408
G1 X177.544 Y152.110 E171.4594
G1 X177.085 Y151.685 E171.4802
G1 X176.545 Y151.289 E171.5024
G1 X176.070 Y151.007 E171.5208
G1 X175.509 Y150.742 E171.5414
G1 X174.833 Y150.509 E171.5652
G1 X173.905 Y150.327 E171.5966
G1 X173.109 Y150.288 E171.6231
G1 X172.152 Y150.379 E171.6551
G1 X171.494 Y150.537 E171.6775
G1 X170.979 Y150.712 E171.6956
G1 X170.391 Y150.982 E171.7171
G1 X169.904 Y151.264 E171.7358
G1 X169.368 Y151.655 E171.7579
G1 X168.950 Y152.028 E171.7765
G1 X168.526 Y152.488 E171.7973
G1 X168.132 Y153.025 E171.8194
G1 X167.850 Y153.497 E171.8377
G1 X167.729 Y153.752 E171.8471
G1 X167.227 Y153.661 E171.8641
G1 X166.904 Y153.558 E171.8753
G1 X166.592 Y153.427 E171.8866
G1 X166.292 Y153.267 E171.8979
G1 X166.007 Y153.081 E171.9092
G1 X165.740 Y152.872 E171.9205
G1 X165.497 Y152.642 E171.9316
G1 X164.433 Y151.442 E171.9849
G1 X155.778 Y151.442 E172.2726
G1 X154.722 Y152.636 E172.3256
G1 X154.480 Y152.866 E172.3367
G1 X154.217 Y153.074 E172.3479
G1 X153.934 Y153.260 E172.3591
G1 X153.633 Y153.420 E172.3705
G1 X153.320 Y153.554 E172.3818
G1 X153.000 Y153.657 E172.3930
G1 X152.481 Y153.751 E172.4105
G1 X152.388 Y153.546 E172.4179
G1 X152.107 Y153.061 E172.4366
G1 X151.716 Y152.527 E172.4586
G1 X151.344 Y152.110 E172.4772
G1 X150.884 Y151.685 E172.4980
G1 X150.345 Y151.289 E172.5202
G1 X149.870 Y151.007 E172.5386
G1 X149.309 Y150.742 E172.5592
G1 X148.633 Y150.509 E172.5830
G1 X147.705 Y150.327 E172.6144
G1 X146.909 Y150.288 E172.6409
G1 X145.952 Y150.379 E172.6729
G1 X145.294 Y150.537 E172.6953
G1 X144.779 Y150.712 E172.7134
G1 X144.191 Y150.982 E172.7349
G1 X143.704 Y151.264 E172.7537
G1 X143.168 Y151.655 E172.7757
G1 X142.750 Y152.028 E172.7943
G1 X142.326 Y152.488 E172.8151
G1 X141.932 Y153.025 E172.8373
G1 X141.650 Y153.497 E172.8555
G1 X141.529 Y153.752 E172.8649
G1 X141.027 Y153.661 E172.8819
G1 X140.704 Y153.558 E172.8931
G1 X140.392 Y153.427 E172.9044
G1 X140.092 Y153.267 E172.9157
G1 X139.807 Y153.081 E172.9270
G1 X139.540 Y152.872 E172.9383
G1 X139.540 Y152.872 E172.9383
G0 X139.809 Y153.549 F4800
G1 F600 X139.577 Y153.398 E172.9475
G1 X139.283 Y153.167 E172.9599
G1 X139.014 Y152.913 E172.9722
G1 X138.056 Y151.832 E173.0202
G1 X129.381 Y151.832 E173.3086
G1 X129.381 Y116.854 E174.4714
G1 X138.057 Y116.854 E174.7599
G1 X139.007 Y115.780 E174.8076
G1 X139.274 Y115.527 E174.8198
G1 X139.565 Y115.296 E174.8321
G1 X139.878 Y115.091 E174.8446
G1 X140.209 Y114.913 E174.8571
G1 X140.554 Y114.767 E174.8695
G1 X140.909 Y114.653 E174.8819
G1 X141.274 Y114.571 E174.8944
G1 X141.770 Y114.517 E174.9110
G1 X141.974 Y114.961 E174.9272
G1 X142.236 Y115.413 E174.9446
G1 X142.603 Y115.915 E174.9652
G1 X142.949 Y116.304 E174.9826
G1 X143.379 Y116.699 E175.0020
G1 X143.884 Y117.071 E175.0228
G1 X144.328 Y117.336 E175.0400
G1 X144.853 Y117.584 E175.0593
G1 X145.482 Y117.800 E175.0814
G1 X146.356 Y117.971 E175.1110
G1 X147.094 Y118.007 E175.1356
G1 X147.996 Y117.922 E175.1657
G1 X148.609 Y117.774 E175.1866
G1 X149.087 Y117.612 E175.2034
G1 X149.640 Y117.358 E175.2237
G1 X150.093 Y117.096 E175.2411
G1 X150.596 Y116.728 E175.2618
G1 X150.987 Y116.381 E175.2791
G1 X151.382 Y115.951 E175.2986
G1 X151.753 Y115.447 E175.3194
G1 X152.016 Y115.006 E175.3364
G1 X152.247 Y114.516 E175.3545
G1 X152.727 Y114.568 E175.3705
G1 X153.088 Y114.648 E175.3828
G1 X153.444 Y114.762 E175.3952
G1 X153.791 Y114.907 E175.4077
G1 X154.122 Y115.084 E175.4202
G1 X154.435 Y115.287 E175.4326
G1 X154.730 Y115.520 E175.4451
G1 X154.999 Y115.773 E175.4574
G1 X155.956 Y116.854 E175.5054
G1 X164.257 Y116.854 E175.7813
G1 X165.207 Y115.780 E175.8290
G1 X165.474 Y115.527 E175.8412
G1 X165.765 Y115.296 E175.8536
G1 X166.078 Y115.091 E175.8660
G1 X166.409 Y114.913 E175.8785
G1 X166.754 Y114.767 E175.8910
G1 X167.109 Y114.653 E175.9034
G1 X167.474 Y114.571 E175.9158
G1 X167.977 Y114.515 E175.9326
G1 X168.144 Y114.908 E175.9468
G1 X168.463 Y115.452 E175.9678
G1 X168.764 Y115.868 E175.9848
G1 X169.111 Y116.263 E176.0023
G1 X169.612 Y116.725 E176.0250
G1 X170.034 Y117.039 E176.0425
G1 X170.480 Y117.308 E176.0598
G1 X171.091 Y117.598 E176.0823
G1 X171.593 Y117.773 E176.1000
G1 X172.174 Y117.910 E176.1198
G1 X172.698 Y117.985 E176.1374
G1 X173.591 Y117.995 E176.1671
G1 X174.323 Y117.898 E176.1916
G1 X175.176 Y117.656 E176.2211
G1 X175.788 Y117.387 E176.2433
G1 X176.332 Y117.069 E176.2643
G1 X176.750 Y116.767 E176.2814
G1 X177.145 Y116.420 E176.2989
G1 X177.608 Y115.918 E176.3216
G1 X177.920 Y115.497 E176.3390
G1 X178.189 Y115.054 E176.3562
G1 X178.443 Y114.516 E176.3760
G1 X178.927 Y114.568 E176.3922
G1 X179.288 Y114.648 E176.4045
G1 X179.644 Y114.762 E176.4169
G1 X179.991 Y114.907 E176.4294
G1 X180.322 Y115.084 E176.4419
G1 X180.635 Y115.287 E176.4543
G1 X180.930 Y115.520 E176.4668
G1 X181.199 Y115.773 E176.4791
G1 X182.156 Y116.854 E176.5271
G1 X190.832 Y116.854 E176.8155
G1 X190.832 Y151.832 E177.9783
G1 X182.156 Y151.832 E178.2668
G1 X181.205 Y152.906 E178.3145
G1 X180.938 Y153.160 E178.3267
G1 X180.648 Y153.390 E178.3390
G1 X180.335 Y153.595 E178.3514
G1 X180.004 Y153.772 E178.3639
G1 X179.658 Y153.919 E178.3764
G1 X179.303 Y154.034 E178.3888
G1 X178.938 Y154.115 E178.4012
G1 X178.442 Y154.169 E178.4178
G1 X178.238 Y153.725 E178.4341
G1 X177.977 Y153.274 E178.4514
G1 X177.610 Y152.771 E178.4721
G1 X177.263 Y152.383 E178.4894
G1 X176.834 Y151.986 E178.5088
G1 X176.327 Y151.614 E178.5297
G1 X175.885 Y151.351 E178.5469
G1 X175.360 Y151.103 E178.5661
G1 X174.730 Y150.887 E178.5883
G1 X173.857 Y150.715 E178.6179
G1 X173.118 Y150.679 E178.6425
G1 X172.217 Y150.764 E178.6726
G1 X171.604 Y150.911 E178.6935
G1 X171.125 Y151.075 E178.7103
G1 X170.573 Y151.328 E178.7306
G1 X170.119 Y151.590 E178.7480
G1 X169.616 Y151.958 E178.7687
G1 X169.226 Y152.305 E178.7861
G1 X168.830 Y152.735 E178.8055
G1 X168.460 Y153.240 E178.8263
G1 X168.197 Y153.680 E178.8433
G1 X167.965 Y154.171 E178.8614
G1 X167.485 Y154.118 E178.8774
G1 X167.124 Y154.038 E178.8897
G1 X166.768 Y153.924 E178.9022
G1 X166.422 Y153.779 E178.9146
G1 X166.091 Y153.603 E178.9271
G1 X165.777 Y153.398 E178.9396
G1 X165.483 Y153.167 E178.9520
G1 X165.214 Y152.913 E178.9643
G1 X164.256 Y151.832 E179.0123
G1 X155.956 Y151.832 E179.2882
G1 X155.005 Y152.906 E179.3359
G1 X154.738 Y153.160 E179.3481
G1 X154.448 Y153.390 E179.3604
G1 X154.135 Y153.595 E179.3729
G1 X153.804 Y153.772 E179.3854
G1 X153.458 Y153.919 E179.3978
G1 X153.103 Y154.034 E179.4102
G1 X152.738 Y154.115 E179.4227
G1 X152.242 Y154.169 E179.4393
G1 X152.038 Y153.725 E179.4555
G1 X151.777 Y153.274 E179.4728
G1 X151.410 Y152.771 E179.4935
G1 X151.063 Y152.383 E179.5108
G1 X150.634 Y151.986 E179.5303
G1 X150.127 Y151.614 E179.5512
G1 X149.685 Y151.351 E179.5683
G1 X149.160 Y151.103 E179.5876
G1 X148.530 Y150.887 E179.6097
G1 X147.657 Y150.715 E179.6393
G1 X146.918 Y150.679 E179.6639
G1 X146.017 Y150.764 E179.6940
G1 X145.404 Y150.911 E179.7149
G1 X144.925 Y151.075 E179.7318
G1 X144.373 Y151.328 E179.7520
G1 X143.919 Y151.590 E179.7694
G1 X143.416 Y151.958 E179.7901
G1 X143.026 Y152.305 E179.8075
G1 X142.630 Y152.735 E179.8269
G1 X142.260 Y153.240 E179.8477
G1 X141.997 Y153.680 E179.8648
G1 X141.765 Y154.171 E179.8828
G1 X141.285 Y154.118 E179.8989
G1 X140.924 Y154.038 E179.9112
G1 X140.568 Y153.924 E179.9236
G1 X140.223 Y153.779 E179.9360
G1 X140.223 Y153.779 E179.9360
G0 X140.550 Y154.328 F4800
G1 F600 X140.431 Y154.290 E179.9402
G1 X140.053 Y154.131 E179.9538
G1 X139.690 Y153.939 E179.9675
G1 X139.347 Y153.715 E179.9811
G1 X139.025 Y153.461 E179.9947
G1 X138.731 Y153.184 E180.0082
G1 X137.878 Y152.222 E180.0509
G1 X128.988 Y152.222 E180.3464
G1 X128.988 Y116.464 E181.5352
G1 X137.879 Y116.464 E181.8308
G1 X138.724 Y115.509 E181.8731
G1 X139.016 Y115.233 E181.8865
G1 X139.334 Y114.981 E181.9000
G1 X139.676 Y114.756 E181.9136
G1 X140.038 Y114.562 E181.9273
G1 X140.416 Y114.401 E181.9409
G1 X140.805 Y114.276 E181.9545
G1 X141.204 Y114.186 E181.9681
G1 X141.602 Y114.133 E181.9815
G1 X142.036 Y114.118 E181.9959
G1 X142.087 Y114.267 E182.0011
G1 X142.324 Y114.783 E182.0200
G1 X142.566 Y115.200 E182.0360
G1 X142.909 Y115.671 E182.0554
G1 X143.231 Y116.031 E182.0714
G1 X143.630 Y116.399 E182.0895
G1 X144.103 Y116.747 E182.1090
G1 X144.514 Y116.992 E182.1249
G1 X145.002 Y117.222 E182.1428
G1 X145.585 Y117.422 E182.1633
G1 X146.404 Y117.583 E182.1911
G1 X147.085 Y117.616 E182.2137
G1 X147.931 Y117.536 E182.2420
G1 X148.499 Y117.400 E182.2614
G1 X148.941 Y117.249 E182.2769
G1 X149.459 Y117.012 E182.2959
G1 X149.878 Y116.769 E182.3119
G1 X150.348 Y116.425 E182.3313
G1 X150.710 Y116.103 E182.3474
G1 X151.078 Y115.703 E182.3655
G1 X151.425 Y115.232 E182.3849
G1 X151.669 Y114.823 E182.4008
G1 X151.898 Y114.337 E182.4186
G1 X151.975 Y114.114 E182.4265
G1 X152.399 Y114.132 E182.4406
G1 X152.796 Y114.184 E182.4539
G1 X153.192 Y114.272 E182.4674
G1 X153.581 Y114.396 E182.4810
G1 X153.960 Y114.555 E182.4947
G1 X154.323 Y114.748 E182.5083
G1 X154.665 Y114.971 E182.5219
G1 X154.987 Y115.225 E182.5355
G1 X155.282 Y115.503 E182.5490
G1 X156.133 Y116.464 E182.5917
G1 X164.079 Y116.464 E182.8558
G1 X164.924 Y115.509 E182.8982
G1 X165.216 Y115.233 E182.9116
G1 X165.534 Y114.981 E182.9251
G1 X165.876 Y114.756 E182.9387
G1 X166.238 Y114.562 E182.9523
G1 X166.616 Y114.401 E182.9660
G1 X167.005 Y114.276 E182.9796
G1 X167.404 Y114.186 E182.9932
G1 X167.804 Y114.132 E183.0066
G1 X168.233 Y114.114 E183.0208
G1 X168.495 Y114.733 E183.0432
G1 X168.793 Y115.239 E183.0627
G1 X169.072 Y115.625 E183.0786
G1 X169.393 Y115.991 E183.0947
G1 X169.864 Y116.425 E183.1160
G1 X170.254 Y116.715 E183.1322
G1 X170.667 Y116.965 E183.1482
G1 X171.241 Y117.237 E183.1693
G1 X171.704 Y117.398 E183.1856
G1 X172.248 Y117.527 E183.2042
G1 X172.728 Y117.595 E183.2203
G1 X173.567 Y117.605 E183.2483
G1 X174.242 Y117.515 E183.2709
G1 X175.043 Y117.288 E183.2985
G1 X175.608 Y117.040 E183.3191
G1 X176.116 Y116.743 E183.3386
G1 X176.504 Y116.462 E183.3545
G1 X176.870 Y116.141 E183.3707
G1 X177.304 Y115.670 E183.3920
G1 X177.593 Y115.280 E183.4082
G1 X177.842 Y114.870 E183.4241
G1 X178.113 Y114.296 E183.4452
G1 X178.176 Y114.114 E183.4516
G1 X178.599 Y114.132 E183.4657
G1 X178.996 Y114.184 E183.4790
G1 X179.392 Y114.272 E183.4925
G1 X179.781 Y114.396 E183.5060
G1 X180.160 Y114.555 E183.5197
G1 X180.523 Y114.748 E183.5334
G1 X180.865 Y114.971 E183.5470
G1 X181.187 Y115.225 E183.5606
G1 X181.482 Y115.503 E183.5741
